Lenovezhou/ZlWyzlinkRobotControlledr/Assets/Data/Trajectory/Motus_Path.csv
J1 [rad],J2 [rad],J3 [rad],J4 [rad],J5 [rad],J6 [rad],,Electrical Power [W],,J1 [W], J2 [W],J3 [W],J4 [W],J5 [W],J6 [W]
-0.000210296,0.602958897,-0.563409561,-0.01497482,1.609647356,-0.016524428,,9.447947657,,7.11E-29,9.01239168,0.351727983,0.083827751,2.43E-07,0
-0.000222067,0.602950232,-0.563382778,-0.014974715,1.609665498,-0.016500605,,12.35429218,,0.061985811,10.95444008,1.253210404,0.083927704,0.000728182,0
-0.000303242,0.602891067,-0.563200045,-0.01497399,1.609789217,-0.016254147,,19.87779281,,0.461648429,15.35856821,3.968126863,0.0845016,0.004947711,0
-0.000519911,0.602734925,-0.562718294,-0.014972057,1.610115227,-0.015492066,,32.40379254,,1.475033617,22.19925299,8.629068637,0.085506494,0.014930808,0
-0.000934607,0.602439601,-0.56180811,-0.014968359,1.610730847,-0.013909332,,50.10439335,,3.32260301,31.39127133,15.2717841,0.086893382,0.031841535,0
-0.001606367,0.601967028,-0.560353302,-0.014962373,1.611714294,-0.010978383,,72.96399536,,6.173736179,42.79679101,23.84921236,0.088608815,0.055646996,0
-0.002590799,0.601283137,-0.558250468,-0.014953607,1.613134989,-0.006545386,,100.8037949,,10.15103352,56.23250972,34.24460403,0.090596413,0.085051175,0
-0.003940145,0.600357732,-0.555408567,-0.014941602,1.615053852,-0.000310232,,133.3053609,,15.33446186,71.47676604,46.28384766,0.092798303,0.117486987,0
-0.005703348,0.599164349,-0.551748479,-0.014925927,1.617523604,0.008037346,,170.0333315,,21.76537295,88.27654525,59.74707241,0.095156531,0.149184344,0
-0.007926112,0.597680125,-0.547202578,-0.014906182,1.620589064,0.019149054,,210.4572135,,29.45041523,106.3543056,74.3795598,0.097614441,0.175318411,0
-0.010650972,0.595885664,-0.541714299,-0.014881996,1.624287449,0.032705201,,253.9722285,,38.36535116,125.4145568,89.90197027,0.100118018,0.190232223,0
-0.013917351,0.593764904,-0.535237701,-0.014853029,1.628648673,0.048705856,,299.9191255,,48.45878584,145.1501318,106.0198699,0.102617167,0.187720731,0
-0.017761631,0.591304981,-0.527737039,-0.014818967,1.633695647,0.067160968,,347.6028642,,59.65580694,165.2481019,122.4325295,0.105066911,0.161358865,0
-0.022217214,0.588496096,-0.51918633,-0.014779522,1.639444578,0.08845765,,396.310071,,71.86153166,185.3952972,138.8409599,0.107428457,0.104853783,0
-0.027314586,0.585331383,-0.509568916,-0.014734437,1.645905266,0.11219884,,445.3251716,,84.9645524,205.2834042,154.955144,0.109670103,0.012400831,0
-0.033081382,0.581806771,-0.49887704,-0.014683478,1.653081408,0.138384364,,494.1870898,,98.84026945,224.6136228,170.5004267,0.111767962,0.121002847,0
-0.039542453,0.577920854,-0.487111404,-0.014626439,1.66097089,0.167024344,,542.0909583,,113.3540965,243.1008718,185.2230283,0.113706461,0.299255293,0
-0.046719926,0.573674757,-0.474280743,-0.014563137,1.669566096,0.198506768,,588.377029,,128.3645211,260.4775413,198.8946521,0.115478601,0.524835894,0
-0.054633269,0.569071999,-0.460401388,-0.014493414,1.678854196,0.232432478,,632.454689,,143.726002,276.4967946,211.3161691,0.117085971,0.798637421,0
-0.063299358,0.564118361,-0.445496838,-0.014417137,1.688817454,0.268803394,,673.7858555,,159.2916792,290.9354238,222.3203732,0.118538501,1.119840739,0
-0.07273254,0.558821752,-0.429597321,-0.014334196,1.699433524,0.307628243,,711.8916793,,174.9158764,303.5962706,231.7738131,0.119853961,1.485865217,0
-0.082944696,0.553192077,-0.412739366,-0.014244502,1.710675748,0.349294489,,746.3577657,,190.4563688,314.310218,239.5777249,0.121057232,1.892396858,0
-0.093945306,0.547241099,-0.39496537,-0.01414799,1.722513457,0.39340594,,776.8379311,,205.7763925,322.9377645,245.6681025,0.122179338,2.333492248,0
-0.105741516,0.540982309,-0.376323162,-0.014044615,1.734912271,0.439960853,,803.0565313,,220.7463723,329.3701875,250.0149621,0.12325629,2.801753074,0
-0.118338196,0.53443079,-0.356865576,-0.013934354,1.747834393,0.488971443,,824.8094069,,235.2453429,333.5303041,252.6208692,0.124327765,3.288562954,0
-0.131738013,0.527603084,-0.33665001,-0.013817204,1.761238917,0.540821685,,841.9635086,,249.1620487,335.372833,253.5188155,0.125435647,3.784375739,0
-0.145941486,0.520517058,-0.315738002,-0.013693179,1.775082119,0.595118878,,854.4552778,,262.3957052,334.8843659,252.7695418,0.126622484,4.279042385,0
-0.160947058,0.513191768,-0.294194792,-0.013562317,1.789317759,0.651857786,,862.287874,,274.8564183,332.0829488,250.4584149,0.127929902,4.762162069,0
-0.176751156,0.50564733,-0.27208889,-0.013424669,1.803897383,0.711054119,,865.5273559,,286.4652625,327.0172818,246.6919722,0.129397038,5.223442358,0
-0.193348256,0.497904781,-0.249491645,-0.013280308,1.818770619,0.773090102,,864.2979346,,297.154031,319.7655408,241.5942506,0.13105903,5.653053138,0
-0.210730949,0.489985948,-0.226476811,-0.013129321,1.833885476,0.837571291,,858.7764329,,306.8646817,310.4338316,235.3030144,0.132945653,6.041959519,0
-0.228890003,0.481913315,-0.203120114,-0.012971814,1.849188644,0.904495941,,849.1860928,,315.5485149,299.1542865,227.9659912,0.135080138,6.38222009,0
-0.247814429,0.473709884,-0.17949882,-0.012807907,1.864625796,0.973876269,,835.7898821,,323.1651305,286.0828188,219.7372159,0.137478253,6.667238692,0
-0.267491544,0.465399047,-0.155691302,-0.012637736,1.880141881,1.046097994,,818.8834564,,329.6812228,271.3965578,210.7735681,0.140147682,6.891960084,0
-0.287907037,0.457004451,-0.131776608,-0.012461453,1.895681431,1.120763179,,798.787933,,335.0692804,255.2909875,201.2315748,0.143087764,7.053002557,0
-0.309045032,0.44854986,-0.107834026,-0.012279222,1.911188852,1.197873571,,775.842632,,339.3062652,237.9768227,191.264531,0.146289611,7.148723451,0
-0.330888151,0.440059026,-0.083942656,-0.01209122,1.92660873,1.277437895,,750.397933,,342.3723466,219.6766593,181.0199739,0.149736621,7.17921654,0
-0.353417583,0.431555553,-0.060180969,-0.011897641,1.941886127,1.359765076,,722.8083868,,344.2497679,200.6214433,170.6375269,0.153405376,7.146243263,0
-0.376613143,0.423062762,-0.036626386,-0.011698686,1.956966878,1.444191888,,693.4262085,,344.9219148,181.0468077,160.2471165,0.157266902,7.053102601,0
-0.400453339,0.41460356,-0.013354833,-0.01149457,1.971797897,1.53041988,,662.5952617,,344.3726484,161.1893311,149.967547,0.161288228,6.904446931,0
-0.424915435,0.406200304,0.009559682,-0.011285521,1.986327468,1.6181506,,630.6456289,,342.5859515,141.282778,139.905412,0.165434198,6.706053305,0
-0.449975518,0.397874667,0.032045507,-0.011071774,2.000505552,1.707226969,,597.8888412,,339.5459193,121.5543817,130.1543094,0.169669429,6.464561237,0
-0.475608559,0.389647505,0.054033779,-0.010853575,2.014284079,1.797113171,,564.613823,,335.2371101,102.2212358,120.7943276,0.173960342,6.187189171,0
-0.501788479,0.381538724,0.075458853,-0.01063118,2.027617254,1.887521226,,531.0835908,,329.6452457,83.48685748,111.8917681,0.178277168,5.881442305,0
-0.528488214,0.373567143,0.096258737,-0.010404852,2.040461849,1.978138721,,497.5327242,,322.7582384,65.53799023,103.4990753,0.182595834,5.554824428,0
-0.555679777,0.365750364,0.116375526,-0.010174864,2.05277751,2.068791122,,464.1656175,,314.5674939,48.54170869,95.6549494,0.186899653,5.214565862,0
-0.583334324,0.358104636,0.135755831,-0.009941495,2.064527049,2.15942607,,431.1555038,,305.0694297,32.64288684,88.38462796,0.191180752,4.867378587,0
-0.611422219,0.350644721,0.154351215,-0.009705031,2.075676748,2.250078472,,398.6442384,,294.2671295,17.96208725,81.70033229,0.195441178,4.519248231,0
-0.639913096,0.343383759,0.172118626,-0.009465764,2.086196656,2.340730873,,366.7428209,,282.172049,4.593923125,75.60188419,0.199693669,4.175270936,0
-0.668775924,0.336333138,0.189020827,-0.009223991,2.09606089,2.431365821,,350.3303341,,268.8056809,7.403639771,70.07751013,0.203962062,3.839541191,0
-0.697979075,0.329502357,0.205026831,-0.008980015,2.105247931,2.522018222,,341.0517583,,254.2010895,18.02243344,65.10485926,0.208281354,3.515094721,0
-0.727490382,0.322898893,0.22011233,-0.008734142,2.113740928,2.61265317,,329.7184466,,238.4042296,27.2453415,60.6522696,0.212697434,3.203908471,0
-0.757277208,0.316528066,0.234260135,-0.008486684,2.121527991,2.703305572,,316.3580581,,221.474977,35.07853314,56.68032387,0.21726652,2.906957623,0
-0.787306508,0.310392907,0.247460601,-0.008237954,2.128602497,2.793957973,,301.0317846,,203.4878079,41.55385413,53.14374069,0.222054343,2.624327623,0
-0.817544894,0.304494024,0.259712063,-0.007988267,2.134963384,2.884592921,,283.8353725,,184.5320864,46.72712326,49.99365049,0.227135125,2.355377233,0
-0.847958702,0.298829464,0.271021272,-0.007737942,2.140615452,2.975245323,,264.8995885,,164.7119348,50.67580963,47.18030681,0.23259039,2.098946845,0
-0.878514049,0.293394587,0.28140382,-0.007487297,2.145569662,3.065897724,,244.3901829,,144.1456812,53.49610527,44.65628418,0.23850766,1.85360457,0
-0.909176907,0.288181925,0.29088458,-0.007236652,2.149843437,3.156532672,,222.5074319,,122.9648996,55.29941862,42.38021341,0.24497907,1.61792115,0
-0.939913158,0.283181052,0.299498134,-0.006986326,2.153460958,3.247185073,,199.4853647,,101.313073,56.20832466,40.32110364,0.252099921,1.39076344,0
-0.970688666,0.278378446,0.30728921,-0.006736639,2.156453466,3.337837475,,175.5908037,,79.34392353,56.35201869,38.46329896,0.259967216,1.171595309,0
-1.001469336,0.273757362,0.31431311,-0.006487909,2.158859558,3.428472423,,151.122365,,57.21946649,55.86133134,36.81211466,0.268678172,0.960774347,0
-1.032221182,0.269297691,0.320636146,-0.006240451,2.160725492,3.519124824,,126.409579,,35.10785005,54.86337284,35.40019427,0.27832872,0.759833091,0
-1.062910387,0.264975831,0.326336071,-0.005994579,2.162105478,3.609759772,,101.8122993,,13.18104446,53.47588576,34.29462233,0.289012,0.571734746,0
-1.093503371,0.26076455,0.331502514,-0.005750603,2.163061984,3.700412173,,94.49585509,,8.387727981,51.80139538,33.60481881,0.300816816,0.401096109,0
-1.123966855,0.256632855,0.336237408,-0.00550883,2.163666034,3.791064575,,113.4083841,,29.42769915,49.92125811,33.49122597,0.31382606,0.254374855,0
-1.154267924,0.252545855,0.34065543,-0.005269562,2.163997503,3.881699523,,132.3028179,,49.77018132,47.88971883,34.17477746,0.328115059,0.140025231,0
-1.184374092,0.24846463,0.344884427,-0.005033098,2.164145422,3.972351924,,151.3393797,,69.25178643,45.72809928,35.94710827,0.343749827,0.06863589,0
-1.214253365,0.244346095,0.34906585,-0.004799729,2.164208272,4.062969419,,170.7316469,,87.71711222,43.41925088,39.18142186,0.360785159,0.053076752,0
-1.243874307,0.240145798,0.353328552,-0.004569741,2.164270558,4.153412381,,183.5817589,,104.4397854,39.55373912,39.17839864,0.357817619,0.052018205,0
-1.273206104,0.235829894,0.35770368,-0.004343414,2.164329605,4.243244477,,196.7774942,,120.2504245,36.87320147,39.26098388,0.354296935,0.038587439,0
-1.302218627,0.231371956,0.362195062,-0.004121019,2.164362824,4.332221363,,210.2904212,,135.1916527,35.31814041,39.41283462,0.350348512,0.017444996,0
-1.3308825,0.226750615,0.366804586,-0.00390282,2.164350736,4.420046331,,224.1740362,,149.3051466,34.87581677,39.62026569,0.3460874,0.026719698,0
-1.359169158,0.221949285,0.371532324,-0.003689072,2.164276831,4.506387769,,238.4583187,,162.6290821,35.56462106,39.87175854,0.341616794,0.051240178,0
-1.387050917,0.216955893,0.376376654,-0.003480023,2.164127422,4.590652265,,253.1874848,,175.1960653,37.42020304,40.15752521,0.337026911,0.076664413,0
-1.414501036,0.211762608,0.381334393,-0.003275908,2.1638915,4.672752553,,268.4184078,,187.0314992,40.48340845,40.46912484,0.332394225,0.101981069,0
-1.441493781,0.206365572,0.386400917,-0.003076953,2.163560584,4.752426833,,284.1959831,,198.152347,44.79004216,40.79913002,0.327781041,0.126682843,0
-1.46800449,0.200764624,0.391570286,-0.002883373,2.163128582,4.829635836,,300.5434171,,208.5662651,50.36244938,41.1408403,0.323235391,0.150626915,0
-1.494009638,0.194963035,0.396835375,-0.002695372,2.162591643,4.904340292,,317.4547164,,218.2710898,57.20288013,41.48804066,0.318791216,0.173914516,0
-1.519486899,0.188967233,0.402187994,-0.00251314,2.16194801,4.976500929,,334.8893098,,227.2546711,65.28857851,41.83480264,0.314468803,0.196788752,0
-1.544415213,0.182786533,0.407619017,-0.002336857,2.161197877,5.04607848,,352.7687228,,235.4950548,74.56851626,42.17532642,0.310275457,0.219549798,0
-1.568774848,0.176432869,0.413118505,-0.002166687,2.160343241,5.113033674,,370.9752046,,242.961018,84.9616716,42.50382211,0.306206361,0.242486549,0
-1.592547467,0.169920515,0.418675834,-0.00200278,2.15938776,5.17732724,,389.3521955,,249.6129592,96.35673801,42.81442898,0.302245613,0.265823716,0
-1.615716187,0.163265826,0.424279819,-0.001845273,2.158336605,5.238919909,,407.7065029,,255.4041464,108.6131347,43.101171,0.298367392,0.289683335,0
-1.638265652,0.156486956,0.42991884,-0.001694286,2.157196316,5.297894585,,425.8120362,,260.2823113,121.5631806,43.35794756,0.294537244,0.314059548,0
-1.660182089,0.149603593,0.435580967,-0.001549924,2.155974653,5.354198906,,443.4149331,,264.1915716,135.0152849,43.57855769,0.290713459,0.338805494,0
-1.681453375,0.142636687,0.441254089,-0.001412277,2.154680457,5.407344182,,460.2398864,,267.0746452,148.7580053,43.75675624,0.286848518,0.363631062,0
-1.702069105,0.135608176,0.446926032,-0.001281414,2.1533235,5.457731837,,475.9974663,,268.8753071,162.5648186,43.88633973,0.282890598,0.388110222,0
-1.722020651,0.128540722,0.452584693,-0.00115739,2.15191434,5.505361873,,490.3922121,,269.5410202,176.1994505,43.96125961,0.278785102,0.411696634,0
-1.741301228,0.121457433,0.458218161,-0.001040239,2.150464177,5.550216835,,503.1312514,,269.0256582,189.421611,43.97575975,0.27447623,0.433746195,0
-1.75990596,0.114381594,0.463814843,-0.000929978,2.148984706,5.591877844,,513.9331927,,267.292222,201.9929823,43.92453464,0.26990854,0.453545212,0
-1.777831944,0.107336398,0.469363591,-0.000826603,2.147487973,5.630781233,,522.5370269,,264.3154408,213.6833108,43.80290386,0.265028511,0.470342869,0
-1.79507831,0.100344674,0.474853824,-0.000730091,2.145986229,5.666927002,,528.7107663,,260.0841416,224.276454,43.60699794,0.259786073,0.483386709,0
-1.811646293,0.093428615,0.48027566,-0.000640397,2.144491785,5.700297697,,532.2595491,,254.6032671,233.5762365,43.33394958,0.254136098,0.491959864,0
-1.82753929,0.086609509,0.485620035,-0.000557456,2.143016865,5.730491893,,533.0329406,,247.8954258,241.4119722,42.98208401,0.248039813,0.495418808,0
-1.842762928,0.079907466,0.490878831,-0.000481179,2.141573463,5.757928469,,530.9311693,,240.0018638,247.6435079,42.551101,0.241466121,0.493230418,0
-1.857325129,0.073341147,0.496045004,-0.000411457,2.140173196,5.782642331,,525.9100492,,230.9827624,252.1656461,42.04224066,0.234392798,0.48500717,0
-1.87123617,0.066927497,0.501112706,-0.000348154,2.138827158,5.804563666,,517.9843575,,220.916781,254.9118049,41.45842475,0.226807524,0.470539261,0
-1.884508753,0.060681467,0.506077413,-0.000291115,2.137545778,5.823325956,,507.2294555,,209.899789,255.8567709,40.80436438,0.218708722,0.449822442,0
-1.897158067,0.05461575,0.510936047,-0.000240156,2.136338669,5.839348078,,493.7809661,,198.0427516,255.0184031,40.08662494,0.210106165,0.423080282,0
-1.909201848,0.048740507,0.515687107,-0.000195071,2.135214488,5.852647487,,477.8323462,,185.4687617,252.4581447,39.313639,0.201021313,0.390779503,0
-1.920660451,0.043063095,0.520330791,-0.000155627,2.134180787,5.863189276,,459.6302203,,172.3092364,248.2802021,38.49565761,0.191487347,0.353636903,0
-1.931556909,0.037587797,0.524869122,-0.000121564,2.133243871,5.870572019,,439.4673682,,158.6993179,242.6292543,37.64463089,0.181548873,0.312616238,0
-1.941916998,0.032315551,0.529306073,-9.26E-05,2.132408647,5.875249501,,417.673285,,144.7725422,235.6865592,36.77400899,0.171261274,0.268913287,0
-1.951769305,0.027243682,0.533647695,-6.84E-05,2.131678486,5.877274083,,394.6022593,,130.6548529,227.6643346,35.89845492,0.160689688,0.223927154,0
-1.961145285,0.022365625,0.537902239,-4.87E-05,2.13105507,5.876925017,,370.6189315,,116.4580447,218.798302,35.03346148,0.149907625,0.179215675,0
-1.970079333,0.017670659,0.542080287,-3.30E-05,2.130538253,5.874254663,,346.0813138,,102.2727239,209.3382969,34.1948651,0.138995225,0.136432694,0
-1.978608844,0.013143633,0.546194869,-2.10E-05,2.130125912,5.870030967,,321.3212634,,88.16086008,199.5368713,33.39824998,0.128037189,0.097244867,0
-1.986774278,0.008764698,0.550261598,-1.22E-05,2.129813802,5.864568086,,296.6224041,,74.14798219,189.6358389,32.65823698,0.117120413,0.063225609,0
-1.994619226,0.004509034,0.55429879,-6.23E-06,2.12959541,5.858215088,,272.1954879,,60.2150361,179.8507446,31.98765187,0.1063314,0.035723911,0
-2.00219047,0.000346579,0.55832759,-2.54E-06,2.129461814,5.85128613,,248.1511745,,46.28986966,170.353277,31.39656839,0.095753517,0.015705907,0
-2.009538053,-0.003758242,0.562372099,-6.03E-07,2.12940153,5.844235,,224.4701845,,32.23824333,161.251688,30.89122155,0.085464178,0.003567452,0
-2.016715339,-0.007846786,0.5664595,1.22E-07,2.129400375,5.837201323,,200.9732022,,17.85417717,152.5693311,30.47278671,0.075532071,0.001375125,0
-2.023779081,-0.011966466,0.57062018,2.27E-07,2.129441314,5.830202553,,177.2731858,,2.849335739,144.2214917,30.1360192,0.066014542,0.000324683,0
-2.030725491,-0.016123753,0.574843789,2.27E-07,2.129511127,5.823256143,,183.7434324,,1.27376164,151.5959557,30.80825088,0.065288516,0.000175708,0
-2.037602089,-0.020352808,0.579158365,2.27E-07,2.129598393,5.816379545,,189.5138222,,1.260825988,156.7089193,31.4786544,0.065281554,0.000141048,0
-2.044461232,-0.024653997,0.58356602,2.27E-07,2.129703113,5.809520401,,195.2515296,,1.233482598,161.7675616,32.18501984,0.065292372,0.000173158,0
-2.051250563,-0.029028665,0.588071587,2.27E-07,2.12984274,5.802731071,,200.9065376,,2.617319021,165.2301433,32.99235322,0.065960841,0.00076121,0
-2.058004987,-0.033487632,0.592685889,2.27E-07,2.129999819,5.795976646,,208.1797388,,1.159346861,173.2527459,33.70207936,0.065269732,0.00029703,0
-2.064707052,-0.038020252,0.597400023,2.27E-07,2.130174352,5.789274582,,214.5672978,,1.102010273,178.987312,34.41237253,0.065231598,0.00037146,0
-2.071356756,-0.0426267,0.602212419,2.27E-07,2.130383792,5.782624878,,221.0279255,,1.090551696,184.7096099,35.16223014,0.065243401,0.000290392,0
-2.077971554,-0.047308371,0.607127965,2.27E-07,2.130610684,5.77601008,,227.1401083,,2.542865243,188.4715359,36.05833576,0.065982851,0.001388537,0
-2.084533992,-0.05207696,0.612161843,2.27E-07,2.130872484,5.769447642,,235.0978362,,0.845465979,197.4002201,36.78648056,0.065125321,0.000544297,0
-2.09104407,-0.056921296,0.61730114,2.27E-07,2.13116919,5.762937564,,242.2430676,,0.867470117,203.7526377,37.55727314,0.065129141,0.000557589,0
-2.097501788,-0.061842077,0.622546552,2.27E-07,2.131500802,5.756479846,,249.531607,,0.974363389,210.1337263,38.35794005,0.065184217,0.00039301,0
-2.103907147,-0.0668407,0.627901222,2.27E-07,2.131849868,5.750074487,,256.0262715,,2.194708679,214.4076946,39.35608844,0.06584725,0.001932533,0
-2.110277599,-0.071929207,0.63338592,2.27E-07,2.132251294,5.743704035,,265.1345962,,0.760848608,224.1956686,40.11238743,0.065067783,0.000623805,0
-2.11659569,-0.077096778,0.638982842,2.27E-07,2.132687626,5.737385943,,272.989277,,0.612737965,231.3656234,40.94512046,0.064981684,0.000813529,0
-2.122861422,-0.082344111,0.644696177,2.27E-07,2.133141412,5.731120211,,281.101103,,0.727804506,238.4987605,41.80877392,0.065032033,0.00073202,0
-2.129092248,-0.087672252,0.650528718,2.27E-07,2.133647557,5.724889386,,288.5369602,,2.226306697,243.3010902,42.94126428,0.065881066,0.002417975,0
-2.13525326,-0.093094641,0.65649914,2.27E-07,2.134206063,5.718728374,,305.8448828,,4.134610088,257.8892394,43.74706214,0.067024631,0.006946591,0
-2.141361913,-0.09858597,0.662578646,3.04E-07,2.134782021,5.712619721,,331.1884276,,12.38484041,274.107759,44.60150629,0.071918324,0.022403556,0
-2.147383298,-0.104114824,0.668732328,3.04E-07,2.13541034,5.706598335,,357.1690937,,21.44358325,290.4027375,45.20312539,0.077678659,0.041968821,0
-2.153265058,-0.109643678,0.674919171,3.04E-07,2.136073565,5.700716576,,392.010941,,36.95575827,309.1448309,45.74994789,0.088549992,0.071853955,0
-2.158937378,-0.115121394,0.681086292,3.04E-07,2.136754243,5.695044256,,404.9052547,,39.12187259,320.3880542,45.21263755,0.091007818,0.091682546,0
-2.164400259,-0.120507305,0.687182552,3.04E-07,2.137469828,5.689581375,,420.4720277,,45.69459919,329.9971762,44.56831032,0.097236935,0.114705019,0
-2.169636246,-0.125758652,0.693156465,3.04E-07,2.138202867,5.684345388,,427.5470712,,49.40163923,334.3955561,43.51505498,0.102061971,0.132758917,0
-2.174575528,-0.130839655,0.69896527,3.04E-07,2.138918452,5.679406106,,435.6953928,,55.48298319,337.6427396,42.30485152,0.110067012,0.154751493,0
-2.179218104,-0.135707901,0.704561319,3.04E-07,2.13965149,5.67476353,,406.4901509,,44.36653645,321.5946664,40.28963766,0.102312696,0.136997697,0
-2.18359888,-0.140383289,0.709959274,3.04E-07,2.140367075,5.670382754,,394.232053,,41.73594962,313.6167387,38.64075728,0.102083339,0.136524077,0
-2.187717857,-0.144857965,0.715149534,3.04E-07,2.14108266,5.666263776,,381.7077513,,39.58028077,304.9222904,36.9667225,0.102363104,0.136094609,0
-2.191592488,-0.149123026,0.720116217,3.04E-07,2.141780792,5.662389146,,379.9322959,,42.78191842,301.6515174,35.23791999,0.109093036,0.151847118,0
-2.19515296,-0.153137283,0.724811153,3.04E-07,2.14246147,5.658828674,,348.335923,,33.83052891,281.260042,33.01427928,0.101585039,0.129487774,0
-2.198486539,-0.156927615,0.729261219,3.04E-07,2.143124695,5.655495095,,331.9226807,,31.50956974,269.0835263,31.10289588,0.10154088,0.125147963,0
-2.201558318,-0.160487214,0.733454372,3.04E-07,2.143770467,5.652423316,,314.9263927,,29.32635649,256.241029,29.13583617,0.10170377,0.12146721,0
-2.204403205,-0.163808226,0.737379269,3.04E-07,2.144363879,5.649578429,,306.151317,,30.95583108,247.901072,27.05458605,0.108213146,0.131614687,0
-2.206968839,-0.166846321,0.740981105,3.04E-07,2.144939838,5.647012795,,273.1450695,,24.04260664,224.2227089,24.67131831,0.101078476,0.107357085,0
-2.209290127,-0.169634833,0.744296707,3.04E-07,2.145463436,5.644691507,,252.9197948,,21.79231876,208.382118,22.54433341,0.101041275,0.099983421,0
-2.211384522,-0.172168179,0.747316999,3.04E-07,2.145952128,5.642597112,,232.167055,,19.64661777,191.9565377,20.36994565,0.101235335,0.092718599,0
-2.213252024,-0.174439725,0.750030113,3.04E-07,2.146388461,5.64072961,,216.4373549,,19.84881471,178.3476128,18.03757966,0.107640714,0.095707085,0
-2.214840274,-0.176405663,0.752385261,3.04E-07,2.146772433,5.63914136,,183.5126136,,14.6116559,153.1799425,15.54761807,0.10065032,0.07274688,0
-2.216219084,-0.178100378,0.754416824,3.04E-07,2.147121499,5.63776255,,160.3130772,,12.44394362,134.4337435,13.27187799,0.100705447,0.062806642,0
-2.217353548,-0.179524567,0.756127247,3.04E-07,2.147400752,5.636628086,,136.7575076,,10.28768994,115.3477482,10.96813622,0.100925531,0.053007686,0
-2.218278573,-0.180672994,0.757509547,3.04E-07,2.147627645,5.635703061,,114.7358255,,9.001441398,97.0884981,8.491757417,0.106628303,0.047500314,0
-2.218941798,-0.181502025,0.75850613,3.04E-07,2.147802178,5.635039836,,82.76889421,,4.962388179,71.59340872,6.090717311,0.095867208,0.026512799,0
-2.219395583,-0.182084965,0.759209498,3.04E-07,2.147924351,5.634586051,,60.41017072,,2.794572784,53.3221133,4.188594504,0.08976642,0.01512371,0
-2.219706834,-0.182483773,0.759690627,3.04E-07,2.148007254,5.6342748,,43.91454016,,1.428510885,39.64612865,2.748049573,0.083983535,0.007867512,0
-2.219900067,-0.182730238,0.759987894,3.04E-07,2.148057744,5.634081567,,32.22945938,,0.642159589,29.80207378,1.702923095,0.078679871,0.003623048,0
-2.2199998,-0.182856151,0.760139675,3.04E-07,2.148082677,5.633981834,,24.36540814,,0.240951724,23.06073898,0.988318542,0.073991488,0.001407409,0
-2.220030551,-0.182893302,0.760184347,3.04E-07,2.14808891,5.633951083,,19.42819588,,0.068622342,18.74860718,0.540508733,0.070034521,0.0004231,0
-2.220016838,-0.18287348,0.760160287,3.04E-07,2.1480833,5.633964796,,16.63574867,,0.01209941,16.25985181,0.296803233,0.066911978,8.22E-05,0
-2.219983178,-0.182828475,0.76010587,3.04E-07,2.148072704,5.633998456,,15.31950864,,0.000724353,15.05868099,0.195375092,0.064721988,6.22E-06,0
-2.219954089,-0.182790078,0.760059473,3.04E-07,2.148063977,5.634027545,,14.91055863,,9.59E-33,14.67194289,0.175048242,0.0635675,1.50E-12,0
-2.219954089,-0.182790078,0.760059473,3.04E-07,2.148063977,5.634027545,,14.91055863,,9.59E-33,14.67194289,0.175048242,0.0635675,1.50E-12,0
-2.219954089,-0.182790078,0.760059473,3.04E-07,2.148063977,5.634027545,,14.91055863,,9.59E-33,14.67194289,0.175048242,0.0635675,1.50E-12,0
-2.219954089,-0.182790078,0.760059473,3.04E-07,2.148063977,5.634027545,,14.91055863,,9.59E-33,14.67194289,0.175048242,0.0635675,1.50E-12,0
-2.219954089,-0.182790078,0.760059473,3.04E-07,2.148063977,5.634027545,,14.91055863,,9.59E-33,14.67194289,0.175048242,0.0635675,1.50E-12,0
-2.219954089,-0.182790078,0.760059473,3.04E-07,2.148063977,5.634027545,,14.91055863,,9.59E-33,14.67194289,0.175048242,0.0635675,1.50E-12,0
-2.219954089,-0.182790078,0.760059473,3.04E-07,2.148063977,5.634027545,,14.91055863,,9.59E-33,14.67194289,0.175048242,0.0635675,1.50E-12,0
-2.219954089,-0.182790078,0.760059473,3.04E-07,2.148063977,5.634027545,,14.91055863,,9.59E-33,14.67194289,0.175048242,0.0635675,1.50E-12,0
-2.219954089,-0.182790078,0.760059473,3.04E-07,2.148063977,5.634027545,,14.91055863,,9.59E-33,14.67194289,0.175048242,0.0635675,1.50E-12,0
-2.219954089,-0.182790078,0.760059473,3.04E-07,2.148063977,5.634027545,,14.91055863,,9.59E-33,14.67194289,0.175048242,0.0635675,1.50E-12,0
-2.219954089,-0.182790078,0.760059473,3.04E-07,2.148063977,5.634027545,,14.91055863,,9.59E-33,14.67194289,0.175048242,0.0635675,1.50E-12,0
-2.219954089,-0.182790078,0.760059473,3.04E-07,2.148063977,5.634027545,,14.91055863,,9.59E-33,14.67194289,0.175048242,0.0635675,1.50E-12,0
-2.219954089,-0.182790078,0.760059473,3.04E-07,2.148063977,5.634027545,,14.91055863,,9.59E-33,14.67194289,0.175048242,0.0635675,1.50E-12,0
-2.219954089,-0.182790078,0.760059473,3.04E-07,2.148063977,5.634027545,,14.91055863,,9.59E-33,14.67194289,0.175048242,0.0635675,1.50E-12,0
-2.219954089,-0.182790078,0.760059473,3.04E-07,2.148063977,5.634027545,,14.91055863,,9.59E-33,14.67194289,0.175048242,0.0635675,1.50E-12,0
-2.219954089,-0.182790078,0.760059473,3.04E-07,2.148063977,5.634027545,,14.91055863,,9.59E-33,14.67194289,0.175048242,0.0635675,1.50E-12,0
-2.219954089,-0.182790078,0.760059473,3.04E-07,2.148063977,5.634027545,,14.91055863,,9.59E-33,14.67194289,0.175048242,0.0635675,1.50E-12,0
-2.219954089,-0.182790078,0.760059473,3.04E-07,2.148063977,5.634027545,,14.91055863,,9.59E-33,14.67194289,0.175048242,0.0635675,1.50E-12,0
-2.219954089,-0.182790078,0.760059473,3.04E-07,2.148063977,5.634027545,,14.91055863,,9.59E-33,14.67194289,0.175048242,0.0635675,1.50E-12,0
-2.219954089,-0.182790078,0.760059473,3.04E-07,2.148063977,5.634027545,,14.91055863,,9.59E-33,14.67194289,0.175048242,0.0635675,1.50E-12,0
-2.219954089,-0.182790078,0.760059473,3.04E-07,2.148063977,5.634027545,,14.91055863,,9.59E-33,14.67194289,0.175048242,0.0635675,1.50E-12,0
-2.219954089,-0.182790078,0.760059473,3.04E-07,2.148063977,5.634027545,,14.91055863,,9.59E-33,14.67194289,0.175048242,0.0635675,1.50E-12,0
-2.219954089,-0.182790078,0.760059473,3.04E-07,2.148063977,5.634027545,,14.91055863,,9.59E-33,14.67194289,0.175048242,0.0635675,1.50E-12,0
-2.219954089,-0.182790078,0.760059473,3.04E-07,2.148063977,5.634027545,,14.91055863,,9.59E-33,14.67194289,0.175048242,0.0635675,1.50E-12,0
-2.219954089,-0.182790078,0.760059473,3.04E-07,2.148063977,5.634027545,,14.91055863,,9.59E-33,14.67194289,0.175048242,0.0635675,1.50E-12,0
-2.219954089,-0.182790078,0.760059473,3.04E-07,2.148063977,5.634027545,,14.91055863,,9.59E-33,14.67194289,0.175048242,0.0635675,1.50E-12,0
-2.219954089,-0.182790078,0.760059473,3.04E-07,2.148063977,5.634027545,,14.91055863,,9.59E-33,14.67194289,0.175048242,0.0635675,1.50E-12,0
-2.219954089,-0.182790078,0.760059473,3.04E-07,2.148063977,5.634027545,,14.91055863,,9.59E-33,14.67194289,0.175048242,0.0635675,1.50E-12,0
-2.219954089,-0.182790078,0.760059473,3.04E-07,2.148063977,5.634027545,,14.91055863,,9.59E-33,14.67194289,0.175048242,0.0635675,1.50E-12,0
-2.219954089,-0.182790078,0.760059473,3.04E-07,2.148063977,5.634027545,,14.91055863,,9.59E-33,14.67194289,0.175048242,0.0635675,1.50E-12,0
-2.219954089,-0.182790078,0.760059473,3.04E-07,2.148063977,5.634027545,,14.91055863,,9.59E-33,14.67194289,0.175048242,0.0635675,1.50E-12,0
-2.219954089,-0.182790078,0.760059473,3.04E-07,2.148063977,5.634027545,,14.91055863,,9.59E-33,14.67194289,0.175048242,0.0635675,1.50E-12,0
-2.219954089,-0.182790078,0.760059473,3.04E-07,2.148063977,5.634027545,,14.91055863,,9.59E-33,14.67194289,0.175048242,0.0635675,1.50E-12,0
-2.219954089,-0.182790078,0.760059473,3.04E-07,2.148063977,5.634027545,,14.91055863,,9.59E-33,14.67194289,0.175048242,0.0635675,1.50E-12,0
-2.219954089,-0.182790078,0.760059473,3.04E-07,2.148063977,5.634027545,,14.91055863,,9.59E-33,14.67194289,0.175048242,0.0635675,1.50E-12,0
-2.219954089,-0.182790078,0.760059473,3.04E-07,2.148063977,5.634027545,,14.91055863,,9.59E-33,14.67194289,0.175048242,0.0635675,1.50E-12,0
-2.219954089,-0.182790078,0.760059473,3.04E-07,2.148063977,5.634027545,,14.91055863,,9.59E-33,14.67194289,0.175048242,0.0635675,1.50E-12,0
-2.219954089,-0.182790078,0.760059473,3.04E-07,2.148063977,5.634027545,,14.91055863,,9.59E-33,14.67194289,0.175048242,0.0635675,1.50E-12,0
-2.219954089,-0.182790078,0.760059473,3.04E-07,2.148063977,5.634027545,,14.91055863,,9.59E-33,14.67194289,0.175048242,0.0635675,1.50E-12,0
-2.219954089,-0.182790078,0.760059473,3.04E-07,2.148063977,5.634027545,,14.91055863,,9.59E-33,14.67194289,0.175048242,0.0635675,1.50E-12,0
-2.219954089,-0.182790078,0.760059473,3.04E-07,2.148063977,5.634027545,,14.91055863,,9.59E-33,14.67194289,0.175048242,0.0635675,1.50E-12,0
-2.219954089,-0.182790078,0.760059473,3.04E-07,2.148063977,5.634027545,,14.91055863,,9.59E-33,14.67194289,0.175048242,0.0635675,1.50E-12,0
-2.219954089,-0.182790078,0.760059473,3.04E-07,2.148063977,5.634027545,,14.91055863,,9.59E-33,14.67194289,0.175048242,0.0635675,1.50E-12,0
-2.219954089,-0.182790078,0.760059473,3.04E-07,2.148063977,5.634027545,,14.91055863,,9.59E-33,14.67194289,0.175048242,0.0635675,1.50E-12,0
-2.219954089,-0.182790078,0.760059473,3.04E-07,2.148063977,5.634027545,,14.91055863,,9.59E-33,14.67194289,0.175048242,0.0635675,1.50E-12,0
-2.219954089,-0.182790078,0.760059473,3.04E-07,2.148063977,5.634027545,,14.91055863,,9.59E-33,14.67194289,0.175048242,0.0635675,1.50E-12,0
-2.219954089,-0.182790078,0.760059473,3.04E-07,2.148063977,5.634027545,,14.91055863,,9.59E-33,14.67194289,0.175048242,0.0635675,1.50E-12,0
-2.219954089,-0.182790078,0.760059473,3.04E-07,2.148063977,5.634027545,,14.91055863,,9.59E-33,14.67194289,0.175048242,0.0635675,1.50E-12,0
-2.219954089,-0.182790078,0.760059473,3.04E-07,2.148063977,5.634027545,,14.91055863,,9.59E-33,14.67194289,0.175048242,0.0635675,1.50E-12,0
-2.219954089,-0.182790078,0.760059473,3.04E-07,2.148063977,5.634027545,,14.91055863,,9.59E-33,14.67194289,0.175048242,0.0635675,1.50E-12,0
-2.219954089,-0.182790078,0.760059473,3.04E-07,2.148063977,5.634027545,,14.91055863,,9.59E-33,14.67194289,0.175048242,0.0635675,1.50E-12,0
-2.219954089,-0.182790078,0.760059473,3.04E-07,2.148063977,5.634027545,,14.91055863,,9.59E-33,14.67194289,0.175048242,0.0635675,1.50E-12,0
-2.219954089,-0.182790078,0.760059473,3.04E-07,2.148063977,5.634027545,,14.91055863,,9.59E-33,14.67194289,0.175048242,0.0635675,1.50E-12,0
-2.219954089,-0.182790078,0.760059473,3.04E-07,2.148063977,5.634027545,,14.91055863,,9.59E-33,14.67194289,0.175048242,0.0635675,1.50E-12,0
-2.219954089,-0.182790078,0.760059473,3.04E-07,2.148063977,5.634027545,,14.91055863,,9.59E-33,14.67194289,0.175048242,0.0635675,1.50E-12,0
-2.219954089,-0.182790078,0.760059473,3.04E-07,2.148063977,5.634027545,,14.91055863,,9.59E-33,14.67194289,0.175048242,0.0635675,1.50E-12,0
-2.219954089,-0.182790078,0.760059473,3.04E-07,2.148063977,5.634027545,,14.91055863,,9.59E-33,14.67194289,0.175048242,0.0635675,1.50E-12,0
-2.219954089,-0.182790078,0.760059473,3.04E-07,2.148063977,5.634027545,,14.91055863,,9.59E-33,14.67194289,0.175048242,0.0635675,1.50E-12,0
-2.219954089,-0.182790078,0.760059473,3.04E-07,2.148063977,5.634027545,,14.91055863,,9.59E-33,14.67194289,0.175048242,0.0635675,1.50E-12,0
-2.219954089,-0.182790078,0.760059473,3.04E-07,2.148063977,5.634027545,,14.91055863,,9.59E-33,14.67194289,0.175048242,0.0635675,1.50E-12,0
-2.219954089,-0.182790078,0.760059473,3.04E-07,2.148063977,5.634027545,,14.91055863,,9.59E-33,14.67194289,0.175048242,0.0635675,1.50E-12,0
-2.219954089,-0.182790078,0.760059473,3.04E-07,2.148063977,5.634027545,,14.91055863,,9.59E-33,14.67194289,0.175048242,0.0635675,1.50E-12,0
-2.219954089,-0.182790078,0.760059473,3.04E-07,2.148063977,5.634027545,,14.91055863,,9.59E-33,14.67194289,0.175048242,0.0635675,1.50E-12,0
-2.219954089,-0.182790078,0.760059473,3.04E-07,2.148063977,5.634027545,,14.91055863,,9.59E-33,14.67194289,0.175048242,0.0635675,1.50E-12,0
-2.219954089,-0.182790078,0.760059473,3.04E-07,2.148063977,5.634027545,,14.91055863,,9.59E-33,14.67194289,0.175048242,0.0635675,1.50E-12,0
-2.219954089,-0.182790078,0.760059473,3.04E-07,2.148063977,5.634027545,,14.91055863,,9.59E-33,14.67194289,0.175048242,0.0635675,1.50E-12,0
-2.219954089,-0.182790078,0.760059473,3.04E-07,2.148063977,5.634027545,,14.91055863,,9.59E-33,14.67194289,0.175048242,0.0635675,1.50E-12,0
-2.219954089,-0.182790078,0.760059473,3.04E-07,2.148063977,5.634027545,,14.91055863,,9.59E-33,14.67194289,0.175048242,0.0635675,1.50E-12,0
-2.219954089,-0.182790078,0.760059473,3.04E-07,2.148063977,5.634027545,,14.91055863,,9.59E-33,14.67194289,0.175048242,0.0635675,1.50E-12,0
-2.219954089,-0.182790078,0.760059473,3.04E-07,2.148063977,5.634027545,,14.91055863,,9.59E-33,14.67194289,0.175048242,0.0635675,1.50E-12,0
-2.219954089,-0.182790078,0.760059473,3.04E-07,2.148063977,5.634027545,,14.91055863,,9.59E-33,14.67194289,0.175048242,0.0635675,1.50E-12,0
-2.219954089,-0.182790078,0.760059473,3.04E-07,2.148063977,5.634027545,,14.91055863,,9.59E-33,14.67194289,0.175048242,0.0635675,1.50E-12,0
-2.219954089,-0.182790078,0.760059473,3.04E-07,2.148063977,5.634027545,,14.91055863,,9.59E-33,14.67194289,0.175048242,0.0635675,1.50E-12,0
-2.219954089,-0.182790078,0.760059473,3.04E-07,2.148063977,5.634027545,,14.91055863,,9.59E-33,14.67194289,0.175048242,0.0635675,1.50E-12,0
-2.219954089,-0.182790078,0.760059473,3.04E-07,2.148063977,5.634027545,,14.91055863,,9.59E-33,14.67194289,0.175048242,0.0635675,1.50E-12,0
-2.219954089,-0.182790078,0.760059473,3.04E-07,2.148063977,5.634027545,,14.91055863,,9.59E-33,14.67194289,0.175048242,0.0635675,1.50E-12,0
-2.219954089,-0.182790078,0.760059473,3.04E-07,2.148063977,5.634027545,,14.91055863,,9.59E-33,14.67194289,0.175048242,0.0635675,1.50E-12,0
-2.220007903,-0.182858437,0.76014194,2.78E-07,2.148079976,5.633973731,,17.08234447,,0.00396117,16.59185278,0.422396611,0.064112092,2.18E-05,0
-2.220084573,-0.182955988,0.760259625,2.35E-07,2.148103039,5.633897061,,20.06837959,,0.033397572,19.23323213,0.735972149,0.065595535,0.000182204,0
-2.220153139,-0.183043566,0.76036528,1.81E-07,2.148124232,5.633828495,,22.5096379,,0.10863191,21.39724158,0.934723005,0.068446178,0.000595222,0
-2.220182644,-0.183082005,0.760411656,1.23E-07,2.148134621,5.63379899,,22.88090788,,0.188060525,21.78201559,0.836601621,0.073159629,0.00107052,0
-2.220142127,-0.183032138,0.760351504,6.87E-08,2.148125271,5.633839507,,19.22146414,,0.067422195,18.8164725,0.256605629,0.080341847,0.000621969,0
-2.220000631,-0.182854801,0.760137577,2.53E-08,2.148087248,5.633981003,,32.41947345,,0.884310231,30.08403825,1.354923049,0.090761382,0.005440537,0
-2.219727196,-0.182510825,0.759722625,0,2.148011617,5.634254438,,59.74548552,,3.553615013,52.58128324,3.485103873,0.105408995,0.020074398,0
-2.219290864,-0.181961046,0.7590594,0,2.147889444,5.63469077,,106.0930889,,9.720202572,89.49015157,6.703853944,0.125561649,0.053319116,0
-2.218505466,-0.180969699,0.757865594,0,2.147697458,5.635476168,,175.3012858,,21.00579149,142.9462519,11.08768953,0.148837983,0.112714919,0
-2.217266282,-0.17940763,0.75598762,0,2.147383298,5.636715352,,299.9603305,,46.77687761,235.4263845,17.31419855,0.197490522,0.245379248,0
-2.21534642,-0.177032237,0.753135752,0,2.146894606,5.638635214,,399.0003493,,64.86276588,309.2776799,24.33783985,0.194921124,0.32714253,0
-2.212780786,-0.173870747,0.74935118,0,2.146283741,5.641200848,,500.2305283,,84.8838385,383.370085,31.36644334,0.197337202,0.41282425,0
-2.209534473,-0.169929794,0.744649263,0,2.145515796,5.644447161,,580.334793,,99.87104243,441.6601368,38.14814006,0.191008891,0.464464812,0
-2.205624936,-0.165263132,0.739102956,0,2.144643132,5.648356698,,647.8819758,,114.3090177,488.2187285,44.67152538,0.186641539,0.496062746,0
-2.20108708,-0.159932897,0.732800572,0,2.143665747,5.652894554,,591.8678053,,86.02090432,456.6994496,48.65399803,0.139174578,0.354278816,0
-2.196077985,-0.154190938,0.726048068,0,2.142653456,5.657903649,,557.7588749,,69.83109717,436.2877112,51.25251961,0.11795616,0.269590739,0
-2.190719824,-0.148173741,0.719009853,0,2.141641165,5.66326181,,506.271668,,49.20822583,404.2512195,52.53587833,0.098435324,0.177908974,0
-2.185117317,-0.142011158,0.711843706,0,2.140628874,5.668864317,,439.7889705,,27.13767632,359.6926849,52.79637151,0.081793272,0.080444557,0
-2.179340277,-0.135840896,0.704715257,7.59E-08,2.139668943,5.674641357,,375.5585135,,2.360600321,321.8345562,51.28853913,0.065857546,0.008960306,0
-2.173528331,-0.129753711,0.697723992,7.59E-08,2.138761372,5.680453303,,359.5187739,,0.015469522,309.2213501,50.21606919,0.06448003,0.00140505,0
-2.167646571,-0.123758854,0.690877414,7.59E-08,2.137923614,5.686335063,,349.2646944,,0.201635242,299.8267893,49.1704774,0.064614411,0.001177991,0
-2.161729905,-0.117855278,0.684174477,7.59E-08,2.137120762,5.692251729,,337.0342122,,1.658066796,286.9972044,48.30931103,0.065511568,0.004118397,0
-2.155778332,-0.11205485,0.677632285,7.59E-08,2.136370271,5.698203302,,329.1855714,,0.185817079,281.9709081,46.96279175,0.064656956,0.001397513,0
-2.149756946,-0.106341515,0.671222563,7.59E-08,2.135672139,5.704224688,,319.881275,,0.378428254,273.4398738,45.99698832,0.064779479,0.001205189,0
-2.143700654,-0.10071405,0.664942345,7.59E-08,2.135026367,5.71028098,,310.7203977,,0.464401608,265.1328791,45.0578303,0.064853193,0.000433464,0
-2.137592001,-0.095171931,0.658792852,7.59E-08,2.134415502,5.716389633,,300.0538919,,1.884313352,253.8611923,44.24014839,0.065681785,0.002556021,0
-2.131430989,-0.089725981,0.652786651,7.59E-08,2.133856997,5.722550645,,292.7763755,,0.613013613,249.0265082,43.07129484,0.064955314,0.000603592,0
-2.12523507,-0.084362409,0.646902971,7.59E-08,2.133333398,5.728746564,,284.2939036,,0.440347199,241.602357,42.1853028,0.064883559,0.001013029,0
-2.118986792,-0.079079821,0.641138672,7.59E-08,2.132862159,5.734994842,,276.2852753,,0.801847557,234.0949868,41.3228142,0.065073278,0.00055351,0
-2.112686153,-0.073877867,0.635491659,7.59E-08,2.132408374,5.741295481,,266.6783237,,2.173484489,223.871434,40.56530089,0.065851993,0.002252372,0
-2.106333154,-0.068767718,0.629976594,7.59E-08,2.132006948,5.747648479,,260.0580073,,0.74996364,219.7410167,39.5011962,0.065056198,0.000774488,0
-2.099945249,-0.063735585,0.624572705,7.59E-08,2.131640429,5.754036385,,252.5050136,,0.794422333,212.9458326,38.69908349,0.065089318,0.000585861,0
-2.093504984,-0.058780769,0.619279296,7.59E-08,2.131291363,5.760476649,,245.1025154,,0.891602048,206.2365994,37.90879544,0.065146085,0.000372489,0
-2.08701236,-0.053903447,0.614094795,7.59E-08,2.130994657,5.766969274,,236.8464479,,2.500329914,197.1030151,37.17566681,0.065991919,0.001444188,0
-2.080467375,-0.049113914,0.609031246,7.59E-08,2.130715404,5.773514259,,230.4363236,,0.902795652,193.244869,36.22307427,0.065138117,0.000446488,0
-2.07387003,-0.044399954,0.60407294,7.59E-08,2.130471058,5.780111604,,223.8075047,,0.965582148,187.3004706,35.47589548,0.065174433,0.000382037,0
-2.067237779,-0.03976052,0.59921534,7.59E-08,2.130244165,5.786743855,,217.1697695,,1.175724197,181.1864136,34.7420282,0.065323885,0.000279656,0
-2.060553168,-0.035195961,0.594458794,1.52E-07,2.130052179,5.793428466,,209.5535916,,2.590707176,172.8610183,34.03485841,0.066017472,0.000990265,0
-2.053833651,-0.030716748,0.589817266,1.52E-07,2.129895099,5.800147983,,204.0700018,,1.195386384,169.6306871,33.17833637,0.065274997,0.000316952,0
-2.04704432,-0.026310664,0.585271556,1.52E-07,2.129755473,5.806937314,,197.8001026,,1.159701548,164.0972343,32.4777122,0.065249724,0.000204797,0
-2.040220082,-0.02197736,0.580821315,1.52E-07,2.1296333,5.813761552,,191.803469,,1.274377628,158.6790334,31.78458607,0.065296981,0.000174912,0
-2.033343485,-0.017717012,0.576464973,1.52E-07,2.129546034,5.820638149,,185.1168811,,2.746301882,151.2028851,31.101213,0.065991225,0.000489945,0
-2.026414528,-0.013540072,0.572216475,1.52E-07,2.12947622,5.827567106,,179.9252917,,1.324869222,148.2141361,30.32085971,0.065301032,0.000125686,0
-2.019450664,-0.009434779,0.568058822,1.52E-07,2.12942386,5.83453097,,174.457519,,1.34666947,143.381285,29.66416975,0.065308161,8.66E-05,0
-2.012434441,-0.005400625,0.563991506,1.52E-07,2.129388954,5.841547193,,168.8888967,,1.405648983,138.4025726,29.01530393,0.065330043,4.12E-05,0
-2.005365857,-0.001438431,0.560013604,1.52E-07,2.129371501,5.848615777,,162.8856661,,2.838403581,131.6454461,28.33583121,0.065943207,4.19E-05,0
-1.998262367,0.002441855,0.556135064,1.52E-07,2.129371501,5.855719267,,158.1830237,,1.425933921,129.0566616,27.63508616,0.065319514,2.25E-05,0
-1.991106517,0.006251577,0.55234454,1.52E-07,2.129388954,5.862875117,,153.1524716,,1.42393915,124.6593192,27.00386278,0.065297088,5.34E-05,0
-1.983898307,0.009990945,0.548638334,1.52E-07,2.12942386,5.870083327,,148.2446251,,1.527672506,120.2667434,26.3848126,0.065329835,6.67E-05,0
-1.976597483,0.013692839,0.54496479,6.50E-06,2.129443405,5.877357419,,145.0850432,,2.074666832,119.3261546,23.59666376,0.084406948,0.003151065,0
-1.969251902,0.017358851,0.541228952,5.04E-05,2.129313811,5.884518367,,143.8781451,,2.548191055,119.2220197,21.91888761,0.142775217,0.046271495,0
-1.961861915,0.021021603,0.537296568,0.000167885,2.128889016,5.891414854,,144.2135184,,2.951599938,119.8509121,21.01709162,0.238701953,0.155212772,0
-1.954427978,0.024710193,0.533048182,0.000393295,2.128041214,5.897902403,,145.7549075,,3.288846142,121.1028984,20.65057966,0.371314602,0.341268777,0
-1.946950647,0.028450327,0.528378575,0.000759379,2.126660109,5.90384327,,148.2294765,,3.564242512,122.8631677,20.65754908,0.540528788,0.603988466,0
-1.93943058,0.03226445,0.523196205,0.001297274,2.124652175,5.909106342,,151.4179605,,3.782253154,125.0137883,20.941304,0.746976401,0.933638625,0
-1.931868531,0.036171871,0.517422639,0.00203654,2.12193991,5.913567033,,155.1457782,,3.947311353,127.4355227,21.45756041,0.991929621,1.313454031,0
-1.92426535,0.040188899,0.510991995,0.003005186,2.118461092,5.917107181,,159.2751211,,4.063663073,130.0096463,22.20288209,1.277217744,1.721711869,0
-1.916621978,0.044328969,0.503850378,0.004229696,2.114168038,5.91961494,,163.6979974,,4.135235317,132.6197237,23.20425934,1.605134774,2.13364423,0
-1.908939448,0.04860277,0.49595532,0.005735052,2.109026859,5.920984682,,168.3301838,,4.165529031,135.1533086,24.50982135,1.978336962,2.52318784,0
-1.901218878,0.05301838,0.487275213,0.007544762,2.103016715,5.92111689,,173.1060238,,4.157536553,137.5035369,26.18065809,2.399730751,2.864561605,0
-1.893461473,0.057581391,0.477788751,0.009680883,2.096129075,5.919918055,,177.974003,,4.113683749,139.5705918,28.28371609,2.872352865,3.133658452,0
-1.885668521,0.06229504,0.467484365,0.012164046,2.088366969,5.917300571,,182.893027,,4.035797091,141.2630238,30.88572375,3.399245509,3.309236829,0
-1.877841389,0.067160339,0.456359665,0.015013484,2.079744247,5.913182634,,187.829331,,3.925095794,142.4989107,34.04809559,3.983330713,3.373898165,0
-1.869981525,0.072176207,0.44442087,0.018247054,2.070284836,5.907488133,,192.7539469,,3.782208883,143.2068506,37.82275966,4.62728875,3.314838996,0
-1.86209045,0.077339595,0.431682253,0.021881265,2.060021997,5.900146553,,197.6406602,,3.607216638,143.3267787,42.24884894,5.333446102,3.124369888,0
-1.854169759,0.082645618,0.418165575,0.0259313,2.048997576,5.891092866,,202.4643914,,3.399715239,142.8106047,47.35019513,6.103678704,2.800197663,0
-1.846221118,0.088087687,0.403899526,0.030411044,2.037261267,5.880267429,,207.1999423,,3.158902688,141.6226692,53.13356198,6.93933587,2.345472557,0
-1.838246261,0.093657636,0.388919156,0.03533311,2.024869867,5.86761588,,211.8210526,,2.883683236,139.7400162,59.58755574,7.841189622,1.768607849,0
-1.83024699,0.09934585,0.37326532,0.040708859,2.011886528,5.853089036,,216.2997209,,2.57278661,137.1524839,66.68215158,8.809412811,1.082885952,0
-1.822225168,0.105141399,0.356984112,0.046548433,1.99838002,5.836642785,,220.6057485,,2.224897476,133.8626142,74.36877726,9.843587679,0.305871855,0
-1.814182721,0.111032166,0.340126304,0.052860772,1.984423981,5.818237986,,225.7893033,,1.838789792,129.885383,82.58089932,10.94274433,0.541486865,0
-1.806121634,0.117004974,0.322746781,0.059653646,1.970096179,5.797840364,,231.4376981,,1.413460121,125.2477547,91.23506085,12.10542613,1.435996303,0
-1.798043947,0.123045721,0.304903982,0.066933675,1.955477765,5.775420406,,236.8506923,,0.948253676,119.9880639,100.2323245,13.32977664,2.35227357,0
-1.789951756,0.129139505,0.286659337,0.07470636,1.940652531,5.750953257,,241.9361188,,0.44297686,114.1552298,109.4600785,14.61364017,3.2641935,0
-1.781847207,0.135270756,0.268076704,0.082976101,1.925706164,5.724418616,,246.8046137,,0.102009874,107.8078091,118.7941668,15.95466642,4.145961542,0
-1.773732497,0.141423365,0.249221806,0.091746229,1.910725507,5.695800635,,252.1234394,,0.685737618,101.0128963,128.1013061,17.35040811,4.973091261,0
-1.765609868,0.147580813,0.230161669,0.101019027,1.89579781,5.66508781,,256.9148975,,1.306569769,93.84488046,137.2417545,18.79840022,5.723292584,0
-1.757481608,0.153726303,0.210964061,0.110795758,1.881009992,5.632272881,,261.0918965,,1.962189424,86.38407375,146.0721915,20.29621,6.37723179,0
-1.749350048,0.159842887,0.19169693,0.121076686,1.866447893,5.597352729,,264.5742068,,2.649627868,78.71522649,154.4487721,21.84144837,6.919132006,0
-1.741217555,0.165913599,0.172427839,0.131861107,1.85219553,5.560328268,,267.2905011,,3.365316848,70.92595028,162.2303055,23.43173568,7.337192723,0
-1.733086538,0.171921579,0.153223404,0.143147369,1.83833436,5.521204346,,269.1801874,,4.105168585,63.10507266,169.2815096,25.06461836,7.623818189,0
-1.724959437,0.177850211,0.134148736,0.154932901,1.824942528,5.479989636,,270.1950042,,4.864679031,55.34095119,175.4762812,26.73743639,7.775656474,0
-1.716838727,0.183683244,0.115266874,0.167214236,1.812094129,5.436696537,,270.3003517,,5.639048381,47.71977834,180.7009163,28.44714592,7.793462813,0
-1.708726911,0.189404928,0.096638225,0.179987036,1.799858462,5.391341069,,269.476349,,6.423311786,40.32391161,184.857209,30.19010512,7.681811503,0
-1.700626523,0.19500014,0.078319998,0.193246121,1.788299288,5.343942767,,267.7186107,,7.21247253,33.23026526,187.8653483,31.96183538,7.448689267,0
-1.69254012,0.200454518,0.060365649,0.206985487,1.777474086,5.294524578,,265.0387431,,8.001629836,26.50880165,189.6665303,33.7567725,7.105008868,0
-1.684470281,0.205754583,0.042824312,0.22119834,1.767433306,5.24311276,,261.4645592,,8.786093843,20.22115996,190.225196,35.56802509,6.664084271,0
-1.676419608,0.210887879,0.02574024,0.235877113,1.758219632,5.189736775,,257.040011,,9.561481266,14.41945906,189.5308052,37.38715821,6.14110727,0
-1.66839072,0.215843093,0.009152239,0.251013498,1.749867234,5.134429186,,251.8248272,,10.32378669,9.145308452,187.5990516,39.20402018,5.552660308,0
-1.660386251,0.220610192,-0.006906887,0.266598467,1.742401023,5.077225553,,245.8938321,,11.06942633,4.429057484,184.4724284,41.00662887,4.91629102,0
-1.65240885,0.225180546,-0.022410907,0.282622297,1.735835913,5.018164331,,239.3359036,,11.79525326,0.289307918,180.2200497,42.78113135,4.250161373,0
-1.644461176,0.229547066,-0.037340718,0.2990746,1.730176072,4.957286763,,238.7920391,,12.49854547,3.272238895,174.93664,44.51184619,3.57276859,0
-1.636545895,0.233704326,-0.051684914,0.315944343,1.725414181,4.894636781,,237.2676888,,13.17697069,6.266005722,168.7406026,46.18139262,2.902717109,0
-1.628665683,0.237648695,-0.065440342,0.333219873,1.721530692,4.830260896,,234.3354765,,13.82853388,8.70644855,161.7710884,47.77090402,2.258501651,0
-1.620823216,0.241378471,-0.078612667,0.350888949,1.718493078,4.764208099,,230.1728574,,14.45151585,10.61879663,154.1839878,49.26031495,1.65824217,0
-1.613021174,0.244894004,-0.091216937,0.368938759,1.716255099,4.696529756,,224.9773562,,15.04441272,12.03816449,146.1467831,50.62870254,1.11929337,0
-1.605262234,0.248197829,-0.10327814,0.38735595,1.714756051,4.627279502,,218.9587336,,15.6058874,13.00835359,137.8322041,51.8546524,0.657636095,0
-1.597549071,0.251294798,-0.114831772,0.406126653,1.713920023,4.556513141,,212.3293467,,16.13474481,13.58039839,129.4106476,52.91660915,0.286946812,0
-1.589884354,0.254192205,-0.125924393,0.425236504,1.713655158,4.484288539,,205.2925472,,16.62994289,13.81088024,121.0413277,53.79316016,0.017236247,0
-1.582270742,0.256899918,-0.136614196,0.444670677,1.713852905,4.410665522,,198.3392588,,17.09065055,13.76003543,112.8621413,54.46319034,0.163241216,0
-1.574710885,0.259430511,-0.146971563,0.464413901,1.714387279,4.335705772,,191.1105792,,17.51636359,13.48968461,104.9782337,54.90583479,0.220462554,0
-1.567207421,0.261799388,-0.157079633,0.484450491,1.715114112,4.259472721,,183.708839,,17.90708781,13.06101095,97.44925324,55.10014645,0.191340499,0
-1.559762971,0.264016353,-0.167008571,0.50476437,1.715890685,4.182031451,,189.4539583,,19.14370328,15.65905487,97.62826353,56.88913384,0.133802749,0
-1.552380137,0.26605984,-0.176733903,0.525339097,1.716644127,4.103448588,,193.3254912,,20.25681577,17.25698591,97.08575567,58.6503005,0.075633373,0
-1.545061504,0.267902308,-0.186209739,0.546157888,1.71732394,4.023792196,,195.3217064,,21.25074442,17.81837049,95.85388629,60.37233615,0.026369073,0
-1.537809632,0.269518695,-0.195394147,0.567203646,1.717883511,3.943131678,,195.4941796,,22.12970945,17.3427348,93.97076517,62.04395209,0.007018074,0
-1.530627057,0.270886352,-0.204249049,0.588458983,1.718280009,3.86153767,,193.913154,,22.89785419,15.8618439,91.47938064,63.65401422,0.020061092,0
-1.523516287,0.271984978,-0.212740116,0.609906247,1.718474286,3.779081935,,190.6232151,,23.55926749,13.43593887,88.42658951,65.19167115,0.009748101,0
-1.5164798,0.27279655,-0.220836658,0.631527546,1.718430781,3.695837263,,185.8046417,,24.11800517,10.14996789,84.86217837,66.64647575,0.028014519,0
-1.509520043,0.273305256,-0.228511519,0.653304774,1.718117416,3.611877365,,179.624579,,24.57810998,6.109845248,80.83800062,68.00849854,0.090124656,0
-1.502639428,0.273497429,-0.235740977,0.675219635,1.717505496,3.527276767,,172.2351887,,24.94362917,1.438770585,76.40719203,69.26843179,0.177165128,0
-1.495840328,0.273361477,-0.242504628,0.697253671,1.716569614,3.442110713,,173.3459615,,25.21862941,5.798563473,71.6234649,70.41768333,0.287620396,0
-1.48912508,0.272887821,-0.248785288,0.719388283,1.715287547,3.356455054,,175.2018941,,25.40720853,11.38642485,66.54047984,71.44845926,0.419321664,0
-1.482495977,0.27206882,-0.254568886,0.741604761,1.713640159,3.270386149,,176.7819373,,25.51350393,17.13372318,61.21129251,72.35383529,0.569582389,0
-1.475955268,0.270898709,-0.259844353,0.763884306,1.711611297,3.183980757,,177.9749169,,25.54169754,22.88222023,55.68787173,73.12781614,0.735311214,0
-1.469505156,0.269373532,-0.264603522,0.786208054,1.709187698,3.097315937,,178.6690298,,25.49601726,28.47383867,50.02068451,73.76538321,0.913106163,0
-1.463147795,0.26749107,-0.268841019,0.808557107,1.706358882,3.010468944,,178.7543515,,25.38073495,33.75340913,44.25834318,74.2625304,1.09933384,0
-1.456885286,0.265250778,-0.272554158,0.830912552,1.703117059,2.923517121,,178.1251562,,25.2001611,38.57120033,38.44730948,74.61628828,1.290197044,0
-1.450719679,0.262653717,-0.275742835,0.853255489,1.699457024,2.836537801,,176.6820406,,24.95863639,42.78522266,32.6316507,74.82473696,1.481793907,0
-1.444652966,0.259702485,-0.27840942,0.875567057,1.69537606,2.749608198,,174.3338401,,24.66052033,46.26329795,26.85284272,74.88700792,1.670171195,0
-1.438687081,0.25640115,-0.280558655,0.897828457,1.690873838,2.662805308,,170.9993323,,24.31017734,48.8848902,21.14961563,74.80327516,1.851373993,0
-1.432823897,0.252755182,-0.282197545,0.920020978,1.685952318,2.576205799,,166.6087223,,23.91196062,50.54269438,15.55783775,74.57473611,2.02149345,0
-1.427065223,0.24877139,-0.283335254,0.942126025,1.680615645,2.489885915,,161.1049067,,23.47019416,51.14398171,10.11043426,74.20358274,2.176713819,0
-1.421412803,0.244457849,-0.283982997,0.96412514,1.674870056,2.403921366,,154.4445158,,22.98915335,50.61170215,4.837337546,73.69296327,2.313359509,0
-1.415868312,0.239823835,-0.284153934,0.986000029,1.668723776,2.318387226,,147.9438036,,22.47304466,48.88534579,1.110535797,73.04693491,2.427942445,0
-1.410433356,0.234879758,-0.283863069,1.007732588,1.662186919,2.233357831,,148.582436,,21.92598477,45.92156674,5.947266528,72.27040831,2.517209634,0
-1.405109466,0.229637095,-0.283127137,1.029304927,1.655271387,2.148906672,,147.5311312,,21.35197975,41.69457429,10.53730255,71.36908411,2.578190495,0
-1.3998981,0.224108319,-0.281964501,1.050699397,1.647990774,2.065106294,,144.7715573,,20.75490469,36.19629742,14.86272956,70.34938236,2.608243242,0
-1.394800636,0.218306839,-0.280395049,1.071898611,1.640360263,1.982028191,,140.3067578,,20.13848429,29.43633012,18.90847848,69.21836547,2.605099421,0
-1.389818373,0.212246924,-0.278440084,1.092885476,1.632396527,1.899742702,,134.1607305,,19.50627481,21.44166584,22.66222881,67.98365549,2.566905562,0
-1.384952528,0.205943642,-0.27612222,1.113643212,1.624117631,1.818318907,,126.3777794,,18.86164787,12.25623109,26.11429278,66.65334675,2.492260861,0
-1.380204231,0.19941279,-0.273465273,1.134155381,1.61554293,1.737824525,,117.0216511,,18.20777641,1.940228499,29.25748155,65.2359148,2.380249826,0
-1.375574527,0.192670826,-0.270494162,1.154405908,1.606692969,1.658325808,,125.051871,,17.54762323,9.446701103,32.08695506,63.74012275,2.230468859,0
-1.371064369,0.185734805,-0.267234796,1.174379113,1.597589387,1.579887438,,137.5494017,,16.88393222,21.84743972,34.60005742,62.17492648,2.043045906,0
-1.366674621,0.178622306,-0.26371397,1.19405973,1.588254814,1.502572423,,150.5468113,,16.21922271,35.16341678,36.79613977,60.54937965,1.818652436,0
-1.362406049,0.171351372,-0.259959262,1.213432936,1.57871277,1.426441995,,163.9460351,,15.55578684,49.28282774,38.67637306,58.87254025,1.558507198,0
-1.358259325,0.163940434,-0.255998923,1.232484372,1.568987571,1.351555503,,177.6397123,,14.89569023,64.08271741,40.24355338,57.15337987,1.264371436,0
-1.354235019,0.156408251,-0.251861775,1.251200174,1.559104223,1.277970312,,191.5123698,,14.24077578,79.43045872,41.50190279,55.4006971,0.938535427,0
-1.350333602,0.14877384,-0.247577101,1.269566993,1.549088325,1.205741697,,205.4417012,,13.59267055,95.1853291,42.45686876,53.62303637,0.583796434,0
-1.346555438,0.141056408,-0.243174543,1.287572025,1.538965971,1.134922741,,219.2999315,,12.95279562,111.2001681,43.11492572,51.82861366,0.203428356,0
-1.342900786,0.133275284,-0.23868399,1.305203031,1.528763647,1.06556423,,233.3530049,,12.32237864,127.3230998,43.48338182,50.02524987,0.19889479,0
-1.339369798,0.125449853,-0.234135482,1.322448367,1.518508134,0.99771455,,247.5116007,,11.70246875,143.3993028,43.57019473,48.22031307,0.619321335,0
-1.33596251,0.117599491,-0.229559095,1.339297004,1.508226406,0.931419582,,261.2247124,,11.09395358,159.272812,43.38379934,46.42067037,1.053477193,0
-1.33267885,0.109743491,-0.224984837,1.355738561,1.497945532,0.866722601,,274.3481713,,10.49757786,174.7883326,42.9329508,44.63264974,1.496660287,0
-1.329518624,0.101901002,-0.220442545,1.371763321,1.487692577,0.803664169,,286.7395567,,9.913963264,189.793053,42.22658539,42.86201243,1.943942669,0
-1.326481524,0.094090959,-0.21596178,1.387362264,1.477494498,0.742282031,,298.2599375,,9.343628896,204.1384355,41.27370172,41.11393571,2.390235699,0
-1.323567119,0.086332015,-0.211571713,1.402527086,1.467378049,0.682611015,,308.7756118,,8.787011988,217.6819718,40.083264,39.39300601,2.83035795,0
-1.320774856,0.078642476,-0.207301028,1.417250232,1.457369682,0.624682925,,318.1598278,,8.244488284,230.288884,38.66412862,37.70322201,3.259104858,0
-1.318104055,0.071040232,-0.203177813,1.431524911,1.44749544,0.568526438,,326.2944684,,7.716391558,241.8337561,37.02499473,36.04800685,3.671319171,0
-1.315553907,0.063542687,-0.199229452,1.445345129,1.437780866,0.514166999,,333.0716808,,7.203031778,252.20208,35.17437872,34.43022901,4.061961299,0
-1.313123476,0.056166698,-0.195482521,1.458705714,1.428250898,0.461626721,,338.3954329,,6.704711418,261.2917003,33.120612,32.85223053,4.426178699,0
-1.310811691,0.048928503,-0.191962683,1.471602335,1.41892977,0.410924275,,342.1829781,,6.221739476,269.0141425,30.87186075,31.31586182,4.759373544,0
-1.308617344,0.041843653,-0.188694579,1.484031535,1.409840916,0.362074794,,344.3662092,,5.754442782,275.2958109,28.43616587,29.82252167,5.057267926,0
-1.306539092,0.034926949,-0.185701726,1.49599075,1.401006864,0.315089763,,344.8928841,,5.303174272,280.0790417,25.82150077,28.37320139,5.315965985,0
-1.304575451,0.028192369,-0.183006406,1.507478338,1.392449141,0.269976915,,343.7277047,,4.868317934,283.322998,23.03584446,26.96853191,5.532012357,0
-1.302724794,0.021653007,-0.180629566,1.518493604,1.384188173,0.226740133,,340.8532319,,4.450290261,285.0043955,20.08726694,25.60883277,5.702446443,0
-1.300985351,0.015320998,-0.178590708,1.529036821,1.376243182,0.185379342,,336.2706215,,4.049538099,285.1180455,16.98402406,24.29416182,5.824852028,0
-1.299355202,0.009207459,-0.176907784,1.539109263,1.36863209,0.145890402,,330.0001655,,3.666532915,283.677207,13.73465882,23.02436501,5.897401825,0
-1.297832279,0.003322416,-0.17559709,1.548713221,1.361371418,0.108265014,,322.0816261,,3.301761586,280.7137363,10.34810649,21.7991252,5.918896558,0
-1.296414361,-0.002325264,-0.17467316,1.557852036,1.354476185,0.072490605,,312.5743511,,2.955713953,276.278028,6.833801226,20.61800969,5.888798197,0
-1.295099074,-0.007727935,-0.174148662,1.566530121,1.347959811,0.038550232,,301.5571619,,2.628867466,270.4387392,3.201782334,19.4805159,5.807256983,0
-1.293883886,-0.012879245,-0.174034287,1.574752985,1.341834014,0.006422475,,290.8231635,,2.321669397,263.2822917,1.157955483,18.38611504,5.67513184,0
-1.292766106,-0.017774198,-0.174338652,1.582527261,1.336108712,-0.023918666,,284.772142,,2.034517166,254.9121491,4.997178287,17.3342937,5.494003767,0
-1.291742881,-0.022409229,-0.175068182,1.589860727,1.330791926,-0.052503876,,277.7265082,,1.76773745,245.4478653,8.920130172,16.32459352,5.266181733,0
-1.290811195,-0.026782263,-0.176227015,1.596762338,1.325889673,-0.079368626,,269.8101618,,1.521564815,235.0239047,12.91334251,15.3566492,4.994700552,0
-1.289967864,-0.030892787,-0.177816891,1.603242245,1.321405875,-0.104553281,,261.1601261,,1.296120698,223.7882348,16.96223521,14.43022523,4.683310118,0
-1.289209536,-0.034741916,-0.179837044,1.609311822,1.317342253,-0.128103199,,251.9248049,,1.091393579,211.9006937,21.05101032,13.54525194,4.336455319,0
-1.288532689,-0.038332463,-0.182284103,1.614983694,1.31369823,-0.150068839,,242.2620039,,0.907221256,199.5311386,25.16253696,12.70186136,3.959245796,0
-1.287933624,-0.041669001,-0.185151978,1.620271757,1.310470831,-0.170505864,,232.3367171,,0.743276083,186.8573797,29.27822305,11.90042363,3.557414651,0
-1.28740847,-0.044757937,-0.188431761,1.625191208,1.307654583,-0.18947524,,222.3186836,,0.599054026,174.0629115,33.37786846,11.14158452,3.137265052,0
-1.286953174,-0.047607573,-0.192111613,1.629758568,1.305241413,-0.207043347,,212.379719,,0.473868321,161.3344486,37.43949373,10.42630474,2.705603601,0
-1.286563505,-0.050228177,-0.196176666,1.633991707,1.303220555,-0.223282079,,202.6908288,,0.366848403,148.8592816,41.43913803,9.755901621,2.269659195,0
-1.286235047,-0.05263205,-0.200608911,1.637909872,1.301578442,-0.238268947,,193.419112,,0.276944652,136.8224677,45.35062016,9.132093487,1.836986056,0
-1.285963199,-0.054833595,-0.205387095,1.641533707,1.300298613,-0.252087186,,184.7244638,,0.202939313,125.4038719,49.14525583,8.557047263,1.41534951,0
-1.285743171,-0.056849378,-0.210486613,1.644885284,1.299361607,-0.264825855,,176.7560925,,0.143463753,114.7750809,52.7915255,8.033429271,1.012593107,0
-1.285569984,-0.058698203,-0.215879404,1.647988123,1.298744871,-0.276579943,,169.6488636,,0.097021962,105.0962099,56.25468674,7.564459287,0.636485665,0
-1.285438466,-0.060401176,-0.221533844,1.650867221,1.298422654,-0.287450473,,163.5194892,,0.06201993,96.51262826,59.49632657,7.153967537,0.294546906,0
-1.28534325,-0.061981771,-0.227414641,1.653549076,1.298365908,-0.297544606,,158.6180222,,0.036800213,89.15163112,62.47384972,6.806454128,0.149286978,0
-1.285278769,-0.0634659,-0.233482727,1.656061713,1.298542192,-0.306975743,,155.2037469,,0.019680687,83.11908717,65.13990048,6.527150104,0.397928416,0
-1.285239258,-0.064881979,-0.239695155,1.658434706,1.298915568,-0.31586363,,152.8611693,,0.008996086,78.49609525,67.44171714,6.32207906,0.592281758,0
-1.285218751,-0.066260995,-0.246004992,1.660699208,1.299446506,-0.324334462,,151.5854211,,0.00314054,75.33568563,69.32042018,6.198117914,0.728056846,0
-1.285211073,-0.067636575,-0.25236121,1.662887972,1.300091778,-0.332520986,,151.3359671,,0.00060891,73.65960409,70.71023758,6.163055149,0.802461348,0
-1.285209847,-0.069045051,-0.258708584,1.66503538,1.300804363,-0.340562606,,152.0330924,,3.42E-05,73.45521953,71.53767322,6.225644472,0.814520937,0
-1.285209847,-0.070507462,-0.264951801,1.667154209,1.301537402,-0.348521308,,154.3213738,,5.33E-05,76.53220106,70.75030736,6.190252383,0.848559671,0
-1.285209847,-0.072048588,-0.271119795,1.669269549,1.302287893,-0.356480009,,158.170121,,3.66E-05,81.16017682,69.97095961,6.147471992,0.891475965,0
-1.285208101,-0.073659003,-0.27722199,1.671377906,1.303054093,-0.36443871,,161.1238111,,2.72E-05,84.82063893,69.26473651,6.108441897,0.929966602,0
-1.285208101,-0.075338359,-0.283258735,1.673481028,1.303836,-0.372397412,,163.8612228,,3.33E-05,88.34096998,68.4832433,6.068458417,0.968517791,0
-1.285208101,-0.077088924,-0.289229506,1.675577168,1.304635361,-0.380357859,,166.2103193,,4.66E-05,91.50852639,67.66736733,6.029861563,1.004517404,0
-1.285208101,-0.078918553,-0.295124705,1.677668073,1.305452175,-0.388320051,,170.4553853,,2.65E-05,96.53557715,66.88336771,5.984659022,1.051754961,0
-1.285208101,-0.080817471,-0.30095585,1.679753741,1.306284697,-0.396282243,,173.6030229,,2.63E-05,100.389726,66.17534582,5.94489319,1.093031617,0
-1.285208101,-0.082786028,-0.306720847,1.681832428,1.307132927,-0.404244435,,176.5384389,,3.23E-05,104.1330658,65.36976191,5.901978925,1.133599869,0
-1.285208101,-0.08482562,-0.312420045,1.683904134,1.307996865,-0.412208372,,179.0259424,,4.49E-05,107.4350855,64.55551934,5.862107592,1.173185107,0
-1.285208101,-0.086944973,-0.318042972,1.685970604,1.308880002,-0.420174055,,183.655835,,2.98E-05,112.8636183,63.75463809,5.814274086,1.223274756,0
-1.285208101,-0.089133965,-0.323603242,1.688030093,1.309778847,-0.428141483,,187.0714125,,3.36E-05,116.9973339,63.0336854,5.773361821,1.266997843,0
-1.285208101,-0.09139277,-0.329097189,1.6900826,1.310693399,-0.436108911,,190.2230719,,3.09E-05,120.9581409,62.22578126,5.728327735,1.310791111,0
-1.285208101,-0.093723308,-0.33452464,1.692128126,1.31162366,-0.444078084,,192.9032973,,4.29E-05,124.4780423,61.3869307,5.685684559,1.352596829,0
-1.285206356,-0.096133433,-0.339877739,1.694168416,1.312571373,-0.452049003,,197.9064703,,2.44E-05,130.2756081,60.58844651,5.636798753,1.405592606,0
-1.285206356,-0.098613721,-0.345164167,1.696199979,1.313534795,-0.460019922,,201.6465211,,2.37E-05,134.7547674,59.84587253,5.593239165,1.452618321,0
-1.285206356,-0.101163996,-0.350387588,1.698224561,1.314513925,-0.467992586,,205.0535195,,2.93E-05,138.9763763,59.03180172,5.54683375,1.498478455,0
-1.285206356,-0.103786179,-0.355544338,1.700242161,1.315510508,-0.47596525,,207.9430862,,4.57E-05,142.7044931,58.19386135,5.501795723,1.542890338,0
-1.285206356,-0.106488472,-0.360624468,1.702251035,1.316522799,-0.483941404,,213.3750795,,3.12E-05,148.9563972,57.36874496,5.451962068,1.597944134,0
-1.285206356,-0.109261102,-0.365641242,1.704254673,1.317552543,-0.491917559,,217.4616552,,2.21E-05,153.7850896,56.62254719,5.405897828,1.648098411,0
-1.285206356,-0.112104069,-0.370592916,1.706249585,1.31859625,-0.499893714,,221.1630241,,2.71E-05,158.3234483,55.78707551,5.356386391,1.696086737,0
-1.285206356,-0.115019118,-0.375475998,1.708235769,1.319655665,-0.507871614,,224.2747311,,3.86E-05,162.2658867,54.95457665,5.311706691,1.742522358,0
-1.285206356,-0.118014277,-0.380284206,1.710214973,1.320734278,-0.515849514,,230.2529621,,2.11E-05,169.0631583,54.12986409,5.25868172,1.80123684,0
-1.285206356,-0.121079948,-0.385028883,1.712183704,1.321826854,-0.523829159,,234.5097525,,2.07E-05,174.127581,53.32065176,5.209494206,1.852004851,0
-1.285206356,-0.124216305,-0.389706366,1.7141472,1.322935138,-0.531808804,,238.7722519,,2.49E-05,179.1606321,52.54668139,5.161732834,1.903180655,0
-1.285204611,-0.127424743,-0.394315257,1.716100223,1.32405913,-0.539790195,,241.9334168,,3.61E-05,183.2292316,51.64206947,5.111503048,1.950576561,0
-1.285204611,-0.130713467,-0.398850844,1.71804452,1.325200576,-0.54776984,,248.5730358,,1.92E-05,190.6554094,50.84554683,5.059442443,2.012617938,0
-1.285204611,-0.134072877,-0.403319236,1.719981835,1.326355984,-0.555751231,,254.1232674,,1.69E-05,196.7851723,50.2528404,5.016303686,2.068934146,0
-1.285204611,-0.137499831,-0.407718338,1.721906933,1.327525354,-0.563723895,,266.2713327,,6.76E-06,207.7562136,51.32304994,5.038471545,2.153590817,0
-1.285204611,-0.140970593,-0.412016037,1.723807597,1.328701706,-0.571633727,,285.0470633,,1.25E-05,223.7002922,53.97936836,5.107731585,2.259658664,0
-1.285204611,-0.144435944,-0.416139377,1.725654155,1.329865841,-0.579358555,,297.7767222,,4.40E-05,236.0210195,54.3915125,5.043127317,2.32101889,0
-1.285204611,-0.14784335,-0.420062354,1.727429155,1.331003796,-0.586812856,,306.1090851,,9.33E-05,244.4837715,54.3396077,4.936422795,2.349189705,0
-1.285204611,-0.151142721,-0.423739064,1.729111653,1.332096372,-0.593905874,,311.4688479,,0.000171025,250.575222,53.76243964,4.782287937,2.348727268,0
-1.285204611,-0.15427611,-0.427126225,1.730673722,1.333129607,-0.600531144,,316.6083992,,0.000323221,256.4193178,53.25923525,4.602216386,2.327306501,0
-1.285204611,-0.157157998,-0.43014355,1.732082203,1.334072084,-0.606522859,,290.5230526,,0.000321517,237.5829432,46.6783979,4.118285665,2.143104347,0
-1.285204611,-0.159786289,-0.432829786,1.733344076,1.334929041,-0.611915926,,267.258802,,0.000335869,220.1778427,41.40564976,3.702900665,1.972073003,0
-1.285204611,-0.162150163,-0.435190519,1.734464577,1.335695241,-0.616712091,,243.9345465,,0.000365053,202.3279071,36.5042754,3.30465135,1.79734758,0
-1.285202865,-0.164233039,-0.43723011,1.735436726,1.336368938,-0.6208939,,222.363918,,0.000414081,185.6044578,32.20499257,2.93042847,1.623625068,0
-1.285202865,-0.165992855,-0.438919065,1.736248304,1.33693617,-0.62439154,,185.3324836,,0.000309827,155.8952702,25.62636156,2.437734294,1.372807706,0
-1.285202865,-0.167462073,-0.440310442,1.736920256,1.337409154,-0.627290532,,157.3275866,,0.000354371,133.2302713,20.87666653,2.050444265,1.169850104,0
-1.285202865,-0.16863476,-0.441408429,1.737450836,1.3377844,-0.629592621,,128.791312,,0.000350201,109.9227519,16.23588819,1.669714039,0.962607708,0
-1.285202865,-0.169504981,-0.442215469,1.737843535,1.338061907,-0.631292572,,98.84052379,,0.000311986,85.25334378,11.55254545,1.2860068,0.748315779,0
-1.285202865,-0.170077274,-0.442742733,1.738100098,1.338245167,-0.632407837,,67.07668578,,0.000154277,58.63951827,6.99270587,0.911117549,0.533189816,0
-1.285202865,-0.17046609,-0.443100773,1.73827434,1.338369667,-0.633165165,,45.86595825,,6.96E-05,40.75802097,4.07016035,0.653182789,0.384524519,0
-1.285202865,-0.170703411,-0.443319107,1.738380618,1.338445651,-0.633626991,,32.19923854,,2.78E-05,29.16425906,2.266316165,0.482804463,0.285831038,0
-1.285202865,-0.170821221,-0.443427255,1.73843329,1.338483362,-0.633855754,,23.88490855,,9.38E-06,22.06466512,1.218416641,0.377430909,0.224386495,0
-1.285202865,-0.170851502,-0.443454736,1.738446712,1.338493045,-0.63391389,,19.31448224,,2.45E-06,18.13092833,0.674064479,0.319346886,0.190140084,0
-1.285202865,-0.170826239,-0.443431068,1.738435243,1.338484942,-0.633863837,,17.30913451,,4.20E-07,16.34826409,0.489222774,0.296553671,0.17509356,0
-1.285202865,-0.170777413,-0.44338577,1.738413239,1.338469296,-0.63376803,,17.270431,,2.92E-08,16.29597095,0.502522389,0.296646981,0.175290658,0
-1.285202865,-0.170737009,-0.443348362,1.738395059,1.338456351,-0.633688909,,16.91829343,,6.42E-35,15.99571409,0.45804579,0.29188956,0.172643987,0
-1.285202865,-0.170737009,-0.443348362,1.738395059,1.338456351,-0.633688909,,16.91829343,,6.42E-35,15.99571409,0.45804579,0.29188956,0.172643987,0
-1.285202865,-0.170737009,-0.443348362,1.738395059,1.338456351,-0.633688909,,16.91829343,,6.42E-35,15.99571409,0.45804579,0.29188956,0.172643987,0
-1.285202865,-0.170737009,-0.443348362,1.738395059,1.338456351,-0.633688909,,16.91829343,,6.42E-35,15.99571409,0.45804579,0.29188956,0.172643987,0
-1.285202865,-0.170737009,-0.443348362,1.738395059,1.338456351,-0.633688909,,16.91829343,,6.42E-35,15.99571409,0.45804579,0.29188956,0.172643987,0
-1.285202865,-0.170737009,-0.443348362,1.738395059,1.338456351,-0.633688909,,16.91829343,,6.42E-35,15.99571409,0.45804579,0.29188956,0.172643987,0
-1.285202865,-0.170737009,-0.443348362,1.738395059,1.338456351,-0.633688909,,16.91829343,,6.42E-35,15.99571409,0.45804579,0.29188956,0.172643987,0
-1.285202865,-0.170737009,-0.443348362,1.738395059,1.338456351,-0.633688909,,16.91829343,,6.42E-35,15.99571409,0.45804579,0.29188956,0.172643987,0
-1.285202865,-0.170737009,-0.443348362,1.738395059,1.338456351,-0.633688909,,16.91829343,,6.42E-35,15.99571409,0.45804579,0.29188956,0.172643987,0
-1.285202865,-0.170737009,-0.443348362,1.738395059,1.338456351,-0.633688909,,16.91829343,,6.42E-35,15.99571409,0.45804579,0.29188956,0.172643987,0
-1.285202865,-0.170737009,-0.443348362,1.738395059,1.338456351,-0.633688909,,16.91829343,,6.42E-35,15.99571409,0.45804579,0.29188956,0.172643987,0
-1.285202865,-0.170737009,-0.443348362,1.738395059,1.338456351,-0.633688909,,16.91829343,,6.42E-35,15.99571409,0.45804579,0.29188956,0.172643987,0
-1.285202865,-0.170737009,-0.443348362,1.738395059,1.338456351,-0.633688909,,16.91829343,,6.42E-35,15.99571409,0.45804579,0.29188956,0.172643987,0
-1.285202865,-0.170737009,-0.443348362,1.738395059,1.338456351,-0.633688909,,16.91829343,,6.42E-35,15.99571409,0.45804579,0.29188956,0.172643987,0
-1.285202865,-0.170737009,-0.443348362,1.738395059,1.338456351,-0.633688909,,16.91829343,,6.42E-35,15.99571409,0.45804579,0.29188956,0.172643987,0
-1.285202865,-0.170737009,-0.443348362,1.738395059,1.338456351,-0.633688909,,16.91829343,,6.42E-35,15.99571409,0.45804579,0.29188956,0.172643987,0
-1.285202865,-0.170737009,-0.443348362,1.738395059,1.338456351,-0.633688909,,16.91829343,,6.42E-35,15.99571409,0.45804579,0.29188956,0.172643987,0
-1.285202865,-0.170737009,-0.443348362,1.738395059,1.338456351,-0.633688909,,16.91829343,,6.42E-35,15.99571409,0.45804579,0.29188956,0.172643987,0
-1.285202865,-0.170737009,-0.443348362,1.738395059,1.338456351,-0.633688909,,16.91829343,,6.42E-35,15.99571409,0.45804579,0.29188956,0.172643987,0
-1.285202865,-0.170737009,-0.443348362,1.738395059,1.338456351,-0.633688909,,16.91829343,,6.42E-35,15.99571409,0.45804579,0.29188956,0.172643987,0
-1.285202865,-0.170737009,-0.443348362,1.738395059,1.338456351,-0.633688909,,16.91829343,,6.42E-35,15.99571409,0.45804579,0.29188956,0.172643987,0
-1.285202865,-0.170737009,-0.443348362,1.738395059,1.338456351,-0.633688909,,16.91829343,,6.42E-35,15.99571409,0.45804579,0.29188956,0.172643987,0
-1.285202865,-0.170737009,-0.443348362,1.738395059,1.338456351,-0.633688909,,16.91829343,,6.42E-35,15.99571409,0.45804579,0.29188956,0.172643987,0
-1.285202865,-0.170737009,-0.443348362,1.738395059,1.338456351,-0.633688909,,16.91829343,,6.42E-35,15.99571409,0.45804579,0.29188956,0.172643987,0
-1.285202865,-0.170737009,-0.443348362,1.738395059,1.338456351,-0.633688909,,16.91829343,,6.42E-35,15.99571409,0.45804579,0.29188956,0.172643987,0
-1.285202865,-0.170737009,-0.443348362,1.738395059,1.338456351,-0.633688909,,16.91829343,,6.42E-35,15.99571409,0.45804579,0.29188956,0.172643987,0
-1.285202865,-0.170737009,-0.443348362,1.738395059,1.338456351,-0.633688909,,16.91829343,,6.42E-35,15.99571409,0.45804579,0.29188956,0.172643987,0
-1.285202865,-0.170737009,-0.443348362,1.738395059,1.338456351,-0.633688909,,16.91829343,,6.42E-35,15.99571409,0.45804579,0.29188956,0.172643987,0
-1.285202865,-0.170737009,-0.443348362,1.738395059,1.338456351,-0.633688909,,16.91829343,,6.42E-35,15.99571409,0.45804579,0.29188956,0.172643987,0
-1.285202865,-0.170737009,-0.443348362,1.738395059,1.338456351,-0.633688909,,16.91829343,,6.42E-35,15.99571409,0.45804579,0.29188956,0.172643987,0
-1.285202865,-0.170737009,-0.443348362,1.738395059,1.338456351,-0.633688909,,16.91829343,,6.42E-35,15.99571409,0.45804579,0.29188956,0.172643987,0
-1.285202865,-0.170737009,-0.443348362,1.738395059,1.338456351,-0.633688909,,16.91829343,,6.42E-35,15.99571409,0.45804579,0.29188956,0.172643987,0
-1.285202865,-0.170737009,-0.443348362,1.738395059,1.338456351,-0.633688909,,16.91829343,,6.42E-35,15.99571409,0.45804579,0.29188956,0.172643987,0
-1.285202865,-0.170737009,-0.443348362,1.738395059,1.338456351,-0.633688909,,16.91829343,,6.42E-35,15.99571409,0.45804579,0.29188956,0.172643987,0
-1.285202865,-0.170737009,-0.443348362,1.738395059,1.338456351,-0.633688909,,16.91829343,,6.42E-35,15.99571409,0.45804579,0.29188956,0.172643987,0
-1.285202865,-0.170737009,-0.443348362,1.738395059,1.338456351,-0.633688909,,16.91829343,,6.42E-35,15.99571409,0.45804579,0.29188956,0.172643987,0
-1.285202865,-0.170737009,-0.443348362,1.738395059,1.338456351,-0.633688909,,16.91829343,,6.42E-35,15.99571409,0.45804579,0.29188956,0.172643987,0
-1.285202865,-0.170737009,-0.443348362,1.738395059,1.338456351,-0.633688909,,16.91829343,,6.42E-35,15.99571409,0.45804579,0.29188956,0.172643987,0
-1.285202865,-0.170737009,-0.443348362,1.738395059,1.338456351,-0.633688909,,16.91829343,,6.42E-35,15.99571409,0.45804579,0.29188956,0.172643987,0
-1.285202865,-0.170737009,-0.443348362,1.738395059,1.338456351,-0.633688909,,16.91829343,,6.42E-35,15.99571409,0.45804579,0.29188956,0.172643987,0
-1.285202865,-0.170737009,-0.443348362,1.738395059,1.338456351,-0.633688909,,16.91829343,,6.42E-35,15.99571409,0.45804579,0.29188956,0.172643987,0
-1.285202865,-0.170737009,-0.443348362,1.738395059,1.338456351,-0.633688909,,16.91829343,,6.42E-35,15.99571409,0.45804579,0.29188956,0.172643987,0
-1.285202865,-0.170737009,-0.443348362,1.738395059,1.338456351,-0.633688909,,16.91829343,,6.42E-35,15.99571409,0.45804579,0.29188956,0.172643987,0
-1.285202865,-0.170737009,-0.443348362,1.738395059,1.338456351,-0.633688909,,16.91829343,,6.42E-35,15.99571409,0.45804579,0.29188956,0.172643987,0
-1.285202865,-0.170737009,-0.443348362,1.738395059,1.338456351,-0.633688909,,16.91829343,,6.42E-35,15.99571409,0.45804579,0.29188956,0.172643987,0
-1.285202865,-0.170737009,-0.443348362,1.738395059,1.338456351,-0.633688909,,16.91829343,,6.42E-35,15.99571409,0.45804579,0.29188956,0.172643987,0
-1.285202865,-0.170737009,-0.443348362,1.738395059,1.338456351,-0.633688909,,16.91829343,,6.42E-35,15.99571409,0.45804579,0.29188956,0.172643987,0
-1.285202865,-0.170737009,-0.443348362,1.738395059,1.338456351,-0.633688909,,16.91829343,,6.42E-35,15.99571409,0.45804579,0.29188956,0.172643987,0
-1.285202865,-0.170737009,-0.443348362,1.738395059,1.338456351,-0.633688909,,16.91829343,,6.42E-35,15.99571409,0.45804579,0.29188956,0.172643987,0
-1.285202865,-0.170737009,-0.443348362,1.738395059,1.338456351,-0.633688909,,16.91829343,,6.42E-35,15.99571409,0.45804579,0.29188956,0.172643987,0
-1.285202865,-0.170737009,-0.443348362,1.738395059,1.338456351,-0.633688909,,16.91829343,,6.42E-35,15.99571409,0.45804579,0.29188956,0.172643987,0
-1.285202865,-0.170737009,-0.443348362,1.738395059,1.338456351,-0.633688909,,16.91829343,,6.42E-35,15.99571409,0.45804579,0.29188956,0.172643987,0
-1.285202865,-0.170737009,-0.443348362,1.738395059,1.338456351,-0.633688909,,16.91829343,,6.42E-35,15.99571409,0.45804579,0.29188956,0.172643987,0
-1.285202865,-0.170737009,-0.443348362,1.738395059,1.338456351,-0.633688909,,16.91829343,,6.42E-35,15.99571409,0.45804579,0.29188956,0.172643987,0
-1.285202865,-0.170737009,-0.443348362,1.738395059,1.338456351,-0.633688909,,16.91829343,,6.42E-35,15.99571409,0.45804579,0.29188956,0.172643987,0
-1.285202865,-0.170737009,-0.443348362,1.738395059,1.338456351,-0.633688909,,16.91829343,,6.42E-35,15.99571409,0.45804579,0.29188956,0.172643987,0
-1.285202865,-0.170737009,-0.443348362,1.738395059,1.338456351,-0.633688909,,16.91829343,,6.42E-35,15.99571409,0.45804579,0.29188956,0.172643987,0
-1.285202865,-0.170737009,-0.443348362,1.738395059,1.338456351,-0.633688909,,16.91829343,,6.42E-35,15.99571409,0.45804579,0.29188956,0.172643987,0
-1.285202865,-0.170737009,-0.443348362,1.738395059,1.338456351,-0.633688909,,16.91829343,,6.42E-35,15.99571409,0.45804579,0.29188956,0.172643987,0
-1.285202865,-0.170737009,-0.443348362,1.738395059,1.338456351,-0.633688909,,16.91829343,,6.42E-35,15.99571409,0.45804579,0.29188956,0.172643987,0
-1.285202865,-0.170737009,-0.443348362,1.738395059,1.338456351,-0.633688909,,16.91829343,,6.42E-35,15.99571409,0.45804579,0.29188956,0.172643987,0
-1.285202865,-0.170737009,-0.443348362,1.738395059,1.338456351,-0.633688909,,16.91829343,,6.42E-35,15.99571409,0.45804579,0.29188956,0.172643987,0
-1.285202865,-0.170737009,-0.443348362,1.738395059,1.338456351,-0.633688909,,16.91829343,,6.42E-35,15.99571409,0.45804579,0.29188956,0.172643987,0
-1.285202865,-0.170737009,-0.443348362,1.738395059,1.338456351,-0.633688909,,16.91829343,,6.42E-35,15.99571409,0.45804579,0.29188956,0.172643987,0
-1.285202865,-0.170737009,-0.443348362,1.738395059,1.338456351,-0.633688909,,16.91829343,,6.42E-35,15.99571409,0.45804579,0.29188956,0.172643987,0
-1.285202865,-0.170737009,-0.443348362,1.738395059,1.338456351,-0.633688909,,16.91829343,,6.42E-35,15.99571409,0.45804579,0.29188956,0.172643987,0
-1.285202865,-0.170737009,-0.443348362,1.738395059,1.338456351,-0.633688909,,16.91829343,,6.42E-35,15.99571409,0.45804579,0.29188956,0.172643987,0
-1.285202865,-0.170737009,-0.443348362,1.738395059,1.338456351,-0.633688909,,16.91829343,,6.42E-35,15.99571409,0.45804579,0.29188956,0.172643987,0
-1.285202865,-0.170737009,-0.443348362,1.738395059,1.338456351,-0.633688909,,16.91829343,,6.42E-35,15.99571409,0.45804579,0.29188956,0.172643987,0
-1.285202865,-0.170737009,-0.443348362,1.738395059,1.338456351,-0.633688909,,16.91829343,,6.42E-35,15.99571409,0.45804579,0.29188956,0.172643987,0
-1.285202865,-0.170737009,-0.443348362,1.738395059,1.338456351,-0.633688909,,16.91829343,,6.42E-35,15.99571409,0.45804579,0.29188956,0.172643987,0
-1.285202865,-0.170737009,-0.443348362,1.738395059,1.338456351,-0.633688909,,16.91829343,,6.42E-35,15.99571409,0.45804579,0.29188956,0.172643987,0
-1.285202865,-0.170737009,-0.443348362,1.738395059,1.338456351,-0.633688909,,16.91829343,,6.42E-35,15.99571409,0.45804579,0.29188956,0.172643987,0
-1.285202865,-0.170737009,-0.443348362,1.738395059,1.338456351,-0.633688909,,16.91829343,,6.42E-35,15.99571409,0.45804579,0.29188956,0.172643987,0
-1.285202865,-0.170737009,-0.443348362,1.738395059,1.338456351,-0.633688909,,16.91829343,,6.42E-35,15.99571409,0.45804579,0.29188956,0.172643987,0
-1.285202865,-0.170737009,-0.443348362,1.738395059,1.338456351,-0.633688909,,16.91829343,,6.42E-35,15.99571409,0.45804579,0.29188956,0.172643987,0
-1.285202865,-0.170737009,-0.443348362,1.738395059,1.338456351,-0.633688909,,16.91829343,,6.42E-35,15.99571409,0.45804579,0.29188956,0.172643987,0
-1.285202865,-0.170780147,-0.443388126,1.738414548,1.338470314,-0.633772394,,18.31184341,,4.66E-08,17.17394321,0.643334567,0.310902984,0.183662599,0
-1.285202865,-0.170840916,-0.44344417,1.738442037,1.338490011,-0.633889954,,20.1897178,,6.08E-07,18.77455265,0.881074297,0.335902531,0.198187715,0
-1.285202865,-0.170893806,-0.443493008,1.738466036,1.338507215,-0.633992181,,21.644464,,3.19E-06,20.0433565,1.038511786,0.353882625,0.208709902,0
-1.285202865,-0.170913308,-0.443511156,1.738475053,1.338513698,-0.634029664,,21.70665048,,1.10E-05,20.17747392,0.970389844,0.351354786,0.207420948,0
-1.285202865,-0.170873913,-0.443475127,1.7384576,1.338501231,-0.633952994,,20.53550099,,2.95E-05,19.36050955,0.650100085,0.328978101,0.195883752,0
-1.285202865,-0.170750113,-0.443361437,1.738402186,1.338461587,-0.633712762,,30.76681374,,6.74E-05,28.11030536,1.928712004,0.457086462,0.270642556,0
-1.285202865,-0.170516399,-0.443146602,1.73829732,1.338386538,-0.633259558,,48.52301091,,0.000137077,43.17013552,4.281117792,0.674448454,0.397172061,0
-1.285202865,-0.170147262,-0.442807135,1.738131514,1.338267856,-0.632543973,,77.04124628,,0.000316492,67.18976435,8.244096293,1.013061157,0.594007983,0
-1.285202865,-0.169495207,-0.442207789,1.737840044,1.338060162,-0.631273373,,124.9415119,,0.000624921,107.2345042,15.23652821,1.560831548,0.909023016,0
-1.285202865,-0.168432999,-0.44122098,1.737360079,1.337719822,-0.629198177,,173.9215406,,0.000674154,147.4752852,23.04326143,2.157960739,1.244359008,0
-1.285202865,-0.166935681,-0.43981407,1.7366794,1.337239857,-0.626253806,,229.3586018,,0.00078718,192.6117279,32.28614551,2.842419898,1.617521337,0
-1.285202865,-0.164971313,-0.437942205,1.73577881,1.336608048,-0.622363467,,283.2525785,,0.000813455,235.779234,41.93099988,3.553855229,1.987676024,0
-1.285202865,-0.162537801,-0.435576062,1.734646092,1.335820904,-0.617495744,,335.5764805,,0.000865911,276.6914082,52.23064499,4.30210652,2.351454881,0
-1.285202865,-0.159642998,-0.432685098,1.733276008,1.334881917,-0.611624456,,335.7007235,,0.000416044,274.9725181,53.69284696,4.591696684,2.443245789,0
-1.285202865,-0.156438748,-0.429394978,1.731733137,1.333836465,-0.605032348,,337.0736489,,0.000219605,274.1295091,55.57154814,4.860546988,2.511825098,0
-1.285202865,-0.15301127,-0.42576958,1.730047149,1.332712473,-0.597867771,,329.2398906,,0.000124449,265.7863257,55.9139653,5.025471979,2.514003156,0
-1.285202865,-0.149441897,-0.421867199,1.728251205,1.331534376,-0.590275589,,311.5908259,,3.16E-05,249.3793523,54.67783098,5.085783955,2.447827089,0
-1.285202865,-0.145815103,-0.417746476,1.726380212,1.330326608,-0.582395427,,282.5696032,,1.59E-08,225.20406,50.1181813,4.945583733,2.301778217,0
-1.285202865,-0.142217107,-0.413511435,1.724476058,1.329120585,-0.574426254,,266.3091156,,6.08E-06,210.8206355,48.38974024,4.89896518,2.199768545,0
-1.285202865,-0.13868491,-0.409205359,1.722563177,1.32792678,-0.566444863,,259.7334558,,1.25E-05,203.7627514,48.89338572,4.938707479,2.138598689,0
-1.285202865,-0.13522462,-0.404830865,1.720639824,1.326750428,-0.558465218,,252.9383973,,2.12E-05,196.1630169,49.70711238,4.992187229,2.076059577,0
-1.285202865,-0.131845139,-0.400380799,1.718706,1.325589784,-0.550483827,,250.012039,,1.24E-05,192.3229489,50.61683519,5.042729176,2.0295134,0
-1.285202865,-0.128536169,-0.395863713,1.716763448,1.324443103,-0.542502437,,245.3130999,,1.55E-05,186.8643055,51.38073198,5.091860247,1.976186656,0
-1.285202865,-0.125297711,-0.391283096,1.714813915,1.323313875,-0.534522791,,240.5234133,,9.85E-06,181.2447873,52.2122767,5.143096234,1.923243293,0
-1.285202865,-0.122131334,-0.386632143,1.712853911,1.322198609,-0.526543146,,234.3430855,,1.99E-05,174.2728956,53.01262723,5.194559255,1.862983428,0
-1.285202865,-0.119045418,-0.381907711,1.710886925,1.321100797,-0.518563501,,231.6302737,,1.66E-05,170.6561693,53.9120838,5.244253119,1.817750836,0
-1.285202865,-0.116029838,-0.377118178,1.708911212,1.320018693,-0.510585601,,227.2405896,,1.02E-05,165.5089613,54.6745386,5.29061301,1.766466514,0
-1.285202865,-0.113084944,-0.372263196,1.706926772,1.318952297,-0.502605955,,222.8997019,,1.56E-05,160.3556105,55.48837878,5.340113148,1.71558388,0
-1.285202865,-0.110211957,-0.367339797,1.704935352,1.317901609,-0.494629801,,217.2076477,,2.51E-05,153.8773299,56.28127653,5.39091458,1.658101621,0
-1.285202865,-0.107419081,-0.362343268,1.702935204,1.316868374,-0.486653646,,214.6744883,,1.08E-05,150.4427067,57.17981677,5.437397332,1.614556747,0
-1.285202865,-0.104696717,-0.357279719,1.700928076,1.315850847,-0.478677491,,210.6815518,,1.57E-05,145.7151746,57.91827381,5.48218704,1.565900732,0
-1.285202865,-0.102044514,-0.352151243,1.698913966,1.314847283,-0.470704827,,206.6756799,,1.99E-05,140.8944258,58.73295405,5.531341652,1.516938529,0
-1.285202865,-0.09946422,-0.346956096,1.696891129,1.313861172,-0.462730418,,201.3838851,,1.77E-05,134.8406533,59.50373468,5.577655104,1.461824354,0
-1.285202865,-0.096964036,-0.34168782,1.694861311,1.312892514,-0.454759499,,199.0649667,,1.64E-05,131.6427973,60.37807273,5.622962246,1.421118041,0
-1.285202865,-0.094533665,-0.336353221,1.692824512,1.311939564,-0.446788581,,195.5038267,,1.97E-05,127.2976939,61.1626474,5.668703012,1.374762704,0
-1.285202865,-0.092173281,-0.330953871,1.690780732,1.311002322,-0.438819407,,191.6111407,,1.83E-05,122.6736818,61.8978373,5.711509068,1.328094216,0
-1.285202865,-0.089884806,-0.325487848,1.688731715,1.310082534,-0.430850234,,187.0076725,,2.80E-05,117.247052,62.72363632,5.760374602,1.276581638,0
-1.285202865,-0.087675742,-0.319945904,1.686673972,1.309178453,-0.422884551,,184.6299238,,1.26E-05,114.0600589,63.53206893,5.800408165,1.237375191,0
-1.285202865,-0.085536492,-0.314341129,1.684609247,1.308291826,-0.414918868,,181.3818216,,1.31E-05,110.0110514,64.33155487,5.845573228,1.193629043,0
-1.285202865,-0.083466881,-0.308670205,1.682539287,1.307419161,-0.406953186,,177.8401829,,1.91E-05,105.7572681,65.04705188,5.885590504,1.150253311,0
-1.285202865,-0.081468828,-0.302932959,1.68046409,1.30656395,-0.398989248,,173.5876385,,2.92E-05,100.6866469,65.86572937,5.933323123,1.101909843,0
-1.285202865,-0.079549838,-0.297121885,1.678380167,1.305727937,-0.391027056,,171.335497,,1.86E-05,97.63220387,66.66742788,5.97102211,1.064824616,0
-1.285202865,-0.077700488,-0.291244663,1.676291008,1.304905887,-0.38306661,,168.3791121,,2.17E-05,93.88397445,67.45637147,6.014491567,1.024252911,0
-1.285202865,-0.075920426,-0.285301642,1.674196613,1.304099545,-0.375104418,,165.0660823,,1.48E-05,89.87632994,68.15408445,6.052408952,0.983244166,0
-1.285202865,-0.074211225,-0.279292997,1.672096982,1.303310656,-0.367145716,,161.1371836,,2.68E-05,85.13976889,68.96125586,6.097500293,0.93863177,0
-1.285202865,-0.072581262,-0.273208605,1.669988624,1.302539221,-0.359185269,,159.0388355,,2.24E-05,82.2391968,69.76134602,6.134626231,0.903644077,0
-1.285202865,-0.07102024,-0.267060508,1.667876776,1.301785239,-0.351226568,,156.237867,,1.41E-05,78.66629576,70.53024501,6.174631452,0.866680654,0
-1.285202865,-0.069528158,-0.260845216,1.665759691,1.301045219,-0.343269612,,153.1811402,,2.09E-05,74.90767115,71.2330121,6.21201856,0.828417516,0
-1.28520112,-0.068107111,-0.25456238,1.663635626,1.300322653,-0.335310911,,149.5678842,,3.13E-05,70.51145012,72.01541694,6.254214642,0.786771233,0
-1.28520112,-0.066764603,-0.24820624,1.661506324,1.29961754,-0.327353955,,147.5079725,,1.45E-05,67.65528446,72.80798073,6.289310771,0.755382006,0
-1.28520112,-0.065490862,-0.241781334,1.659371786,1.298928135,-0.319395253,,144.9031974,,2.00E-05,64.27618212,73.57793088,6.328357688,0.720706659,0
-1.28520112,-0.064286061,-0.235292723,1.657233758,1.298256183,-0.311438297,,142.0483526,,2.46E-05,60.74146648,74.25774476,6.363433633,0.685683185,0
-1.28520112,-0.063151597,-0.228735521,1.655088748,1.297599939,-0.303479596,,138.7073161,,2.18E-05,56.61836671,75.03723704,6.403770206,0.647920338,0
-1.285225845,-0.062105316,-0.222031959,1.653010498,1.296906025,-0.295422283,,130.4760778,,0.00739015,51.16356717,72.52471601,6.163744774,0.616659724,0
-1.285261562,-0.061144581,-0.215288499,1.650979184,1.296209701,-0.287393893,,118.8687905,,0.02982867,45.19338861,67.32838473,5.733216975,0.583971532,0
-1.285294537,-0.060266755,-0.208611605,1.648974985,1.295546227,-0.27952196,,105.3993946,,0.048773412,39.40606573,60.18619337,5.211118055,0.547244053,0
-1.285311034,-0.059469202,-0.202107739,1.646978079,1.294950862,-0.271934016,,91.5034538,,0.028068071,34.35451659,51.91827593,4.694286735,0.508306466,0
-1.285297321,-0.058749285,-0.195883365,1.644968644,1.294458866,-0.264757596,,78.57084517,,0.025732468,30.46018364,43.363067,4.258381863,0.463480207,0
-1.285239663,-0.058104367,-0.190044946,1.642926858,1.294105499,-0.258120234,,67.73564337,,0.054173962,28.06844589,35.29710127,3.93142733,0.384494921,0
-1.285124325,-0.057531812,-0.184698944,1.640832899,1.293926021,-0.252149462,,60.48757127,,0.752068346,27.54613732,28.33872576,3.66046221,0.190177628,0
-1.284937575,-0.057028982,-0.179951823,1.638666945,1.293955692,-0.246972816,,59.10880985,,3.095068728,29.42169033,22.83623134,3.271587659,0.484231791,0
-1.28453615,-0.056504511,-0.175854663,1.635909325,1.294484526,-0.2427561,,73.78892353,,6.681145391,35.42321642,26.10733609,4.156758023,1.42046761,0
-1.283876415,-0.055907085,-0.172251082,1.632341872,1.295585829,-0.239347472,,92.67562602,,12.76183392,44.30243545,27.8578133,4.920550477,2.832992878,0
-1.282899031,-0.055186438,-0.16900634,1.62769057,1.297376537,-0.236640467,,123.900348,,22.60114518,58.46456245,31.97302921,5.872291478,4.989319722,0
-1.281527202,-0.054284103,-0.165917107,1.621615079,1.299994531,-0.234474513,,176.0682608,,40.69627582,81.3727437,39.27479849,6.070215286,8.654227555,0
-1.279642246,-0.053119445,-0.162727169,1.613586564,1.303666703,-0.232671588,,221.828172,,51.15723379,101.7848258,47.63747033,10.13986548,11.10877656,0
-1.277259872,-0.051684959,-0.159241572,1.603608517,1.308345931,-0.230996072,,271.1462086,,63.06683797,123.4361358,57.29281585,13.69334019,13.65707878,0
-1.274376588,-0.049967904,-0.155315977,1.591612869,1.314033959,-0.229296121,,328.9598958,,76.59467462,148.0136802,70.55210694,17.450326,16.34910798,0
-1.270973196,-0.047950303,-0.150799065,1.577500136,1.320749986,-0.227416402,,404.4291092,,97.99057025,178.9757567,87.8949451,19.40814026,20.15969689,0
-1.266999081,-0.045594458,-0.145534803,1.561017247,1.328596986,-0.225232995,,427.7774676,,96.118273,191.2378633,95.07621654,25.62791626,19.71719849,0
-1.262522312,-0.04294051,-0.139605222,1.542450434,1.337433588,-0.222775571,,469.6045705,,104.9498664,210.1245304,105.0370032,28.65749864,20.83567175,0
-1.257542887,-0.03998846,-0.133008052,1.521797953,1.347265028,-0.22004064,,517.6764762,,116.9823011,231.5234361,116.153666,30.79609523,22.22097778,0
-1.252046846,-0.036729581,-0.125726538,1.499000463,1.358117485,-0.217021221,,588.1056389,,139.7289876,261.425403,131.47883,30.40956398,25.06285434,0
-1.24597659,-0.03313176,-0.117687377,1.473829324,1.370099171,-0.213687642,,589.9933893,,127.7285979,267.7473461,134.9194674,37.67735382,21.92062408,0
-1.239405426,-0.02923601,-0.108981849,1.446574263,1.383073948,-0.210078301,,622.5289212,,132.3797732,284.6510428,143.7480339,40.52407006,21.22600127,0
-1.232329861,-0.025041984,-0.099610827,1.417233533,1.397040073,-0.206193198,,663.4218573,,141.2288002,304.8746722,154.3744721,42.08973396,20.85417895,0
-1.224737679,-0.020541304,-0.089554066,1.385747793,1.412028961,-0.202023606,,731.5416893,,163.138872,335.5243163,170.4170134,40.36241711,22.09907032,0
-1.216574774,-0.01570154,-0.078739796,1.351888405,1.428147076,-0.197539855,,712.0734401,,140.191933,335.9638809,171.553203,48.34680077,16.01762238,0
-1.207907469,-0.010563745,-0.067259439,1.315945095,1.445256539,-0.192778597,,734.3027531,,139.3898674,350.6176897,180.3695964,50.77404763,13.15155196,0
-1.198737509,-0.0051279,-0.055113187,1.277916116,1.463359094,-0.187743322,,767.4163858,,143.7140131,369.5185066,191.8949591,51.56275843,10.72614859,0
-1.188957265,0.000669916,-0.042158195,1.237355391,1.482666944,-0.182372377,,796.9475543,,144.6777287,388.3236843,204.0880313,52.56550507,7.292604996,0
-1.178613322,0.006802033,-0.028456254,1.194456258,1.503088045,-0.176691455,,816.2598172,,139.5036626,404.1283552,215.6998326,54.35057541,2.577391441,0
-1.167752263,0.013240787,-0.014069153,1.149412052,1.524530349,-0.17072625,,825.6778361,,125.4505556,413.7261867,225.2735159,57.64893287,3.578644951,0
-1.156420671,0.019958509,0.000941319,1.102416112,1.546901814,-0.164502456,,819.3578984,,100.0419682,413.7006686,231.115317,63.30495277,11.19499176,0
-1.144665131,0.026927532,0.016513372,1.053661773,1.570110392,-0.158045766,,785.5096799,,61.31918504,400.5982747,231.2990402,72.18023,20.11295002,0
-1.132532225,0.034120191,0.032585217,1.003342372,1.594064038,-0.151381874,,718.0356974,,8.08950973,371.1918635,223.728828,85.01548744,30.01000872,0
-1.120068538,0.041508817,0.049095065,0.951651247,1.618670708,-0.144536475,,731.7284948,,59.89316618,322.845128,206.289999,102.2611409,40.43906066,0
-1.107320653,0.049065743,0.065981125,0.898781733,1.643838356,-0.137535261,,747.6211188,,141.7348029,253.9890501,177.1159708,123.8923806,50.88891447,0
-1.094584986,0.056615339,0.082850431,0.845966324,1.668979824,-0.130540854,,743.2406207,,237.4141379,161.7958604,133.1533321,149.8443006,61.03298976,0
-1.082100646,0.064016234,0.099387949,0.794189387,1.693627364,-0.123684154,,709.9637006,,293.3093934,89.1798156,96.68095251,166.4688651,64.32467402,0
-1.070045656,0.071163182,0.115356664,0.744189194,1.717428419,-0.117062898,,658.1402539,,337.2280504,18.39627732,58.11755122,179.2193569,65.17901808,0
-1.058603278,0.077946055,0.130514325,0.696737183,1.74001647,-0.110778666,,694.7301293,,373.0452363,51.89818179,16.96063884,188.18819,64.63788243,0
-1.047977713,0.084244774,0.144588835,0.65267111,1.760984855,-0.104943332,,775.2340512,,390.650684,112.0821128,20.46524249,190.0566344,61.97937752,0
-1.038373166,0.089938387,0.157310191,0.612839206,1.779956584,-0.099668423,,651.295951,,321.6990157,96.26090185,16.28528171,167.500154,49.55059768,0
-1.029737277,0.095057438,0.168749079,0.577025049,1.797008451,-0.094925665,,598.6427614,,283.6050783,99.50330519,22.64830067,150.8841385,42.0019387,0
-1.022103207,0.099582902,0.178861691,0.545364777,1.812070643,-0.090732861,,544.0882489,,247.8124271,99.95326797,27.46612253,133.3525863,35.50384507,0
-1.015509353,0.10349244,0.187597064,0.518013722,1.825090799,-0.087110954,,511.4655592,,222.2317092,106.0081204,35.3695471,117.0454518,30.81073071,0
-1.010053454,0.10672636,0.194822901,0.495390764,1.83585948,-0.084114922,,362.2899565,,158.1235988,71.49470823,20.54995226,90.23290592,21.88879124,0
-1.00560461,0.109364076,0.2007181,0.476935653,1.84465594,-0.081670937,,288.7670309,,123.6676259,59.1597953,17.50019623,71.49422448,16.94518899,0
-1.00215933,0.111405588,0.205280914,0.462651878,1.851445271,-0.079779349,,223.57878,,93.51277752,48.48514585,15.21580464,53.66667209,12.69837991,0
-0.999754266,0.112831173,0.208466489,0.452677321,1.856192566,-0.078458659,,159.1019247,,64.16803859,38.02950838,12.83258558,35.43324371,8.638548455,0
-0.998488902,0.113581141,0.210142529,0.447430862,1.858688387,-0.077763494,,59.56878887,,23.93753519,14.14236194,3.788916679,14.4080764,3.291898654,0
-0.998230594,0.113735079,0.21048601,0.446352248,1.859211986,-0.0776209,,22.36039899,,8.308567743,6.345462127,1.245805344,5.271018312,1.189545461,0
-0.998975849,0.113292812,0.209498851,0.449444972,1.857728456,-0.078030529,,99.61347075,,40.47640426,23.10167178,6.89111829,23.63761361,5.506662805,0
-1.000761321,0.112234619,0.207134454,0.456848658,1.854202891,-0.079010706,,202.3440142,,82.33721469,47.40364709,16.27670433,45.24818027,11.07826777,0
-1.003684748,0.110500635,0.203260696,0.468976951,1.848443304,-0.080617107,,251.1098782,,106.5911833,52.36653672,15.62879219,61.96970347,14.55366247,0
-1.007615229,0.10817062,0.198054378,0.485276581,1.840676589,-0.082775381,,324.2916292,,140.1016475,65.31241997,19.09219475,80.50475442,19.28061251,0
-1.01255102,0.105244576,0.191517248,0.505745803,1.830937652,-0.085486227,,414.9421211,,181.6897337,82.29095819,24.55315268,101.1762709,25.23200567,0
-1.018525282,0.10170243,0.183603052,0.530524242,1.819139226,-0.088767795,,556.5943526,,244.6919751,112.9839908,37.11173282,127.5737681,34.23288577,0
-1.02564099,0.097484667,0.174179321,0.560030778,1.805089326,-0.092675063,,561.1739155,,261.447699,96.97348195,23.56707325,141.0720048,38.11365655,0
-1.033760261,0.092671049,0.163424603,0.593705161,1.789067203,-0.097134554,,628.1401492,,303.0488943,99.55063242,20.46366677,159.4051934,45.67176228,0
-1.04287088,0.087270302,0.151356349,0.631486303,1.771072858,-0.10213789,,690.2002711,,346.4927855,97.87737766,14.97502132,176.5177419,54.33734479,0
-1.052950156,0.081293946,0.138004929,0.67329392,1.751176105,-0.107674423,,770.9225316,,401.1677921,98.91463073,11.1266691,194.2104158,65.50302388,0
-1.064005072,0.074740758,0.123361093,0.719138484,1.729354253,-0.113745376,,656.6683743,,354.0938554,15.76636059,38.36976489,183.7207008,64.71769267,0
-1.075766846,0.067767819,0.107782633,0.767918691,1.706132648,-0.120205363,,685.1522812,,317.3283346,52.26582016,76.97289633,173.5758404,65.00938971,0
-1.088052218,0.060484385,0.091507962,0.818871833,1.681877807,-0.126952806,,728.7706008,,268.550099,123.6784667,114.3643996,159.0172262,63.16040925,0
-1.100566084,0.053066989,0.074951514,0.870765271,1.657171217,-0.133803224,,748.375472,,207.4942101,193.4595787,147.8327149,141.3814684,58.20749989,0
-1.113180077,0.045590958,0.05827209,0.923070233,1.632266865,-0.140698446,,745.0539217,,139.4825489,256.9645474,175.3898456,122.7164238,50.50055588,0
-1.125765833,0.038131622,0.041628489,0.975257947,1.607418737,-0.147580304,,721.9542272,,70.03588398,310.6655772,195.9340716,104.5957712,40.72292331,0
-1.138194988,0.030764308,0.025179512,1.026799639,1.58288082,-0.154390629,,683.6102189,,4.49111895,352.1442269,209.0589952,88.10670837,29.80916948,0
-1.150339175,0.023564345,0.009083958,1.077166537,1.558907102,-0.161071251,,740.0424677,,52.44856063,380.0275152,214.8438211,73.90804613,18.81452471,0
-1.162070032,0.016607061,-0.006499373,1.12582987,1.53575157,-0.167564,,775.6556259,,97.00741385,393.8818813,213.6638364,62.33087669,8.771617726,0
-1.173259192,0.009967785,-0.021411682,1.172260864,1.51366821,-0.173810708,,780.6385958,,126.4824003,394.0667164,206.0289123,53.49233277,0.568234036,0
-1.183778292,0.003721845,-0.035494168,1.215930747,1.492911009,-0.179753205,,765.846887,,139.3431795,381.5390164,192.4300994,47.40019052,5.134401186,0
-1.193775538,-0.00222601,-0.04905089,1.257487037,1.473197515,-0.185591331,,768.672235,,162.365185,374.0531391,182.1403864,37.8924214,12.221103,0
-1.203203806,-0.007854942,-0.062107454,1.296765672,1.454621976,-0.191398042,,692.8582935,,137.6899446,339.4421367,163.2270219,40.86086877,11.63832145,0
-1.212131166,-0.013206139,-0.074784985,1.334045904,1.437058728,-0.197248385,,667.7245989,,139.0613159,323.3900669,153.9092037,36.87322421,14.49078805,0
-1.220554124,-0.018284418,-0.08713469,1.369345189,1.420513006,-0.203198213,,656.6580091,,145.167467,312.1945584,149.503024,32.04370063,17.74925922,0
-1.228456975,-0.02308355,-0.099167863,1.402595456,1.405024954,-0.209282431,,661.8206162,,158.7756067,306.2212551,149.6545807,25.22673502,21.94243874,0
-1.235790849,-0.027581089,-0.110856856,1.433616938,1.39068882,-0.215513256,,605.4738993,,133.0338496,279.5565611,143.3333162,29.88336194,19.66681038,0
-1.242622068,-0.031815258,-0.12223745,1.462666198,1.377373703,-0.221874981,,584.5761476,,128.9668228,266.02187,141.3893553,27.72873784,20.4693616,0
-1.248952377,-0.035789198,-0.133306328,1.489738,1.365077859,-0.228365861,,569.1043418,,128.6525161,254.5745822,140.2677756,24.01142407,21.59804388,0
-1.254759087,-0.03949715,-0.144048655,1.514764276,1.353844919,-0.234994621,,560.6764924,,133.1154357,245.508483,140.6044543,18.23417603,23.21394335,0
-1.259998566,-0.042921661,-0.154427954,1.537558277,1.343767388,-0.241768244,,504.6847483,,108.1810983,220.9421501,134.248777,21.37210895,19.94061399,0
