Lenovezhou/ZlWyzlinkRobotControlledr/Assets/Data/Trajectory/Original_Path.csv
J1 [rad],J2 [rad],J3 [rad],J4 [rad],J5 [rad],J6 [rad],,Electrical Power [W],,J1 [W], J2 [W],J3 [W],J4 [W],J5 [W],J6 [W]
-0.000210296,0.602958897,-0.563409561,-0.01497482,1.609647356,-0.016524428,,9.447947657,,1.29E-34,9.01239168,0.351727983,0.083827751,2.43E-07,0
-0.000217801,0.60295017,-0.563392806,-0.014974593,1.609656083,-0.016500605,,10.54563768,,0.071514818,9.804298489,0.591989177,0.077774648,6.05E-05,0
-0.000295528,0.602934462,-0.563361565,-0.014973686,1.609671791,-0.016254147,,14.13215941,,0.626970654,12.1916994,1.239678162,0.072695322,0.001115872,0
-0.000536006,0.602862904,-0.563223684,-0.014971783,1.609738113,-0.015492066,,20.91533707,,2.286951128,15.98463975,2.570160018,0.069872182,0.003713986,0
-0.001035406,0.602718041,-0.562941115,-0.014962917,1.609875994,-0.013909332,,34.62314123,,7.219627899,22.56106904,4.771766713,0.059306286,0.011371296,0
-0.001960162,0.602447515,-0.562415596,-0.014955168,1.610130812,-0.010978383,,50.76849232,,13.06110795,30.03440234,7.598635703,0.054036103,0.020310218,0
-0.003358886,0.602039108,-0.561621646,-0.014949845,1.61051653,-0.006545386,,73.21789741,,22.6421254,39.43424605,11.05449769,0.052549297,0.034478971,0
-0.005326221,0.60146315,-0.560503065,-0.014934241,1.611059327,-0.000310232,,102.4922646,,36.24565445,50.87335409,15.26740132,0.051817874,0.054036903,0
-0.007960063,0.600693459,-0.559007317,-0.014913332,1.61178713,0.008037346,,152.0436728,,63.28165809,67.50136453,21.12581759,0.042913855,0.091918699,0
-0.01146608,0.599668951,-0.557016071,-0.014885547,1.612755787,0.019149054,,176.0636727,,70.77716934,79.06900321,26.0664791,0.054020775,0.097000319,0
-0.015743341,0.598419295,-0.554586922,-0.0148516,1.61393563,0.032705201,,207.7552612,,84.74373501,91.7227217,31.12111176,0.058285744,0.109406952,0
-0.020791933,0.596944492,-0.551720044,-0.014811527,1.615330148,0.048705856,,239.8668859,,99.14290917,104.3382845,36.20518641,0.062191391,0.118314407,0
-0.026614875,0.595242796,-0.54841282,-0.014765363,1.616937596,0.067160968,,297.2772947,,132.4230278,121.894197,42.75306956,0.056942781,0.150057557,0
-0.033334567,0.593279301,-0.544596483,-0.014712078,1.618792881,0.08845765,,307.0780094,,128.9843235,130.8108935,47.0914102,0.071145566,0.120236578,0
-0.040825346,0.591090658,-0.540342243,-0.014652632,1.620861096,0.11219884,,337.9688234,,142.9564584,142.7110423,52.11395477,0.07501181,0.1123562,0
-0.04908756,0.588676867,-0.535650274,-0.01458706,1.623142242,0.138384364,,369.59788,,157.6705605,154.5685953,57.18082022,0.0784174,0.09948651,0
-0.058124176,0.586036184,-0.530517959,-0.014515397,1.625638063,0.167024344,,437.4371361,,200.229844,172.7979895,64.22196676,0.070784006,0.11655183,0
-0.068057369,0.583133702,-0.524876531,-0.014436596,1.628379975,0.198506768,,434.5009607,,187.4309769,178.959012,67.98203745,0.086400077,0.04253426,0
-0.078761822,0.580006072,-0.518797375,-0.01435165,1.631336563,0.232432478,,464.2975432,,201.5449891,189.6899692,72.96976814,0.089705405,0.003111391,0
-0.090237537,0.576653294,-0.512280315,-0.014260632,1.634504335,0.268803394,,495.1349541,,216.6396371,200.3399526,78.01883062,0.092551341,0.043982492,0
-0.102487654,0.573073624,-0.505322909,-0.014163469,1.637886783,0.307628243,,573.1586306,,268.6705368,218.8201919,85.53287025,0.082402823,0.052628849,0
-0.115634521,0.569232154,-0.497856391,-0.014059168,1.641517068,0.349294489,,557.409289,,246.6691026,221.7137676,88.74229105,0.099366452,0.184761227,0
-0.129552474,0.565165537,-0.489951969,-0.013948724,1.645360283,0.39340594,,585.9761434,,261.074724,230.8308189,93.70080032,0.102087222,0.267712904,0
-0.144241863,0.560873772,-0.481609994,-0.013832206,1.649414683,0.439960853,,615.8066839,,276.8340531,239.7653224,98.74210638,0.104255745,0.360946243,0
-0.159705481,0.556355115,-0.472827322,-0.013709544,1.653685504,0.488971443,,703.7847313,,338.6225932,257.9422344,106.716634,0.09146903,0.411800648,0
-0.176065324,0.551574658,-0.463535887,-0.013579726,1.658202416,0.540821685,,674.7974961,,307.6354851,257.0118417,109.4259445,0.109773619,0.614451165,0
-0.193197476,0.546569054,-0.453806375,-0.013443817,1.662932258,0.595118878,,701.916324,,322.7085927,263.9632528,114.378487,0.11184478,0.754146651,0
-0.211101064,0.541338302,-0.443639308,-0.013301835,1.66787503,0.651857786,,730.5208116,,339.482749,270.5791234,119.4376522,0.113332053,0.907954892,0
-0.229777832,0.535880658,-0.433031546,-0.013153656,1.673032478,0.711054119,,828.3455334,,411.5246862,287.8109321,127.896557,0.097839536,1.015518667,0
-0.2493517,0.530161214,-0.421914846,-0.012998357,1.678436018,0.773090102,,786.0161384,,371.9938601,282.4362753,130.1657207,0.117536702,1.302745589,0
-0.269697003,0.524216622,-0.410360417,-0.012836932,1.684054233,0.837571291,,811.6113506,,388.2818461,286.5230421,135.1731246,0.11896754,1.514370305,0
-0.290813741,0.518046883,-0.398368086,-0.012669432,1.689883632,0.904495941,,838.8180487,,406.5603949,290.1050345,140.2888798,0.119788307,1.743951131,0
-0.312703661,0.511650252,-0.385935407,-0.012495772,1.695927708,0.973876269,,946.6185898,,489.6830286,305.6494738,149.2609051,0.101506537,1.923675732,0
-0.335492425,0.50499182,-0.372993791,-0.012314973,1.702219619,1.046097994,,890.8586322,,442.1950304,295.0174718,151.2087661,0.122719909,2.314644041,0
-0.359050879,0.498108242,-0.359614097,-0.012128118,1.708724462,1.120763179,,914.8475467,,460.3492466,295.4379628,156.3241876,0.123621621,2.612527989,0
-0.383380769,0.490999516,-0.345796849,-0.011935102,1.715442234,1.197873571,,940.7765017,,480.9398361,295.1784621,161.6030469,0.123881299,2.931275272,0
-0.408485585,0.483663897,-0.331538905,-0.011735926,1.722374682,1.277437895,,1039.455583,,560.7922624,305.0875871,170.245952,0.107165634,3.222615769,0
-0.43446132,0.47607346,-0.316785986,-0.011529837,1.72954624,1.359765076,,902.1390163,,451.5387662,277.8696813,168.8154567,0.146265926,3.76884616,0
-0.46110028,0.468289292,-0.301656774,-0.011318565,1.736901057,1.444191888,,841.338128,,406.1456578,260.9758786,169.872259,0.165955931,4.178376635,0
-0.488306473,0.460341062,-0.28620677,-0.011102738,1.744412954,1.53041988,,775.1520363,,357.7739676,242.3519359,170.2880299,0.18641565,4.551687229,0
-0.515987395,0.452251461,-0.270484146,-0.01088307,1.75204877,1.6181506,,738.9529252,,334.8518223,227.4305385,171.6041672,0.198497555,4.867899615,0
-0.544092432,0.444039687,-0.25452311,-0.010660139,1.759815485,1.707226969,,600.5192626,,230.1041339,196.6790859,168.2627937,0.237322184,5.235926898,0
-0.572455777,0.435752864,-0.238415466,-0.010435114,1.767652013,1.797113171,,517.0948901,,171.0615636,173.8240697,166.4814798,0.260931976,5.466845046,0
-0.600979693,0.427417171,-0.22221532,-0.01020885,1.775523448,1.887521226,,431.7555957,,111.1358065,150.5787622,164.1085042,0.284844069,5.64767875,0
-0.629571677,0.419064025,-0.205978522,-0.009982027,1.783412336,1.978138721,,372.529734,,72.87404855,131.2314989,162.3761591,0.301032962,5.7469945,0
-0.658172388,0.410705644,-0.189732998,-0.009755151,1.791318678,2.068791122,,357.0192322,,70.44123366,118.3872022,162.1027789,0.304184459,5.783833019,0
-0.686774843,0.402349007,-0.173490964,-0.009528259,1.799207566,2.15942607,,348.5632953,,73.80125472,106.56501,162.0852325,0.305221941,5.806576111,0
-0.715375554,0.393992371,-0.157247184,-0.009301366,1.807113908,2.250078472,,339.9313762,,77.03367631,94.71500042,162.043096,0.306359667,5.833243796,0
-0.743976264,0.385635734,-0.14100515,-0.009074421,1.815002796,2.340730873,,331.3245895,,80.24808334,82.91084257,162.0026958,0.30739463,5.855573221,0
-0.772576975,0.377279098,-0.124761371,-0.008847528,1.822909137,2.431365821,,322.9587384,,83.75063907,71.08989631,161.9301166,0.308301821,5.87978455,0
-0.801177685,0.368920716,-0.108517592,-0.008620652,1.830798025,2.522018222,,314.3225379,,86.97120472,59.26566268,161.8726944,0.309370018,5.903606074,0
-0.829778396,0.36056408,-0.092273812,-0.00839376,1.838686914,2.61265317,,305.7610769,,90.29324645,47.45657847,161.772297,0.310346092,5.928608872,0
-0.858379106,0.352207443,-0.076031778,-0.008166867,1.846593255,2.703305572,,297.2110171,,93.58431731,35.67983797,161.6849535,0.311354194,5.950554144,0
-0.886979817,0.343850807,-0.059787999,-0.007939991,1.854482143,2.793957973,,288.6135078,,96.8769649,23.87546586,161.5763247,0.312326611,5.972425743,0
-0.915580527,0.33549417,-0.043545965,-0.007713099,1.862388485,2.884592921,,280.3021042,,100.4109486,12.12017485,161.461237,0.313197158,5.996546517,0
-0.944182983,0.327135788,-0.02730044,-0.007486223,1.870277373,2.975245323,,271.6502344,,103.6294179,0.354302548,161.3328111,0.314250115,6.019452747,0
-0.972783693,0.318779152,-0.011058406,-0.007259261,1.878183715,3.065897724,,285.922034,,106.9648444,11.43234791,161.1675008,0.315092261,6.042248652,0
-1.001384404,0.310422515,0.005185373,-0.007032368,1.886072603,3.156532672,,300.8158414,,110.2219237,23.18741259,161.0283556,0.316027208,6.062122276,0
-1.029985114,0.302065879,0.021427407,-0.006805493,1.893978944,3.247185073,,315.9693944,,113.728329,34.98659339,160.8523304,0.31682548,6.085316128,0
-1.058585825,0.293709243,0.037671187,-0.0065786,1.901867833,3.337837475,,330.7556984,,116.8549522,46.81016285,160.6652233,0.317769802,6.107590285,0
-1.087186535,0.285350861,0.053914966,-0.006351724,1.909774174,3.428472423,,345.9861782,,120.4343508,58.62785989,160.4767607,0.318517987,6.128688823,0
-1.115787245,0.276994224,0.070158745,-0.006124832,1.917663062,3.519124824,,360.8455965,,123.6440778,70.45644515,160.2768047,0.319400513,6.148868384,0
-1.144387956,0.268637588,0.086400779,-0.005897956,1.925551951,3.609759772,,375.8129835,,126.9675581,82.30975639,160.0463815,0.320189604,6.169097924,0
-1.172990412,0.260280951,0.102644559,-0.005671063,1.933458292,3.700412173,,390.7061349,,130.1933059,94.18407574,159.8169604,0.321083091,6.190709884,0
-1.201591122,0.251924315,0.118886593,-0.005444101,1.94134718,3.791064575,,405.8989641,,133.7817239,106.016723,159.5673317,0.321682515,6.211502951,0
-1.230191833,0.243565933,0.135132117,-0.005217225,1.949253522,3.881699523,,420.5192944,,136.7252597,117.9245435,159.315895,0.32256632,6.231029914,0
-1.258792543,0.235209297,0.151374151,-0.004990333,1.95714241,3.972351924,,430.8430801,,134.8405395,130.601627,158.823767,0.325087508,6.252059073,0
-1.287386272,0.226854406,0.16761444,-0.00476351,1.965048752,4.062969419,,408.7320911,,96.49208485,148.6524342,156.9594979,0.340576193,6.287497946,0
-1.31592066,0.218516968,0.183819822,-0.004537106,1.972920186,4.153412381,,337.8139754,,3.631954131,175.0329379,152.4613836,0.377932996,6.309766832,0
-1.344266553,0.21023538,0.199916994,-0.004312255,1.980739262,4.243244477,,416.1619626,,67.46102902,193.5501833,148.5217278,0.400878206,6.228144229,0
-1.372340174,0.202032333,0.215860577,-0.004089568,1.988505977,4.332221363,,504.0319277,,141.9028336,211.9097196,143.6923644,0.427247719,6.09976238,0
-1.400049021,0.19393575,0.23159821,-0.003869727,1.996150519,4.420046331,,590.6892675,,217.7154196,228.3504579,138.2600977,0.45347013,5.909822248,0
-1.42729361,0.185975304,0.247070554,-0.003653602,2.003672888,4.506387769,,758.9090726,,369.3930303,253.6863247,129.6288163,0.510524061,5.690377223,0
-1.453878466,0.178206843,0.262169398,-0.003442679,2.011020724,4.590652265,,763.1345357,,378.4159048,254.1986625,124.7003401,0.507299052,5.312329321,0
-1.479786133,0.170636652,0.276883221,-0.003237149,2.018159121,4.672752553,,813.2466442,,429.420045,260.0084354,118.3411942,0.521943284,4.955026341,0
-1.504892694,0.163302313,0.291148117,-0.003037766,2.025088078,4.752426833,,833.2485682,,455.3448987,260.3918301,112.417511,0.525605416,4.568722998,0
-1.529205692,0.156200631,0.304964892,-0.002844589,2.031805102,4.829635836,,828.588779,,460.5876318,256.4498995,106.8637499,0.519790442,4.16770736,0
-1.552732668,0.149328409,0.318334351,-0.002657679,2.0383077,4.904340292,,804.7434991,,449.5865666,249.2647929,101.6217825,0.50619861,3.764158501,0
-1.575481165,0.142682453,0.3312573,-0.002477097,2.044593379,4.976500929,,767.0070098,,426.6477396,239.8618829,96.64272252,0.486620366,3.368044403,0
-1.597458724,0.136259567,0.343734547,-0.002302902,2.050659645,5.04607848,,720.3301496,,395.8085248,229.1837526,91.88787269,0.462846934,2.987152655,0
-1.61867289,0.130056554,0.355766897,-0.002135154,2.056504004,5.113033674,,669.2096486,,360.7414977,218.0755364,87.32878761,0.436598028,2.627228855,0
-1.639131203,0.124070221,0.367355156,-0.001973915,2.062123965,5.17732724,,617.6308072,,324.7017373,207.2809872,82.94641823,0.409467862,2.292196539,0
-1.658841206,0.11829737,0.37850013,-0.001819244,2.067517032,5.238919909,,569.0658399,,290.5206178,197.4486137,78.72928482,0.382890283,1.984433308,0
-1.677949071,0.112689452,0.389265495,-0.001670675,2.072665753,5.297894585,,525.7241932,,260.27256,188.7111905,74.67707683,0.35810712,1.705258751,0
-1.696500176,0.107229713,0.399662771,-0.001528219,2.077622488,5.354198906,,521.0057648,,266.3464267,184.1273234,68.77431896,0.347364018,1.410331773,0
-1.714473576,0.101916233,0.409660715,-0.001392933,2.082299971,5.407344182,,440.830546,,199.4954184,172.5476311,67.26498201,0.307735249,1.214779259,0
-1.73198621,0.096714977,0.419328268,-0.00126372,2.086785467,5.457731837,,430.6749544,,194.5343783,170.387765,64.38463138,0.296466826,1.071712843,0
-1.749046803,0.091622455,0.428667176,-0.001140648,2.091026617,5.505361873,,426.0091808,,194.4219218,168.8554007,61.50279009,0.287575941,0.941492289,0
-1.765627431,0.086638144,0.437677962,-0.001023695,2.095058328,5.550216835,,454.1299764,,226.1226218,170.0363161,56.89960915,0.290812191,0.780617182,0
-1.781701914,0.081775482,0.446314026,-0.000913915,2.098845692,5.591877844,,407.8924998,,187.1936067,163.8945449,55.84010216,0.266047454,0.698198578,0
-1.797305157,0.077015271,0.454629472,-0.000810205,2.102406164,5.630781233,,400.4492581,,184.5534512,161.7462097,53.29774185,0.256670668,0.595184737,0
-1.812437162,0.072354719,0.462625349,-0.00071258,2.105739743,5.666927002,,394.8723178,,183.617548,159.8082015,50.69747206,0.247942688,0.501153547,0
-1.827115381,0.06779173,0.470305496,-0.000621187,2.108863882,5.700297697,,418.9460146,,211.8533839,159.7962684,46.6672002,0.25066146,0.378500666,0
-1.841252548,0.063335904,0.477627152,-0.000536837,2.111726222,5.730491893,,375.8819949,,175.4438602,154.226738,45.65606903,0.227458631,0.327868921,0
-1.854901022,0.058968916,0.484641805,-0.000458631,2.114379122,5.757928469,,368.2597294,,172.4228405,151.9551663,43.40135668,0.218545392,0.261820516,0
-1.868095712,0.054686227,0.491355738,-0.00038651,2.116822583,5.782642331,,361.9840476,,170.5916289,149.8634354,41.12057345,0.21013046,0.198279288,0
-1.880819162,0.050484347,0.497770695,-0.000320624,2.119039151,5.804563666,,382.263766,,194.9884585,149.2978716,37.64991698,0.212304061,0.115214817,0
-1.892984107,0.04636886,0.503849677,-0.000261778,2.12099392,5.823325956,,342.838533,,161.2186805,144.6037284,36.73001476,0.190662266,0.095447125,0
-1.904660359,0.042321791,0.509645566,-0.000209036,2.122756703,5.839348078,,335.1849983,,157.4850005,142.6860693,34.77363619,0.18210237,0.058189911,0
-1.915865373,0.038338077,0.51516517,-0.000162441,2.124292592,5.852647487,,328.5725161,,154.6529652,140.8859312,32.8315179,0.174071107,0.028030592,0
-1.926564242,0.034411959,0.520410757,-0.000122001,2.125619043,5.863189276,,344.9195828,,174.7217458,140.0708403,29.93529869,0.175772268,0.015925766,0
-1.936704604,0.030544309,0.52535353,-8.87E-05,2.126683694,5.870572019,,309.626744,,143.5631408,136.7787371,29.11702857,0.155372426,0.012465137,0
-1.946338822,0.026719071,0.530044451,-6.14E-05,2.127556358,5.875249501,,295.7713003,,133.3169476,134.6183627,27.67047875,0.144628148,0.020883059,0
-1.955501801,0.022924551,0.534502197,-4.01E-05,2.128219583,5.877274083,,275.3380596,,116.0076877,132.3992556,26.77235528,0.138688358,0.020072612,0
-1.964228447,0.019144691,0.538763767,-1.52E-05,2.128708275,5.876925017,,269.3878108,,112.3976246,131.1066901,25.73766944,0.126559616,0.019267011,0
-1.972483854,0.015365111,0.542854016,-8.72E-06,2.129022435,5.874254663,,235.8784089,,78.2948978,131.2608411,26.2144551,0.101815875,0.006399048,0
-1.980425102,0.01157375,0.546839109,-4.40E-06,2.129214421,5.870030967,,222.6983269,,64.00779995,132.3254085,26.26778121,0.094604576,0.002732698,0
-1.988069644,0.007762265,0.550755313,-1.75E-06,2.129319141,5.864568086,,212.3734193,,51.12927942,134.3233679,26.8312734,0.089262888,0.00023569,0
-1.99546984,0.003923465,0.554646473,1.52E-07,2.129371501,5.858215088,,203.2822849,,42.06088613,134.4650118,26.67252747,0.08341136,0.000448123,0
-2.002660597,4.40E-05,0.558532887,2.27E-07,2.129371501,5.85128613,,179.1573043,,15.1852379,135.9306257,27.96990104,0.071498118,4.15E-05,0
-2.009746634,-0.003889641,0.562471796,2.27E-07,2.129371501,5.844235,,169.2541354,,3.071480462,137.3150746,28.80125978,0.066231656,8.88E-05,0
-2.016780311,-0.007892012,0.566500347,2.27E-07,2.129406407,5.837201323,,171.9552607,,1.307002603,141.2044765,29.3784576,0.065281296,4.27E-05,0
-2.023779081,-0.011966466,0.57062018,2.27E-07,2.129441314,5.830202553,,177.2731858,,2.849335739,144.2214917,30.1360192,0.066014542,0.000324683,0
-2.030725491,-0.016123753,0.574843789,2.27E-07,2.129511127,5.823256143,,183.7434324,,1.27376164,151.5959557,30.80825088,0.065288516,0.000175708,0
-2.037602089,-0.020352808,0.579158365,2.27E-07,2.129598393,5.816379545,,189.5138222,,1.260825988,156.7089193,31.4786544,0.065281554,0.000141048,0
-2.044461232,-0.024653997,0.58356602,2.27E-07,2.129703113,5.809520401,,195.2515296,,1.233482598,161.7675616,32.18501984,0.065292372,0.000173158,0
-2.051250563,-0.029028665,0.588071587,2.27E-07,2.12984274,5.802731071,,200.9065376,,2.617319021,165.2301433,32.99235322,0.065960841,0.00076121,0
-2.058004987,-0.033487632,0.592685889,2.27E-07,2.129999819,5.795976646,,208.1797388,,1.159346861,173.2527459,33.70207936,0.065269732,0.00029703,0
-2.064707052,-0.038020252,0.597400023,2.27E-07,2.130174352,5.789274582,,214.5672978,,1.102010273,178.987312,34.41237253,0.065231598,0.00037146,0
-2.071356756,-0.0426267,0.602212419,2.27E-07,2.130383792,5.782624878,,221.0279255,,1.090551696,184.7096099,35.16223014,0.065243401,0.000290392,0
-2.077971554,-0.047308371,0.607127965,2.27E-07,2.130610684,5.77601008,,227.1401083,,2.542865243,188.4715359,36.05833576,0.065982851,0.001388537,0
-2.084533992,-0.05207696,0.612161843,2.27E-07,2.130872484,5.769447642,,235.0978362,,0.845465979,197.4002201,36.78648056,0.065125321,0.000544297,0
-2.09104407,-0.056921296,0.61730114,2.27E-07,2.13116919,5.762937564,,242.2430676,,0.867470117,203.7526377,37.55727314,0.065129141,0.000557589,0
-2.097501788,-0.061842077,0.622546552,2.27E-07,2.131500802,5.756479846,,249.531607,,0.974363389,210.1337263,38.35794005,0.065184217,0.00039301,0
-2.103907147,-0.0668407,0.627901222,2.27E-07,2.131849868,5.750074487,,256.0262715,,2.194708679,214.4076946,39.35608844,0.06584725,0.001932533,0
-2.110277599,-0.071929207,0.63338592,2.27E-07,2.132251294,5.743704035,,265.1345962,,0.760848608,224.1956686,40.11238743,0.065067783,0.000623805,0
-2.11659569,-0.077096778,0.638982842,2.27E-07,2.132687626,5.737385943,,272.989277,,0.612737965,231.3656234,40.94512046,0.064981684,0.000813529,0
-2.122861422,-0.082344111,0.644696177,2.27E-07,2.133141412,5.731120211,,281.101103,,0.727804506,238.4987605,41.80877392,0.065032033,0.00073202,0
-2.129092248,-0.087672252,0.650528718,2.27E-07,2.133647557,5.724889386,,288.5369602,,2.226306697,243.3010902,42.94126428,0.065881066,0.002417975,0
-2.13525326,-0.093094641,0.65649914,2.27E-07,2.134206063,5.718728374,,305.8448828,,4.134610088,257.8892394,43.74706214,0.067024631,0.006946591,0
-2.141361913,-0.09858597,0.662578646,3.04E-07,2.134782021,5.712619721,,331.1884276,,12.38484041,274.107759,44.60150629,0.071918324,0.022403556,0
-2.147383298,-0.104114824,0.668732328,3.04E-07,2.13541034,5.706598335,,357.1690937,,21.44358325,290.4027375,45.20312539,0.077678659,0.041968821,0
-2.153265058,-0.109643678,0.674919171,3.04E-07,2.136073565,5.700716576,,392.010941,,36.95575827,309.1448309,45.74994789,0.088549992,0.071853955,0
-2.158937378,-0.115121394,0.681086292,3.04E-07,2.136754243,5.695044256,,404.9052547,,39.12187259,320.3880542,45.21263755,0.091007818,0.091682546,0
-2.164400259,-0.120507305,0.687182552,3.04E-07,2.137469828,5.689581375,,420.4720277,,45.69459919,329.9971762,44.56831032,0.097236935,0.114705019,0
-2.169636246,-0.125758652,0.693156465,3.04E-07,2.138202867,5.684345388,,427.5470712,,49.40163923,334.3955561,43.51505498,0.102061971,0.132758917,0
-2.174575528,-0.130839655,0.69896527,3.04E-07,2.138918452,5.679406106,,435.6953928,,55.48298319,337.6427396,42.30485152,0.110067012,0.154751493,0
-2.179218104,-0.135707901,0.704561319,3.04E-07,2.13965149,5.67476353,,406.4901509,,44.36653645,321.5946664,40.28963766,0.102312696,0.136997697,0
-2.18359888,-0.140383289,0.709959274,3.04E-07,2.140367075,5.670382754,,394.232053,,41.73594962,313.6167387,38.64075728,0.102083339,0.136524077,0
-2.187717857,-0.144857965,0.715149534,3.04E-07,2.14108266,5.666263776,,381.7077513,,39.58028077,304.9222904,36.9667225,0.102363104,0.136094609,0
-2.191592488,-0.149123026,0.720116217,3.04E-07,2.141780792,5.662389146,,379.9322959,,42.78191842,301.6515174,35.23791999,0.109093036,0.151847118,0
-2.19515296,-0.153137283,0.724811153,3.04E-07,2.14246147,5.658828674,,348.335923,,33.83052891,281.260042,33.01427928,0.101585039,0.129487774,0
-2.198486539,-0.156927615,0.729261219,3.04E-07,2.143124695,5.655495095,,331.9226807,,31.50956974,269.0835263,31.10289588,0.10154088,0.125147963,0
-2.201558318,-0.160487214,0.733454372,3.04E-07,2.143770467,5.652423316,,314.9263927,,29.32635649,256.241029,29.13583617,0.10170377,0.12146721,0
-2.204403205,-0.163808226,0.737379269,3.04E-07,2.144363879,5.649578429,,306.151317,,30.95583108,247.901072,27.05458605,0.108213146,0.131614687,0
-2.206968839,-0.166846321,0.740981105,3.04E-07,2.144939838,5.647012795,,273.1450695,,24.04260664,224.2227089,24.67131831,0.101078476,0.107357085,0
-2.209290127,-0.169634833,0.744296707,3.04E-07,2.145463436,5.644691507,,252.9197948,,21.79231876,208.382118,22.54433341,0.101041275,0.099983421,0
-2.211384522,-0.172168179,0.747316999,3.04E-07,2.145952128,5.642597112,,232.167055,,19.64661777,191.9565377,20.36994565,0.101235335,0.092718599,0
-2.213252024,-0.174439725,0.750030113,3.04E-07,2.146388461,5.64072961,,216.4373549,,19.84881471,178.3476128,18.03757966,0.107640714,0.095707085,0
-2.214840274,-0.176405663,0.752385261,3.04E-07,2.146772433,5.63914136,,183.5126136,,14.6116559,153.1799425,15.54761807,0.10065032,0.07274688,0
-2.216219084,-0.178100378,0.754416824,3.04E-07,2.147121499,5.63776255,,160.3130772,,12.44394362,134.4337435,13.27187799,0.100705447,0.062806642,0
-2.217353548,-0.179524567,0.756127247,3.04E-07,2.147400752,5.636628086,,136.7575076,,10.28768994,115.3477482,10.96813622,0.100925531,0.053007686,0
-2.218278573,-0.180672994,0.757509547,3.04E-07,2.147627645,5.635703061,,114.7358255,,9.001441398,97.0884981,8.491757417,0.106628303,0.047500314,0
-2.218941798,-0.181502025,0.75850613,3.04E-07,2.147802178,5.635039836,,82.76889421,,4.962388179,71.59340872,6.090717311,0.095867208,0.026512799,0
-2.219395583,-0.182084965,0.759209498,3.04E-07,2.147924351,5.634586051,,60.41017072,,2.794572784,53.3221133,4.188594504,0.08976642,0.01512371,0
-2.219706834,-0.182483773,0.759690627,3.04E-07,2.148007254,5.6342748,,43.91454016,,1.428510885,39.64612865,2.748049573,0.083983535,0.007867512,0
-2.219900067,-0.182730238,0.759987894,3.04E-07,2.148057744,5.634081567,,32.22945938,,0.642159589,29.80207378,1.702923095,0.078679871,0.003623048,0
-2.2199998,-0.182856151,0.760139675,3.04E-07,2.148082677,5.633981834,,24.36540814,,0.240951724,23.06073898,0.988318542,0.073991488,0.001407409,0
-2.220030551,-0.182893302,0.760184347,3.04E-07,2.14808891,5.633951083,,19.42819588,,0.068622342,18.74860718,0.540508733,0.070034521,0.0004231,0
-2.220016838,-0.18287348,0.760160287,3.04E-07,2.1480833,5.633964796,,16.63574867,,0.01209941,16.25985181,0.296803233,0.066911978,8.22E-05,0
-2.219983178,-0.182828475,0.76010587,3.04E-07,2.148072704,5.633998456,,15.31950864,,0.000724353,15.05868099,0.195375092,0.064721988,6.22E-06,0
-2.219954089,-0.182790078,0.760059473,3.04E-07,2.148063977,5.634027545,,14.91055863,,9.59E-33,14.67194289,0.175048242,0.0635675,1.50E-12,0
-2.219954089,-0.182790078,0.760059473,3.04E-07,2.148063977,5.634027545,,14.91055863,,9.59E-33,14.67194289,0.175048242,0.0635675,1.50E-12,0
-2.219954089,-0.182790078,0.760059473,3.04E-07,2.148063977,5.634027545,,14.91055863,,9.59E-33,14.67194289,0.175048242,0.0635675,1.50E-12,0
-2.219954089,-0.182790078,0.760059473,3.04E-07,2.148063977,5.634027545,,14.91055863,,9.59E-33,14.67194289,0.175048242,0.0635675,1.50E-12,0
-2.219954089,-0.182790078,0.760059473,3.04E-07,2.148063977,5.634027545,,14.91055863,,9.59E-33,14.67194289,0.175048242,0.0635675,1.50E-12,0
-2.219954089,-0.182790078,0.760059473,3.04E-07,2.148063977,5.634027545,,14.91055863,,9.59E-33,14.67194289,0.175048242,0.0635675,1.50E-12,0
-2.219954089,-0.182790078,0.760059473,3.04E-07,2.148063977,5.634027545,,14.91055863,,9.59E-33,14.67194289,0.175048242,0.0635675,1.50E-12,0
-2.219954089,-0.182790078,0.760059473,3.04E-07,2.148063977,5.634027545,,14.91055863,,9.59E-33,14.67194289,0.175048242,0.0635675,1.50E-12,0
-2.219954089,-0.182790078,0.760059473,3.04E-07,2.148063977,5.634027545,,14.91055863,,9.59E-33,14.67194289,0.175048242,0.0635675,1.50E-12,0
-2.219954089,-0.182790078,0.760059473,3.04E-07,2.148063977,5.634027545,,14.91055863,,9.59E-33,14.67194289,0.175048242,0.0635675,1.50E-12,0
-2.219954089,-0.182790078,0.760059473,3.04E-07,2.148063977,5.634027545,,14.91055863,,9.59E-33,14.67194289,0.175048242,0.0635675,1.50E-12,0
-2.219954089,-0.182790078,0.760059473,3.04E-07,2.148063977,5.634027545,,14.91055863,,9.59E-33,14.67194289,0.175048242,0.0635675,1.50E-12,0
-2.219954089,-0.182790078,0.760059473,3.04E-07,2.148063977,5.634027545,,14.91055863,,9.59E-33,14.67194289,0.175048242,0.0635675,1.50E-12,0
-2.219954089,-0.182790078,0.760059473,3.04E-07,2.148063977,5.634027545,,14.91055863,,9.59E-33,14.67194289,0.175048242,0.0635675,1.50E-12,0
-2.219954089,-0.182790078,0.760059473,3.04E-07,2.148063977,5.634027545,,14.91055863,,9.59E-33,14.67194289,0.175048242,0.0635675,1.50E-12,0
-2.219954089,-0.182790078,0.760059473,3.04E-07,2.148063977,5.634027545,,14.91055863,,9.59E-33,14.67194289,0.175048242,0.0635675,1.50E-12,0
-2.219954089,-0.182790078,0.760059473,3.04E-07,2.148063977,5.634027545,,14.91055863,,9.59E-33,14.67194289,0.175048242,0.0635675,1.50E-12,0
-2.219954089,-0.182790078,0.760059473,3.04E-07,2.148063977,5.634027545,,14.91055863,,9.59E-33,14.67194289,0.175048242,0.0635675,1.50E-12,0
-2.219954089,-0.182790078,0.760059473,3.04E-07,2.148063977,5.634027545,,14.91055863,,9.59E-33,14.67194289,0.175048242,0.0635675,1.50E-12,0
-2.219954089,-0.182790078,0.760059473,3.04E-07,2.148063977,5.634027545,,14.91055863,,9.59E-33,14.67194289,0.175048242,0.0635675,1.50E-12,0
-2.219954089,-0.182790078,0.760059473,3.04E-07,2.148063977,5.634027545,,14.91055863,,9.59E-33,14.67194289,0.175048242,0.0635675,1.50E-12,0
-2.219954089,-0.182790078,0.760059473,3.04E-07,2.148063977,5.634027545,,14.91055863,,9.59E-33,14.67194289,0.175048242,0.0635675,1.50E-12,0
-2.219954089,-0.182790078,0.760059473,3.04E-07,2.148063977,5.634027545,,14.91055863,,9.59E-33,14.67194289,0.175048242,0.0635675,1.50E-12,0
-2.219954089,-0.182790078,0.760059473,3.04E-07,2.148063977,5.634027545,,14.91055863,,9.59E-33,14.67194289,0.175048242,0.0635675,1.50E-12,0
-2.219954089,-0.182790078,0.760059473,3.04E-07,2.148063977,5.634027545,,14.91055863,,9.59E-33,14.67194289,0.175048242,0.0635675,1.50E-12,0
-2.219954089,-0.182790078,0.760059473,3.04E-07,2.148063977,5.634027545,,14.91055863,,9.59E-33,14.67194289,0.175048242,0.0635675,1.50E-12,0
-2.219954089,-0.182790078,0.760059473,3.04E-07,2.148063977,5.634027545,,14.91055863,,9.59E-33,14.67194289,0.175048242,0.0635675,1.50E-12,0
-2.219954089,-0.182790078,0.760059473,3.04E-07,2.148063977,5.634027545,,14.91055863,,9.59E-33,14.67194289,0.175048242,0.0635675,1.50E-12,0
-2.219954089,-0.182790078,0.760059473,3.04E-07,2.148063977,5.634027545,,14.91055863,,9.59E-33,14.67194289,0.175048242,0.0635675,1.50E-12,0
-2.219954089,-0.182790078,0.760059473,3.04E-07,2.148063977,5.634027545,,14.91055863,,9.59E-33,14.67194289,0.175048242,0.0635675,1.50E-12,0
-2.219954089,-0.182790078,0.760059473,3.04E-07,2.148063977,5.634027545,,14.91055863,,9.59E-33,14.67194289,0.175048242,0.0635675,1.50E-12,0
-2.219954089,-0.182790078,0.760059473,3.04E-07,2.148063977,5.634027545,,14.91055863,,9.59E-33,14.67194289,0.175048242,0.0635675,1.50E-12,0
-2.219954089,-0.182790078,0.760059473,3.04E-07,2.148063977,5.634027545,,14.91055863,,9.59E-33,14.67194289,0.175048242,0.0635675,1.50E-12,0
-2.219954089,-0.182790078,0.760059473,3.04E-07,2.148063977,5.634027545,,14.91055863,,9.59E-33,14.67194289,0.175048242,0.0635675,1.50E-12,0
-2.219954089,-0.182790078,0.760059473,3.04E-07,2.148063977,5.634027545,,14.91055863,,9.59E-33,14.67194289,0.175048242,0.0635675,1.50E-12,0
-2.219954089,-0.182790078,0.760059473,3.04E-07,2.148063977,5.634027545,,14.91055863,,9.59E-33,14.67194289,0.175048242,0.0635675,1.50E-12,0
-2.219954089,-0.182790078,0.760059473,3.04E-07,2.148063977,5.634027545,,14.91055863,,9.59E-33,14.67194289,0.175048242,0.0635675,1.50E-12,0
-2.219954089,-0.182790078,0.760059473,3.04E-07,2.148063977,5.634027545,,14.91055863,,9.59E-33,14.67194289,0.175048242,0.0635675,1.50E-12,0
-2.219954089,-0.182790078,0.760059473,3.04E-07,2.148063977,5.634027545,,14.91055863,,9.59E-33,14.67194289,0.175048242,0.0635675,1.50E-12,0
-2.219954089,-0.182790078,0.760059473,3.04E-07,2.148063977,5.634027545,,14.91055863,,9.59E-33,14.67194289,0.175048242,0.0635675,1.50E-12,0
-2.219954089,-0.182790078,0.760059473,3.04E-07,2.148063977,5.634027545,,14.91055863,,9.59E-33,14.67194289,0.175048242,0.0635675,1.50E-12,0
-2.219954089,-0.182790078,0.760059473,3.04E-07,2.148063977,5.634027545,,14.91055863,,9.59E-33,14.67194289,0.175048242,0.0635675,1.50E-12,0
-2.219954089,-0.182790078,0.760059473,3.04E-07,2.148063977,5.634027545,,14.91055863,,9.59E-33,14.67194289,0.175048242,0.0635675,1.50E-12,0
-2.219954089,-0.182790078,0.760059473,3.04E-07,2.148063977,5.634027545,,14.91055863,,9.59E-33,14.67194289,0.175048242,0.0635675,1.50E-12,0
-2.219954089,-0.182790078,0.760059473,3.04E-07,2.148063977,5.634027545,,14.91055863,,9.59E-33,14.67194289,0.175048242,0.0635675,1.50E-12,0
-2.219954089,-0.182790078,0.760059473,3.04E-07,2.148063977,5.634027545,,14.91055863,,9.59E-33,14.67194289,0.175048242,0.0635675,1.50E-12,0
-2.219954089,-0.182790078,0.760059473,3.04E-07,2.148063977,5.634027545,,14.91055863,,9.59E-33,14.67194289,0.175048242,0.0635675,1.50E-12,0
-2.219954089,-0.182790078,0.760059473,3.04E-07,2.148063977,5.634027545,,14.91055863,,9.59E-33,14.67194289,0.175048242,0.0635675,1.50E-12,0
-2.219954089,-0.182790078,0.760059473,3.04E-07,2.148063977,5.634027545,,14.91055863,,9.59E-33,14.67194289,0.175048242,0.0635675,1.50E-12,0
-2.219954089,-0.182790078,0.760059473,3.04E-07,2.148063977,5.634027545,,14.91055863,,9.59E-33,14.67194289,0.175048242,0.0635675,1.50E-12,0
-2.219954089,-0.182790078,0.760059473,3.04E-07,2.148063977,5.634027545,,14.91055863,,9.59E-33,14.67194289,0.175048242,0.0635675,1.50E-12,0
-2.219954089,-0.182790078,0.760059473,3.04E-07,2.148063977,5.634027545,,14.91055863,,9.59E-33,14.67194289,0.175048242,0.0635675,1.50E-12,0
-2.219954089,-0.182790078,0.760059473,3.04E-07,2.148063977,5.634027545,,14.91055863,,9.59E-33,14.67194289,0.175048242,0.0635675,1.50E-12,0
-2.219954089,-0.182790078,0.760059473,3.04E-07,2.148063977,5.634027545,,14.91055863,,9.59E-33,14.67194289,0.175048242,0.0635675,1.50E-12,0
-2.219954089,-0.182790078,0.760059473,3.04E-07,2.148063977,5.634027545,,14.91055863,,9.59E-33,14.67194289,0.175048242,0.0635675,1.50E-12,0
-2.219954089,-0.182790078,0.760059473,3.04E-07,2.148063977,5.634027545,,14.91055863,,9.59E-33,14.67194289,0.175048242,0.0635675,1.50E-12,0
-2.219954089,-0.182790078,0.760059473,3.04E-07,2.148063977,5.634027545,,14.91055863,,9.59E-33,14.67194289,0.175048242,0.0635675,1.50E-12,0
-2.219954089,-0.182790078,0.760059473,3.04E-07,2.148063977,5.634027545,,14.91055863,,9.59E-33,14.67194289,0.175048242,0.0635675,1.50E-12,0
-2.219954089,-0.182790078,0.760059473,3.04E-07,2.148063977,5.634027545,,14.91055863,,9.59E-33,14.67194289,0.175048242,0.0635675,1.50E-12,0
-2.219954089,-0.182790078,0.760059473,3.04E-07,2.148063977,5.634027545,,14.91055863,,9.59E-33,14.67194289,0.175048242,0.0635675,1.50E-12,0
-2.219954089,-0.182790078,0.760059473,3.04E-07,2.148063977,5.634027545,,14.91055863,,9.59E-33,14.67194289,0.175048242,0.0635675,1.50E-12,0
-2.219954089,-0.182790078,0.760059473,3.04E-07,2.148063977,5.634027545,,14.91055863,,9.59E-33,14.67194289,0.175048242,0.0635675,1.50E-12,0
-2.219954089,-0.182790078,0.760059473,3.04E-07,2.148063977,5.634027545,,14.91055863,,9.59E-33,14.67194289,0.175048242,0.0635675,1.50E-12,0
-2.219954089,-0.182790078,0.760059473,3.04E-07,2.148063977,5.634027545,,14.91055863,,9.59E-33,14.67194289,0.175048242,0.0635675,1.50E-12,0
-2.219954089,-0.182790078,0.760059473,3.04E-07,2.148063977,5.634027545,,14.91055863,,9.59E-33,14.67194289,0.175048242,0.0635675,1.50E-12,0
-2.219954089,-0.182790078,0.760059473,3.04E-07,2.148063977,5.634027545,,14.91055863,,9.59E-33,14.67194289,0.175048242,0.0635675,1.50E-12,0
-2.219954089,-0.182790078,0.760059473,3.04E-07,2.148063977,5.634027545,,14.91055863,,9.59E-33,14.67194289,0.175048242,0.0635675,1.50E-12,0
-2.219954089,-0.182790078,0.760059473,3.04E-07,2.148063977,5.634027545,,14.91055863,,9.59E-33,14.67194289,0.175048242,0.0635675,1.50E-12,0
-2.219954089,-0.182790078,0.760059473,3.04E-07,2.148063977,5.634027545,,14.91055863,,9.59E-33,14.67194289,0.175048242,0.0635675,1.50E-12,0
-2.219954089,-0.182790078,0.760059473,3.04E-07,2.148063977,5.634027545,,14.91055863,,9.59E-33,14.67194289,0.175048242,0.0635675,1.50E-12,0
-2.219954089,-0.182790078,0.760059473,3.04E-07,2.148063977,5.634027545,,14.91055863,,9.59E-33,14.67194289,0.175048242,0.0635675,1.50E-12,0
-2.219954089,-0.182790078,0.760059473,3.04E-07,2.148063977,5.634027545,,14.91055863,,9.59E-33,14.67194289,0.175048242,0.0635675,1.50E-12,0
-2.219954089,-0.182790078,0.760059473,3.04E-07,2.148063977,5.634027545,,14.91055863,,9.59E-33,14.67194289,0.175048242,0.0635675,1.50E-12,0
-2.219954089,-0.182790078,0.760059473,3.04E-07,2.148063977,5.634027545,,14.91055863,,9.59E-33,14.67194289,0.175048242,0.0635675,1.50E-12,0
-2.219954089,-0.182790078,0.760059473,3.04E-07,2.148063977,5.634027545,,14.91055863,,9.59E-33,14.67194289,0.175048242,0.0635675,1.50E-12,0
-2.219954089,-0.182790078,0.760059473,3.04E-07,2.148063977,5.634027545,,14.91055863,,9.59E-33,14.67194289,0.175048242,0.0635675,1.50E-12,0
-2.219954089,-0.182790078,0.760059473,3.04E-07,2.148063977,5.634027545,,14.91055863,,9.59E-33,14.67194289,0.175048242,0.0635675,1.50E-12,0
-2.220007903,-0.182858437,0.76014194,2.78E-07,2.148079976,5.633973731,,17.08234447,,0.00396117,16.59185278,0.422396611,0.064112092,2.18E-05,0
-2.220084573,-0.182955988,0.760259625,2.35E-07,2.148103039,5.633897061,,20.06837959,,0.033397572,19.23323213,0.735972149,0.065595535,0.000182204,0
-2.220153139,-0.183043566,0.76036528,1.81E-07,2.148124232,5.633828495,,22.5096379,,0.10863191,21.39724158,0.934723005,0.068446178,0.000595222,0
-2.220182644,-0.183082005,0.760411656,1.23E-07,2.148134621,5.63379899,,22.88090788,,0.188060525,21.78201559,0.836601621,0.073159629,0.00107052,0
-2.220142127,-0.183032138,0.760351504,6.87E-08,2.148125271,5.633839507,,19.22146414,,0.067422195,18.8164725,0.256605629,0.080341847,0.000621969,0
-2.220000631,-0.182854801,0.760137577,2.53E-08,2.148087248,5.633981003,,32.41947345,,0.884310231,30.08403825,1.354923049,0.090761382,0.005440537,0
-2.219727196,-0.182510825,0.759722625,0,2.148011617,5.634254438,,59.74548552,,3.553615013,52.58128324,3.485103873,0.105408995,0.020074398,0
-2.219290864,-0.181961046,0.7590594,0,2.147889444,5.63469077,,106.0930889,,9.720202572,89.49015157,6.703853944,0.125561649,0.053319116,0
-2.218505466,-0.180969699,0.757865594,0,2.147697458,5.635476168,,175.3012858,,21.00579149,142.9462519,11.08768953,0.148837983,0.112714919,0
-2.217266282,-0.17940763,0.75598762,0,2.147383298,5.636715352,,299.9603305,,46.77687761,235.4263845,17.31419855,0.197490522,0.245379248,0
-2.21534642,-0.177032237,0.753135752,0,2.146894606,5.638635214,,399.0003493,,64.86276588,309.2776799,24.33783985,0.194921124,0.32714253,0
-2.212780786,-0.173870747,0.74935118,0,2.146283741,5.641200848,,500.2305283,,84.8838385,383.370085,31.36644334,0.197337202,0.41282425,0
-2.209534473,-0.169929794,0.744649263,0,2.145515796,5.644447161,,580.334793,,99.87104243,441.6601368,38.14814006,0.191008891,0.464464812,0
-2.205624936,-0.165263132,0.739102956,0,2.144643132,5.648356698,,647.8819758,,114.3090177,488.2187285,44.67152538,0.186641539,0.496062746,0
-2.20108708,-0.159932897,0.732800572,0,2.143665747,5.652894554,,591.8678053,,86.02090432,456.6994496,48.65399803,0.139174578,0.354278816,0
-2.196077985,-0.154190938,0.726048068,0,2.142653456,5.657903649,,557.7588749,,69.83109717,436.2877112,51.25251961,0.11795616,0.269590739,0
-2.190719824,-0.148173741,0.719009853,0,2.141641165,5.66326181,,506.271668,,49.20822583,404.2512195,52.53587833,0.098435324,0.177908974,0
-2.185117317,-0.142011158,0.711843706,0,2.140628874,5.668864317,,439.7889705,,27.13767632,359.6926849,52.79637151,0.081793272,0.080444557,0
-2.179340277,-0.135840896,0.704715257,7.59E-08,2.139668943,5.674641357,,375.5585135,,2.360600321,321.8345562,51.28853913,0.065857546,0.008960306,0
-2.173528331,-0.129753711,0.697723992,7.59E-08,2.138761372,5.680453303,,359.5187739,,0.015469522,309.2213501,50.21606919,0.06448003,0.00140505,0
-2.167646571,-0.123758854,0.690877414,7.59E-08,2.137923614,5.686335063,,349.2646944,,0.201635242,299.8267893,49.1704774,0.064614411,0.001177991,0
-2.161729905,-0.117855278,0.684174477,7.59E-08,2.137120762,5.692251729,,337.0342122,,1.658066796,286.9972044,48.30931103,0.065511568,0.004118397,0
-2.155778332,-0.11205485,0.677632285,7.59E-08,2.136370271,5.698203302,,329.1855714,,0.185817079,281.9709081,46.96279175,0.064656956,0.001397513,0
-2.149756946,-0.106341515,0.671222563,7.59E-08,2.135672139,5.704224688,,319.881275,,0.378428254,273.4398738,45.99698832,0.064779479,0.001205189,0
-2.143700654,-0.10071405,0.664942345,7.59E-08,2.135026367,5.71028098,,310.7203977,,0.464401608,265.1328791,45.0578303,0.064853193,0.000433464,0
-2.137592001,-0.095171931,0.658792852,7.59E-08,2.134415502,5.716389633,,300.0538919,,1.884313352,253.8611923,44.24014839,0.065681785,0.002556021,0
-2.131430989,-0.089725981,0.652786651,7.59E-08,2.133856997,5.722550645,,292.7763755,,0.613013613,249.0265082,43.07129484,0.064955314,0.000603592,0
-2.12523507,-0.084362409,0.646902971,7.59E-08,2.133333398,5.728746564,,284.2939036,,0.440347199,241.602357,42.1853028,0.064883559,0.001013029,0
-2.118986792,-0.079079821,0.641138672,7.59E-08,2.132862159,5.734994842,,276.2852753,,0.801847557,234.0949868,41.3228142,0.065073278,0.00055351,0
-2.112686153,-0.073877867,0.635491659,7.59E-08,2.132408374,5.741295481,,266.6783237,,2.173484489,223.871434,40.56530089,0.065851993,0.002252372,0
-2.106333154,-0.068767718,0.629976594,7.59E-08,2.132006948,5.747648479,,260.0580073,,0.74996364,219.7410167,39.5011962,0.065056198,0.000774488,0
-2.099945249,-0.063735585,0.624572705,7.59E-08,2.131640429,5.754036385,,252.5050136,,0.794422333,212.9458326,38.69908349,0.065089318,0.000585861,0
-2.093504984,-0.058780769,0.619279296,7.59E-08,2.131291363,5.760476649,,245.1025154,,0.891602048,206.2365994,37.90879544,0.065146085,0.000372489,0
-2.08701236,-0.053903447,0.614094795,7.59E-08,2.130994657,5.766969274,,236.8464479,,2.500329914,197.1030151,37.17566681,0.065991919,0.001444188,0
-2.080467375,-0.049113914,0.609031246,7.59E-08,2.130715404,5.773514259,,230.4363236,,0.902795652,193.244869,36.22307427,0.065138117,0.000446488,0
-2.07387003,-0.044399954,0.60407294,7.59E-08,2.130471058,5.780111604,,223.8075047,,0.965582148,187.3004706,35.47589548,0.065174433,0.000382037,0
-2.067237779,-0.03976052,0.59921534,7.59E-08,2.130244165,5.786743855,,217.1697695,,1.175724197,181.1864136,34.7420282,0.065323885,0.000279656,0
-2.060553168,-0.035195961,0.594458794,1.52E-07,2.130052179,5.793428466,,209.5535916,,2.590707176,172.8610183,34.03485841,0.066017472,0.000990265,0
-2.053833651,-0.030716748,0.589817266,1.52E-07,2.129895099,5.800147983,,204.0700018,,1.195386384,169.6306871,33.17833637,0.065274997,0.000316952,0
-2.04704432,-0.026310664,0.585271556,1.52E-07,2.129755473,5.806937314,,197.8001026,,1.159701548,164.0972343,32.4777122,0.065249724,0.000204797,0
-2.040220082,-0.02197736,0.580821315,1.52E-07,2.1296333,5.813761552,,191.803469,,1.274377628,158.6790334,31.78458607,0.065296981,0.000174912,0
-2.033343485,-0.017717012,0.576464973,1.52E-07,2.129546034,5.820638149,,185.1168811,,2.746301882,151.2028851,31.101213,0.065991225,0.000489945,0
-2.026414528,-0.013540072,0.572216475,1.52E-07,2.12947622,5.827567106,,179.9252917,,1.324869222,148.2141361,30.32085971,0.065301032,0.000125686,0
-2.019450664,-0.009434779,0.568058822,1.52E-07,2.12942386,5.83453097,,174.457519,,1.34666947,143.381285,29.66416975,0.065308161,8.66E-05,0
-2.012434441,-0.005400625,0.563991506,1.52E-07,2.129388954,5.841547193,,168.8888967,,1.405648983,138.4025726,29.01530393,0.065330043,4.12E-05,0
-2.005365857,-0.001438431,0.560013604,1.52E-07,2.129371501,5.848615777,,162.8856661,,2.838403581,131.6454461,28.33583121,0.065943207,4.19E-05,0
-1.998262367,0.002441855,0.556135064,1.52E-07,2.129371501,5.855719267,,158.1830237,,1.425933921,129.0566616,27.63508616,0.065319514,2.25E-05,0
-1.991106517,0.006251577,0.55234454,1.52E-07,2.129388954,5.862875117,,153.1524716,,1.42393915,124.6593192,27.00386278,0.065297088,5.34E-05,0
-1.983898307,0.009990945,0.548638334,1.52E-07,2.12942386,5.870083327,,148.2446251,,1.527672506,120.2667434,26.3848126,0.065329835,6.67E-05,0
-1.976655191,0.01365954,0.545016863,1.52E-07,2.12947622,5.877326443,,142.8424549,,2.914964332,114.1135573,25.74765864,0.065926138,0.00034855,0
-1.969359715,0.017247047,0.541492188,1.52E-07,2.12952858,5.884621919,,138.4523056,,1.478889662,111.8296702,25.07831379,0.065291536,0.000140505,0
-1.962011879,0.020764706,0.538049578,1.52E-07,2.129615847,5.891969755,,133.9160435,,1.485855821,107.8821156,24.48260256,0.065280405,0.000189156,0
-1.954629136,0.024212604,0.534687201,1.52E-07,2.129703113,5.899352498,,129.5046202,,1.54802976,103.9922732,23.89886637,0.065305482,0.000145363,0
-1.947169308,0.027608244,0.531389736,1.52E-07,2.129802015,5.907043582,,130.1423318,,11.92853861,95.2438543,22.90924174,0.058917791,0.001779329,0
-1.939713012,0.030916228,0.528189775,1.52E-07,2.129909852,5.914835854,,138.1742287,,32.99005345,83.50972884,21.61972696,0.049293497,0.005425977,0
-1.932340866,0.034101161,0.525119909,1.52E-07,2.130023921,5.922522159,,146.4228554,,55.64367558,70.59802194,20.13153452,0.03933861,0.010284776,0
-1.925133487,0.037127645,0.522212731,1.52E-07,2.130141523,5.929895344,,151.1778155,,74.48247627,58.11368599,18.53492902,0.031166276,0.015557911,0
-1.918171493,0.039960284,0.519500832,1.52E-07,2.130259956,5.936748255,,149.3596961,,85.05940958,47.34975528,16.90421539,0.026057303,0.020258584,0
-1.911535502,0.042563679,0.517016804,1.52E-07,2.130376519,5.942873737,,138.5688319,,84.01838556,39.2083671,15.29385198,0.024883636,0.02334359,0
-1.905306131,0.044902435,0.51479324,1.52E-07,2.130488511,5.948064638,,116.9301882,,68.9902686,34.15141911,13.73564285,0.028979428,0.023878227,0
-1.899563998,0.046941154,0.512862732,1.52E-07,2.130593231,5.952113801,,82.74007548,,38.25985325,32.18058874,12.23694949,0.041451798,0.021232199,0
-1.893884406,0.048730131,0.511178184,7.21E-07,2.130697951,5.953745684,,51.40974112,,5.195030712,34.75320418,11.37959836,0.065983157,0.015924713,0
-1.887993296,0.05034481,0.509667539,1.47E-06,2.130804541,5.952720927,,116.4915042,,64.82135047,40.49235883,11.06550214,0.103875288,0.008417427,0
-1.881616611,0.051860634,0.50825874,2.03E-06,2.13091487,5.948800169,,204.7732483,,144.5127315,48.86400617,11.24157293,0.153756919,0.001180814,0
-1.874480292,0.053353049,0.506879731,1.99E-06,2.13103081,5.941744052,,315.9801973,,244.2524136,59.62983464,11.87378643,0.21063586,0.013526718,0
-1.866310281,0.054897497,0.505458453,9.91E-07,2.13115423,5.931313217,,442.9453725,,357.3121288,72.41050198,12.92607447,0.268277397,0.028389867,0
-1.85683252,0.056569423,0.50392285,-1.37E-06,2.131286999,5.917268303,,569.6572657,,468.607856,86.34831177,14.34271922,0.314603024,0.043775638,0
-1.84577295,0.05844427,0.502200864,-5.46E-06,2.131430989,5.899369951,,670.623543,,554.331241,99.86493215,16.03354097,0.337233447,0.056595358,0
-1.832857514,0.060597483,0.500220439,-1.17E-05,2.131588069,5.877378803,,711.6336944,,582.8685613,110.5149238,17.86168571,0.325354857,0.063168718,0
-1.818528361,0.062968512,0.498029178,-2.19E-05,2.131745148,5.851687556,,753.1238417,,613.4961003,119.5523519,19.68594321,0.325474099,0.063972236,0
-1.802855304,0.065547062,0.495632143,-4.09E-05,2.131902228,5.821667893,,589.5551957,,453.8462733,114.7600712,20.64651361,0.250011386,0.052326218,0
-1.786222316,0.068264539,0.493089199,-6.80E-05,2.132024401,5.787773599,,503.7389781,,369.2012993,112.8057677,21.46728687,0.223234704,0.041389428,0
-1.768838837,0.071084468,0.490431586,-0.000104441,2.132111668,5.749934861,,423.638114,,291.4677392,109.8765021,22.05769853,0.206437898,0.029736191,0
-1.750861946,0.073975606,0.48768531,-0.000151894,2.132164027,5.707924786,,456.7613189,,320.9634737,112.6380886,22.91351552,0.233055106,0.013185976,0
-1.732232301,0.07693708,0.484842518,-0.000213215,2.132164027,5.660835803,,422.29901,,285.1401196,113.1634213,23.74091732,0.238503053,0.016048705,0
-1.713045897,0.079960514,0.481916822,-0.000286822,2.132111668,5.609226417,,430.9656448,,290.6921616,115.3696989,24.61322925,0.257516313,0.033038777,0
-1.693297496,0.083045733,0.478906653,-0.000372719,2.132006948,5.553114081,,445.3269606,,301.598193,117.8814376,25.51514786,0.278784719,0.05339742,0
-1.672976628,0.086193783,0.475810963,-0.000471108,2.131867321,5.49241153,,487.0005114,,338.4082271,121.6018546,26.60202253,0.311954395,0.076452804,0
-1.652032677,0.089408854,0.472627307,-0.000583722,2.131675335,5.426542804,,323.1661709,,182.9409045,113.444287,26.41661098,0.267824759,0.096543611,0
-1.630718716,0.092653421,0.469374014,-0.000708623,2.131430989,5.356467834,,149.9627406,,19.17187741,103.4875058,26.9724776,0.226429021,0.104450731,0
-1.609289563,0.095884898,0.466118102,-0.000845813,2.131134283,5.282570594,,266.449503,,150.9025035,89.52880697,25.73003413,0.177687693,0.110470705,0
-1.588010509,0.099057732,0.462884181,-0.000995571,2.130785217,5.205200148,,466.0379924,,371.1490618,70.32155962,24.35661271,0.11355321,0.097205093,0
-1.567242836,0.10210787,0.45973107,-0.001159478,2.130348885,5.124443763,,573.230794,,493.1668436,56.90943154,22.98692972,0.077798105,0.089791045,0
-1.547209947,0.1050018,0.456692277,-0.001335673,2.129860193,5.041209011,,679.974587,,617.1666379,41.57515057,21.1353221,0.034327135,0.063149275,0
-1.528173641,0.10769624,0.453807597,-0.001524213,2.129301687,4.955879864,,782.9388167,,738.1183997,25.85105002,18.93393557,0.016253836,0.019177635,0
-1.510432369,0.11014162,0.451123106,-0.001724788,2.128655916,4.868997374,,878.5750296,,851.9116793,10.18175323,16.34349544,0.090090062,0.048011523,0
-1.49434567,0.112277554,0.448695702,-0.001937473,2.127957784,4.781120046,,635.9159348,,604.6570649,15.83646494,15.37609842,0.013921907,0.032384664,0
-1.479547023,0.11417368,0.446464473,-0.002159129,2.127189839,4.692596947,,502.5109245,,471.2875171,16.8228806,14.34257913,0.026491253,0.03145634,0
-1.465840952,0.115866475,0.444403414,-0.002388396,2.126369534,4.603515342,,394.3282613,,363.0865933,17.64279914,13.50315267,0.069601625,0.026114491,0
-1.453040707,0.117390496,0.442483202,-0.002623963,2.12549687,4.513997404,,318.4239926,,287.9315248,17.60859266,12.75613528,0.105234601,0.022505242,0
-1.441011898,0.118771226,0.440680103,-0.002864871,2.124606752,4.424078041,,194.4529309,,160.2939466,21.37923629,12.56547156,0.194806023,0.019470468,0
-1.429428148,0.120068879,0.438946118,-0.003108885,2.123681727,4.333949239,,125.0534537,,88.95620874,23.33871371,12.45797706,0.254753515,0.045800696,0
-1.41809398,0.121320105,0.437251578,-0.003354662,2.122756703,4.243698263,,67.23691246,,28.7738802,25.54161319,12.53612819,0.311490825,0.073800058,0
-1.406833116,0.122557893,0.435566986,-0.003600946,2.121831678,4.153394928,,45.51688775,,6.176647404,26.32066145,12.60195515,0.333929436,0.083694308,0
-1.395575742,0.123794808,0.433883267,-0.003847194,2.1208892,4.063109045,,43.95650966,,4.793039209,26.13451914,12.61081517,0.335141253,0.082994893,0
-1.384320114,0.125031722,0.432201293,-0.004093513,2.119964176,3.97280571,,43.6271195,,4.704469123,25.88666773,12.61930641,0.335164609,0.081511632,0
-1.37306274,0.126268637,0.430517574,-0.004339831,2.119039151,3.882502374,,43.38073928,,4.688923136,25.6475393,12.62912334,0.335057352,0.080096148,0
-1.361805366,0.127505552,0.428833855,-0.00458608,2.118096674,3.792216492,,43.20237302,,4.757236294,25.39586958,12.63609705,0.334813563,0.078356533,0
-1.350549738,0.128742467,0.427150136,-0.004832398,2.117171649,3.701913157,,42.95216431,,4.743591342,25.1524569,12.64399221,0.334766074,0.077357776,0
-1.339292364,0.129979382,0.425466417,-0.005078734,2.116246625,3.611609821,,42.62546122,,4.655821087,24.90688416,12.65236299,0.334726267,0.075666711,0
-1.32803499,0.131216297,0.423784443,-0.005325052,2.115304147,3.521323939,,42.37012405,,4.645277374,24.65645999,12.65967376,0.334582247,0.074130684,0
-1.316779362,0.132453211,0.422100724,-0.0055713,2.114379122,3.431020603,,42.2026803,,4.706849638,24.41912478,12.66960846,0.334381236,0.072716197,0
-1.305521988,0.133690126,0.420417005,-0.005817619,2.113436645,3.340717268,,41.94683289,,4.696318292,24.17012518,12.6748454,0.334292379,0.071251643,0
-1.294264615,0.134927041,0.418733285,-0.006063937,2.11251162,3.250431386,,41.58759634,,4.569431558,23.92832266,12.68579932,0.334302405,0.069740393,0
-1.283008986,0.136163956,0.417051312,-0.006310203,2.111586596,3.16012805,,41.44653802,,4.673887531,23.67816474,12.69219409,0.334024586,0.068267072,0
-1.271751613,0.137400871,0.415367593,-0.006556504,2.110644118,3.069824715,,41.1620811,,4.621408973,23.43938879,12.70047016,0.33398942,0.06682376,0
-1.260494239,0.138637786,0.413683873,-0.006802822,2.109719093,2.979538833,,40.94967096,,4.647568951,23.19433522,12.70855593,0.333850343,0.065360514,0
-1.249238611,0.139874701,0.412000154,-0.007049141,2.108794069,2.889235497,,40.58452264,,4.523686726,22.94709006,12.7162553,0.333820811,0.063669747,0
-1.237981237,0.141111615,0.41031818,-0.007295406,2.107851591,2.798932162,,40.45353874,,4.623062422,22.70881645,12.72525219,0.333572728,0.062834945,0
-1.226723863,0.14234853,0.408634461,-0.007541707,2.106926566,2.708646279,,40.16512233,,4.573989238,22.4636225,12.73348411,0.333531798,0.060494682,0
-1.215468235,0.143585445,0.406950742,-0.007788026,2.105984089,2.618342944,,39.95140235,,4.599469215,22.21976073,12.73910641,0.333355625,0.05971037,0
-1.204210861,0.14482236,0.405267023,-0.008034309,2.105059064,2.528057062,,39.59557426,,4.474661313,21.9795068,12.75008683,0.333343443,0.057975866,0
-1.192953488,0.146059275,0.403585049,-0.008280592,2.10413404,2.437753726,,39.45464568,,4.57719437,21.7313255,12.75650783,0.333113968,0.056504015,0
-1.181697859,0.14729619,0.40190133,-0.008526928,2.103191562,2.347450391,,39.17214339,,4.524874908,21.49437395,12.76476515,0.333067255,0.055062139,0
-1.170440486,0.148533104,0.400217611,-0.008773247,2.102266537,2.257164508,,39.0419234,,4.63513448,21.24783316,12.77254872,0.332814358,0.053592683,0
-1.159183112,0.149770019,0.398533892,-0.00901953,2.101341513,2.166861173,,38.51950462,,4.342207239,21.01177038,12.78064948,0.3329296,0.051947916,0
-1.147927484,0.151006934,0.396850173,-0.009265813,2.100399035,2.076557837,,38.46594807,,4.528274921,20.76458011,12.78942402,0.332646767,0.051022254,0
-1.13667011,0.152243849,0.395168199,-0.009512132,2.099474011,1.986271955,,38.18106086,,4.476782323,20.52596309,12.79695961,0.332588393,0.048767449,0
-1.125412736,0.153480764,0.39348448,-0.00975845,2.098548986,1.89596862,,37.93590091,,4.463924886,20.28672983,12.80480343,0.332459256,0.047983508,0
-1.114157108,0.154717679,0.391800761,-0.010004733,2.097606508,1.805665284,,37.68864912,,4.453159499,20.0439193,12.81302599,0.332303891,0.046240448,0
-1.102899734,0.155954593,0.390117042,-0.010251017,2.096681484,1.715374166,,37.44078787,,4.442014287,19.80143641,12.8203559,0.332184977,0.044796292,0
-1.091585056,0.157212918,0.388470673,-0.010627188,2.095814637,1.624884226,,36.10169643,,2.903160501,20.01546203,12.71251926,0.424647561,0.04590708,0
-1.080243345,0.158481055,0.386841065,-0.011062106,2.094973139,1.534293659,,35.3451793,,2.013242831,20.23053898,12.50603093,0.551562044,0.043804513,0
-1.068904876,0.15974741,0.38520763,-0.011484633,2.094124161,1.443700661,,36.87226989,,3.974402234,19.97978083,12.22613749,0.657715379,0.034233954,0
-1.057599921,0.161000386,0.383549779,-0.011823628,2.093234874,1.353203428,,42.38863565,,10.98399221,18.80167882,11.90079823,0.689081899,0.013084479,0
-1.046358754,0.162228387,0.381846924,-0.012007953,2.09227245,1.262900155,,53.57429939,,25.12155948,16.30311581,11.53594164,0.584887069,0.028795378,0
-1.035211648,0.163419818,0.380078475,-0.011966466,2.091204059,1.172889037,,71.8726647,,48.1536981,12.26847951,11.07202483,0.263340623,0.115121634,0
-1.024188876,0.164563081,0.378223844,-0.011628029,2.089996873,1.083268271,,99.26778802,,81.25665453,6.814486326,10.32204245,0.578034928,0.296569791,0
-1.01332071,0.165646581,0.376262443,-0.010921503,2.088618063,0.994136051,,136.6141311,,124.6553455,0.589860795,8.891336255,1.810317037,0.667271532,0
-1.002880151,0.16656253,0.373993865,-0.009173974,2.086768014,0.906277922,,201.9784175,,184.744676,5.974042318,5.567163355,4.190831002,1.501704822,0
-0.993113288,0.167213014,0.371243749,-0.005777476,2.084167473,0.820437393,,211.5643667,,191.7738707,5.572941442,4.616563708,7.335213511,2.265777347,0
-0.984107389,0.167564524,0.367949615,-0.000523808,2.080694268,0.736869284,,228.5070128,,208.5874324,3.562916636,1.189712241,11.63675962,3.530191886,0
-0.976012552,0.167557542,0.36400168,0.006957231,2.076208772,0.656025633,,253.5068768,,219.6461195,6.386907302,4.569598058,17.53763426,5.366617659,0
-0.969006801,0.167122257,0.359276027,0.01709735,2.070501545,0.578437021,,312.6859197,,235.636151,24.81241581,17.15975043,26.43207675,8.645525759,0
-0.963392077,0.166143826,0.353568102,0.030601905,2.063240975,0.505089559,,260.4190389,,171.2891192,34.28753275,13.16480975,32.59134609,9.08623116,0
-0.959058424,0.164674957,0.346982276,0.047121446,2.054601595,0.43581395,,240.6033523,,128.5366789,46.75461317,14.52456236,40.35596141,10.43153654,0
-0.956012824,0.162714952,0.339522739,0.066656044,2.044565952,0.370653828,,225.2058529,,86.11098524,60.71189704,17.05011981,49.24493367,12.08791718,0
-0.954279712,0.160253688,0.331169942,0.089268181,2.033134046,0.309698204,,234.8473174,,41.8458769,87.46299579,28.20447685,61.62692469,15.70704317,0
-0.954023149,0.157229731,0.321816025,0.115335371,2.020113889,0.253460205,,196.9420972,,15.12619693,82.01897529,15.76854962,69.03178191,14.99659344,0
-0.955051148,0.153714812,0.31158473,0.144417269,2.005714923,0.201337692,,263.9926798,,61.93322892,90.97337677,14.64575491,79.56198009,16.87833909,0
-0.9573672,0.149708758,0.300479724,0.176513874,1.989919693,0.153334331,,341.3951736,,113.4429264,102.0640692,14.78914878,91.42751579,19.67151346,0
-0.960995739,0.145201271,0.288481632,0.21168924,1.9727282,0.109533199,,483.1671791,,190.2851126,132.7556231,26.12449766,108.1058857,25.89605999,0
-0.966100828,0.140131264,0.275482246,0.250318612,1.953948457,0.070449866,,482.1467808,,225.0546554,109.7064042,4.664354488,116.436466,26.28490065,0
-0.972490478,0.134570121,0.261605656,0.291963913,1.933772451,0.035483591,,556.7989998,,283.6898996,111.3916239,1.299928236,129.1982922,31.21925574,0
-0.980168181,0.128518018,0.246855181,0.336623398,1.912235088,0.00463453,,657.1576983,,354.0310097,115.8082229,5.972569982,143.1312257,38.21467003,0
-0.989158372,0.121964655,0.231213191,0.384359899,1.889266555,-0.02202239,,817.538136,,462.1029516,141.1630582,0.854567541,163.086822,50.33073664,0
-0.999576243,0.114858024,0.214572873,0.435513754,1.864744679,-0.044260852,,775.8873377,,441.5056322,73.92763406,42.33664606,165.9041012,52.21332415,0
-1.01111636,0.107310347,0.197130925,0.489407776,1.838948713,-0.06314322,,778.6805916,,450.1985387,29.1225496,71.81759951,169.3374211,58.20448275,0
-1.02362688,0.099380793,0.178992241,0.5456737,1.812070643,-0.079122407,,805.031209,,452.288026,17.29376703,100.0775516,170.434543,64.93732131,0
-1.036969922,0.091123466,0.160259797,0.603976424,1.784250094,-0.092611359,,886.8607627,,463.9583997,56.36947553,122.1611524,170.9364731,73.43526185,0
-1.051051238,0.082575716,0.140997471,0.664082072,1.755591788,-0.103892818,,924.6344664,,385.9892111,140.7918895,163.8920306,159.529504,74.43183113,0
-1.065605539,0.073841739,0.121396027,0.725344874,1.726411628,-0.113759164,,956.7137813,,343.4524737,196.8499642,187.7310418,150.8776951,77.80260655,0
-1.08048098,0.06498175,0.101565771,0.787391329,1.69686844,-0.122662787,,965.2078659,,274.5834444,263.2797101,214.0536078,136.2682541,77.02284945,0
-1.095497793,0.056072367,0.08165296,0.849729254,1.667192607,-0.131038971,,942.8442099,,161.2194914,352.3467062,249.6109901,111.3662373,68.30078493,0
-1.110416867,0.04722826,0.061892342,0.911599431,1.637741921,-0.139232419,,918.9058861,,98.3955095,401.2323203,263.1581792,94.31197014,61.80790704,0
-1.125086796,0.038533794,0.042491066,0.972427791,1.608780364,-0.147256309,,879.3509535,,34.05242551,442.6779927,272.1136727,78.07564059,52.43122191,0
-1.139425611,0.030036463,0.02354153,1.031879316,1.580470999,-0.155083568,,885.1392419,,29.08678345,475.3674034,276.5426908,63.32565638,40.81670794,0
-1.153351344,0.021783762,0.005136134,1.089618984,1.552976889,-0.162687126,,941.4844095,,88.28202275,498.3580896,276.6147682,50.39821713,27.83131187,0
-1.166782026,0.013823188,-0.012632724,1.145311775,1.526461099,-0.170039912,,978.2826639,,140.8896635,511.0735774,272.5106753,39.36061546,14.44813214,0
-1.17963569,0.006202236,-0.029672645,1.19862267,1.501086692,-0.177114853,,994.043369,,184.6337438,513.3016771,264.3794552,30.09759364,1.630899282,0
-1.191830368,-0.001031599,-0.045891229,1.249216649,1.477016732,-0.183884879,,1007.53919,,217.8213414,505.195372,252.3384296,22.39940121,9.784645644,0
-1.203284092,-0.007830821,-0.061196078,1.29675869,1.454414282,-0.190322919,,998.4337233,,239.4824424,487.2683713,236.4936008,16.0346741,19.15463465,0
-1.213914892,-0.014147936,-0.075494793,1.340913775,1.433442405,-0.196401901,,963.5779271,,249.426717,460.3754007,216.9500041,10.79840306,26.0274023,0
-1.223803928,-0.020041267,-0.089048095,1.382063403,1.413952314,-0.202337766,,971.5997423,,282.3659583,446.618592,204.8776011,1.917318927,35.82027192,0
-1.232865677,-0.025470812,-0.101878708,1.41989865,1.396120285,-0.208231742,,836.7983583,,233.0268698,387.6361127,177.5919152,6.74350184,31.79995866,0
-1.24120486,-0.030501898,-0.114169666,1.454859341,1.379747351,-0.214195532,,785.2068745,,224.7150295,358.0415826,165.0079198,4.184702172,33.25764047,0
-1.248819732,-0.035142204,-0.125996017,1.486969908,1.364840494,-0.220312911,,748.0392038,,219.09518,334.0172863,159.0327232,1.347127782,34.5468866,0
-1.255691093,-0.039388765,-0.137379927,1.516167521,1.35143811,-0.226632749,,754.2258728,,229.1225329,320.5611746,160.5030943,6.244625108,37.79444589,0
-1.261736914,-0.043203008,-0.148268338,1.542124058,1.339714734,-0.233181224,,642.12793,,180.1627288,276.543999,150.9410671,3.313726583,31.16640859,0
-1.267058422,-0.046645146,-0.158717275,1.565240944,1.329464415,-0.239928667,,592.3539584,,161.6245188,251.3530514,147.3915301,3.129404532,28.85545351,0
-1.27165562,-0.049722685,-0.168719233,1.585518179,1.320687154,-0.246875077,,545.6386506,,145.0023176,228.1813581,144.3848763,1.670770227,26.39932825,0
-1.275511052,-0.052435276,-0.178253618,1.60288246,1.313423094,-0.254025691,,514.6348867,,134.4398736,209.3800295,143.4365535,2.96074415,24.41768593,0
-1.278542689,-0.054754644,-0.187257946,1.617012645,1.307841531,-0.261404943,,408.6829393,,88.73771334,169.4965487,130.1597292,3.669249947,16.61969805,0
-1.280884921,-0.056760376,-0.195818437,1.628442807,1.303670194,-0.268986654,,340.6588894,,60.05543317,142.1163295,121.1782281,5.913430775,11.39546788,0
-1.282619778,-0.058504309,-0.203972266,1.637488848,1.300748513,-0.276746388,,286.9197921,,38.15826333,120.4529675,114.0834825,7.025605534,7.199473274,0
-1.283825801,-0.060035661,-0.211740029,1.644454457,1.298914172,-0.284647493,,245.8557189,,22.78445473,104.155167,108.2890625,6.626885861,4.000148891,0
-1.284557093,-0.061395622,-0.219117186,1.649542092,1.298062451,-0.292644592,,203.1599214,,9.024786605,86.98586664,98.17084393,7.626046928,1.352377282,0
-1.284970737,-0.06265924,-0.226191006,1.65337309,1.297863484,-0.300678342,,180.8144603,,3.448118913,78.12285739,92.00256154,7.00265304,0.238269395,0
-1.285159232,-0.063871371,-0.232996917,1.656293026,1.298139246,-0.308705111,,166.0786792,,0.8457029,71.92344448,86.10783796,6.446124534,0.755569338,0
-1.285209847,-0.065075997,-0.239578205,1.658638748,1.298706478,-0.316688247,,151.7765617,,0.065071299,66.60412769,78.0492283,6.25268583,0.805448562,0
-1.285209847,-0.06633054,-0.246022309,1.660778522,1.299388901,-0.324646949,,146.8839001,,2.54E-05,66.73882444,73.09817346,6.301651467,0.745225245,0
-1.285209847,-0.067653325,-0.252398172,1.662909569,1.300088778,-0.33260565,,149.4860607,,2.82E-05,70.10797928,72.33292691,6.2659763,0.779150061,0
-1.285209847,-0.069045051,-0.258708584,1.66503538,1.300804363,-0.340562606,,152.0330924,,3.42E-05,73.45521953,71.53767322,6.225644472,0.814520937,0
-1.285209847,-0.070507462,-0.264951801,1.667154209,1.301537402,-0.348521308,,154.3213738,,5.33E-05,76.53220106,70.75030736,6.190252383,0.848559671,0
-1.285209847,-0.072048588,-0.271119795,1.669269549,1.302287893,-0.356480009,,158.170121,,3.66E-05,81.16017682,69.97095961,6.147471992,0.891475965,0
-1.285208101,-0.073659003,-0.27722199,1.671377906,1.303054093,-0.36443871,,161.1238111,,2.72E-05,84.82063893,69.26473651,6.108441897,0.929966602,0
-1.285208101,-0.075338359,-0.283258735,1.673481028,1.303836,-0.372397412,,163.8612228,,3.33E-05,88.34096998,68.4832433,6.068458417,0.968517791,0
-1.285208101,-0.077088924,-0.289229506,1.675577168,1.304635361,-0.380357859,,166.2103193,,4.66E-05,91.50852639,67.66736733,6.029861563,1.004517404,0
-1.285208101,-0.078918553,-0.295124705,1.677668073,1.305452175,-0.388320051,,170.4553853,,2.65E-05,96.53557715,66.88336771,5.984659022,1.051754961,0
-1.285208101,-0.080817471,-0.30095585,1.679753741,1.306284697,-0.396282243,,173.6030229,,2.63E-05,100.389726,66.17534582,5.94489319,1.093031617,0
-1.285208101,-0.082786028,-0.306720847,1.681832428,1.307132927,-0.404244435,,176.5384389,,3.23E-05,104.1330658,65.36976191,5.901978925,1.133599869,0
-1.285208101,-0.08482562,-0.312420045,1.683904134,1.307996865,-0.412208372,,179.0259424,,4.49E-05,107.4350855,64.55551934,5.862107592,1.173185107,0
-1.285208101,-0.086944973,-0.318042972,1.685970604,1.308880002,-0.420174055,,183.655835,,2.98E-05,112.8636183,63.75463809,5.814274086,1.223274756,0
-1.285208101,-0.089133965,-0.323603242,1.688030093,1.309778847,-0.428141483,,187.0714125,,3.36E-05,116.9973339,63.0336854,5.773361821,1.266997843,0
-1.285208101,-0.09139277,-0.329097189,1.6900826,1.310693399,-0.436108911,,190.2230719,,3.09E-05,120.9581409,62.22578126,5.728327735,1.310791111,0
-1.285208101,-0.093723308,-0.33452464,1.692128126,1.31162366,-0.444078084,,192.9032973,,4.29E-05,124.4780423,61.3869307,5.685684559,1.352596829,0
-1.285206356,-0.096133433,-0.339877739,1.694168416,1.312571373,-0.452049003,,197.9064703,,2.44E-05,130.2756081,60.58844651,5.636798753,1.405592606,0
-1.285206356,-0.098613721,-0.345164167,1.696199979,1.313534795,-0.460019922,,201.6465211,,2.37E-05,134.7547674,59.84587253,5.593239165,1.452618321,0
-1.285206356,-0.101163996,-0.350387588,1.698224561,1.314513925,-0.467992586,,205.0535195,,2.93E-05,138.9763763,59.03180172,5.54683375,1.498478455,0
-1.285206356,-0.103786179,-0.355544338,1.700242161,1.315510508,-0.47596525,,207.9430862,,4.57E-05,142.7044931,58.19386135,5.501795723,1.542890338,0
-1.285206356,-0.106488472,-0.360624468,1.702251035,1.316522799,-0.483941404,,213.3750795,,3.12E-05,148.9563972,57.36874496,5.451962068,1.597944134,0
-1.285206356,-0.109261102,-0.365641242,1.704254673,1.317552543,-0.491917559,,217.4616552,,2.21E-05,153.7850896,56.62254719,5.405897828,1.648098411,0
-1.285206356,-0.112104069,-0.370592916,1.706249585,1.31859625,-0.499893714,,221.1630241,,2.71E-05,158.3234483,55.78707551,5.356386391,1.696086737,0
-1.285206356,-0.115019118,-0.375475998,1.708235769,1.319655665,-0.507871614,,224.2747311,,3.86E-05,162.2658867,54.95457665,5.311706691,1.742522358,0
-1.285206356,-0.118014277,-0.380284206,1.710214973,1.320734278,-0.515849514,,230.2529621,,2.11E-05,169.0631583,54.12986409,5.25868172,1.80123684,0
-1.285206356,-0.121079948,-0.385028883,1.712183704,1.321826854,-0.523829159,,234.5097525,,2.07E-05,174.127581,53.32065176,5.209494206,1.852004851,0
-1.285206356,-0.124216305,-0.389706366,1.7141472,1.322935138,-0.531808804,,238.7722519,,2.49E-05,179.1606321,52.54668139,5.161732834,1.903180655,0
-1.285204611,-0.127424743,-0.394315257,1.716100223,1.32405913,-0.539790195,,241.9334168,,3.61E-05,183.2292316,51.64206947,5.111503048,1.950576561,0
-1.285204611,-0.130713467,-0.398850844,1.71804452,1.325200576,-0.54776984,,248.5730358,,1.92E-05,190.6554094,50.84554683,5.059442443,2.012617938,0
-1.285204611,-0.134072877,-0.403319236,1.719981835,1.326355984,-0.555751231,,254.1232674,,1.69E-05,196.7851723,50.2528404,5.016303686,2.068934146,0
-1.285204611,-0.137499831,-0.407718338,1.721906933,1.327525354,-0.563723895,,266.2713327,,6.76E-06,207.7562136,51.32304994,5.038471545,2.153590817,0
-1.285204611,-0.140970593,-0.412016037,1.723807597,1.328701706,-0.571633727,,285.0470633,,1.25E-05,223.7002922,53.97936836,5.107731585,2.259658664,0
-1.285204611,-0.144435944,-0.416139377,1.725654155,1.329865841,-0.579358555,,297.7767222,,4.40E-05,236.0210195,54.3915125,5.043127317,2.32101889,0
-1.285204611,-0.14784335,-0.420062354,1.727429155,1.331003796,-0.586812856,,306.1090851,,9.33E-05,244.4837715,54.3396077,4.936422795,2.349189705,0
-1.285204611,-0.151142721,-0.423739064,1.729111653,1.332096372,-0.593905874,,311.4688479,,0.000171025,250.575222,53.76243964,4.782287937,2.348727268,0
-1.285204611,-0.15427611,-0.427126225,1.730673722,1.333129607,-0.600531144,,316.6083992,,0.000323221,256.4193178,53.25923525,4.602216386,2.327306501,0
-1.285204611,-0.157157998,-0.43014355,1.732082203,1.334072084,-0.606522859,,290.5230526,,0.000321517,237.5829432,46.6783979,4.118285665,2.143104347,0
-1.285204611,-0.159786289,-0.432829786,1.733344076,1.334929041,-0.611915926,,267.258802,,0.000335869,220.1778427,41.40564976,3.702900665,1.972073003,0
-1.285204611,-0.162150163,-0.435190519,1.734464577,1.335695241,-0.616712091,,243.9345465,,0.000365053,202.3279071,36.5042754,3.30465135,1.79734758,0
-1.285202865,-0.164233039,-0.43723011,1.735436726,1.336368938,-0.6208939,,222.363918,,0.000414081,185.6044578,32.20499257,2.93042847,1.623625068,0
-1.285202865,-0.165992855,-0.438919065,1.736248304,1.33693617,-0.62439154,,185.3324836,,0.000309827,155.8952702,25.62636156,2.437734294,1.372807706,0
-1.285202865,-0.167462073,-0.440310442,1.736920256,1.337409154,-0.627290532,,157.3275866,,0.000354371,133.2302713,20.87666653,2.050444265,1.169850104,0
-1.285202865,-0.16863476,-0.441408429,1.737450836,1.3377844,-0.629592621,,128.791312,,0.000350201,109.9227519,16.23588819,1.669714039,0.962607708,0
-1.285202865,-0.169504981,-0.442215469,1.737843535,1.338061907,-0.631292572,,98.84052379,,0.000311986,85.25334378,11.55254545,1.2860068,0.748315779,0
-1.285202865,-0.170077274,-0.442742733,1.738100098,1.338245167,-0.632407837,,67.07668578,,0.000154277,58.63951827,6.99270587,0.911117549,0.533189816,0
-1.285202865,-0.17046609,-0.443100773,1.73827434,1.338369667,-0.633165165,,45.86595825,,6.96E-05,40.75802097,4.07016035,0.653182789,0.384524519,0
-1.285202865,-0.170703411,-0.443319107,1.738380618,1.338445651,-0.633626991,,32.19923854,,2.78E-05,29.16425906,2.266316165,0.482804463,0.285831038,0
-1.285202865,-0.170821221,-0.443427255,1.73843329,1.338483362,-0.633855754,,23.88490855,,9.38E-06,22.06466512,1.218416641,0.377430909,0.224386495,0
-1.285202865,-0.170851502,-0.443454736,1.738446712,1.338493045,-0.63391389,,19.31448224,,2.45E-06,18.13092833,0.674064479,0.319346886,0.190140084,0
-1.285202865,-0.170826239,-0.443431068,1.738435243,1.338484942,-0.633863837,,17.30913451,,4.20E-07,16.34826409,0.489222774,0.296553671,0.17509356,0
-1.285202865,-0.170777413,-0.44338577,1.738413239,1.338469296,-0.63376803,,17.270431,,2.92E-08,16.29597095,0.502522389,0.296646981,0.175290658,0
-1.285202865,-0.170737009,-0.443348362,1.738395059,1.338456351,-0.633688909,,16.91829343,,6.42E-35,15.99571409,0.45804579,0.29188956,0.172643987,0
-1.285202865,-0.170737009,-0.443348362,1.738395059,1.338456351,-0.633688909,,16.91829343,,6.42E-35,15.99571409,0.45804579,0.29188956,0.172643987,0
-1.285202865,-0.170737009,-0.443348362,1.738395059,1.338456351,-0.633688909,,16.91829343,,6.42E-35,15.99571409,0.45804579,0.29188956,0.172643987,0
-1.285202865,-0.170737009,-0.443348362,1.738395059,1.338456351,-0.633688909,,16.91829343,,6.42E-35,15.99571409,0.45804579,0.29188956,0.172643987,0
-1.285202865,-0.170737009,-0.443348362,1.738395059,1.338456351,-0.633688909,,16.91829343,,6.42E-35,15.99571409,0.45804579,0.29188956,0.172643987,0
-1.285202865,-0.170737009,-0.443348362,1.738395059,1.338456351,-0.633688909,,16.91829343,,6.42E-35,15.99571409,0.45804579,0.29188956,0.172643987,0
-1.285202865,-0.170737009,-0.443348362,1.738395059,1.338456351,-0.633688909,,16.91829343,,6.42E-35,15.99571409,0.45804579,0.29188956,0.172643987,0
-1.285202865,-0.170737009,-0.443348362,1.738395059,1.338456351,-0.633688909,,16.91829343,,6.42E-35,15.99571409,0.45804579,0.29188956,0.172643987,0
-1.285202865,-0.170737009,-0.443348362,1.738395059,1.338456351,-0.633688909,,16.91829343,,6.42E-35,15.99571409,0.45804579,0.29188956,0.172643987,0
-1.285202865,-0.170737009,-0.443348362,1.738395059,1.338456351,-0.633688909,,16.91829343,,6.42E-35,15.99571409,0.45804579,0.29188956,0.172643987,0
-1.285202865,-0.170737009,-0.443348362,1.738395059,1.338456351,-0.633688909,,16.91829343,,6.42E-35,15.99571409,0.45804579,0.29188956,0.172643987,0
-1.285202865,-0.170737009,-0.443348362,1.738395059,1.338456351,-0.633688909,,16.91829343,,6.42E-35,15.99571409,0.45804579,0.29188956,0.172643987,0
-1.285202865,-0.170737009,-0.443348362,1.738395059,1.338456351,-0.633688909,,16.91829343,,6.42E-35,15.99571409,0.45804579,0.29188956,0.172643987,0
-1.285202865,-0.170737009,-0.443348362,1.738395059,1.338456351,-0.633688909,,16.91829343,,6.42E-35,15.99571409,0.45804579,0.29188956,0.172643987,0
-1.285202865,-0.170737009,-0.443348362,1.738395059,1.338456351,-0.633688909,,16.91829343,,6.42E-35,15.99571409,0.45804579,0.29188956,0.172643987,0
-1.285202865,-0.170737009,-0.443348362,1.738395059,1.338456351,-0.633688909,,16.91829343,,6.42E-35,15.99571409,0.45804579,0.29188956,0.172643987,0
-1.285202865,-0.170737009,-0.443348362,1.738395059,1.338456351,-0.633688909,,16.91829343,,6.42E-35,15.99571409,0.45804579,0.29188956,0.172643987,0
-1.285202865,-0.170737009,-0.443348362,1.738395059,1.338456351,-0.633688909,,16.91829343,,6.42E-35,15.99571409,0.45804579,0.29188956,0.172643987,0
-1.285202865,-0.170737009,-0.443348362,1.738395059,1.338456351,-0.633688909,,16.91829343,,6.42E-35,15.99571409,0.45804579,0.29188956,0.172643987,0
-1.285202865,-0.170737009,-0.443348362,1.738395059,1.338456351,-0.633688909,,16.91829343,,6.42E-35,15.99571409,0.45804579,0.29188956,0.172643987,0
-1.285202865,-0.170737009,-0.443348362,1.738395059,1.338456351,-0.633688909,,16.91829343,,6.42E-35,15.99571409,0.45804579,0.29188956,0.172643987,0
-1.285202865,-0.170737009,-0.443348362,1.738395059,1.338456351,-0.633688909,,16.91829343,,6.42E-35,15.99571409,0.45804579,0.29188956,0.172643987,0
-1.285202865,-0.170737009,-0.443348362,1.738395059,1.338456351,-0.633688909,,16.91829343,,6.42E-35,15.99571409,0.45804579,0.29188956,0.172643987,0
-1.285202865,-0.170737009,-0.443348362,1.738395059,1.338456351,-0.633688909,,16.91829343,,6.42E-35,15.99571409,0.45804579,0.29188956,0.172643987,0
-1.285202865,-0.170737009,-0.443348362,1.738395059,1.338456351,-0.633688909,,16.91829343,,6.42E-35,15.99571409,0.45804579,0.29188956,0.172643987,0
-1.285202865,-0.170737009,-0.443348362,1.738395059,1.338456351,-0.633688909,,16.91829343,,6.42E-35,15.99571409,0.45804579,0.29188956,0.172643987,0
-1.285202865,-0.170737009,-0.443348362,1.738395059,1.338456351,-0.633688909,,16.91829343,,6.42E-35,15.99571409,0.45804579,0.29188956,0.172643987,0
-1.285202865,-0.170737009,-0.443348362,1.738395059,1.338456351,-0.633688909,,16.91829343,,6.42E-35,15.99571409,0.45804579,0.29188956,0.172643987,0
-1.285202865,-0.170737009,-0.443348362,1.738395059,1.338456351,-0.633688909,,16.91829343,,6.42E-35,15.99571409,0.45804579,0.29188956,0.172643987,0
-1.285202865,-0.170737009,-0.443348362,1.738395059,1.338456351,-0.633688909,,16.91829343,,6.42E-35,15.99571409,0.45804579,0.29188956,0.172643987,0
-1.285202865,-0.170737009,-0.443348362,1.738395059,1.338456351,-0.633688909,,16.91829343,,6.42E-35,15.99571409,0.45804579,0.29188956,0.172643987,0
-1.285202865,-0.170737009,-0.443348362,1.738395059,1.338456351,-0.633688909,,16.91829343,,6.42E-35,15.99571409,0.45804579,0.29188956,0.172643987,0
-1.285202865,-0.170737009,-0.443348362,1.738395059,1.338456351,-0.633688909,,16.91829343,,6.42E-35,15.99571409,0.45804579,0.29188956,0.172643987,0
-1.285202865,-0.170737009,-0.443348362,1.738395059,1.338456351,-0.633688909,,16.91829343,,6.42E-35,15.99571409,0.45804579,0.29188956,0.172643987,0
-1.285202865,-0.170737009,-0.443348362,1.738395059,1.338456351,-0.633688909,,16.91829343,,6.42E-35,15.99571409,0.45804579,0.29188956,0.172643987,0
-1.285202865,-0.170737009,-0.443348362,1.738395059,1.338456351,-0.633688909,,16.91829343,,6.42E-35,15.99571409,0.45804579,0.29188956,0.172643987,0
-1.285202865,-0.170737009,-0.443348362,1.738395059,1.338456351,-0.633688909,,16.91829343,,6.42E-35,15.99571409,0.45804579,0.29188956,0.172643987,0
-1.285202865,-0.170737009,-0.443348362,1.738395059,1.338456351,-0.633688909,,16.91829343,,6.42E-35,15.99571409,0.45804579,0.29188956,0.172643987,0
-1.285202865,-0.170737009,-0.443348362,1.738395059,1.338456351,-0.633688909,,16.91829343,,6.42E-35,15.99571409,0.45804579,0.29188956,0.172643987,0
-1.285202865,-0.170737009,-0.443348362,1.738395059,1.338456351,-0.633688909,,16.91829343,,6.42E-35,15.99571409,0.45804579,0.29188956,0.172643987,0
-1.285202865,-0.170737009,-0.443348362,1.738395059,1.338456351,-0.633688909,,16.91829343,,6.42E-35,15.99571409,0.45804579,0.29188956,0.172643987,0
-1.285202865,-0.170737009,-0.443348362,1.738395059,1.338456351,-0.633688909,,16.91829343,,6.42E-35,15.99571409,0.45804579,0.29188956,0.172643987,0
-1.285202865,-0.170737009,-0.443348362,1.738395059,1.338456351,-0.633688909,,16.91829343,,6.42E-35,15.99571409,0.45804579,0.29188956,0.172643987,0
-1.285202865,-0.170737009,-0.443348362,1.738395059,1.338456351,-0.633688909,,16.91829343,,6.42E-35,15.99571409,0.45804579,0.29188956,0.172643987,0
-1.285202865,-0.170737009,-0.443348362,1.738395059,1.338456351,-0.633688909,,16.91829343,,6.42E-35,15.99571409,0.45804579,0.29188956,0.172643987,0
-1.285202865,-0.170737009,-0.443348362,1.738395059,1.338456351,-0.633688909,,16.91829343,,6.42E-35,15.99571409,0.45804579,0.29188956,0.172643987,0
-1.285202865,-0.170737009,-0.443348362,1.738395059,1.338456351,-0.633688909,,16.91829343,,6.42E-35,15.99571409,0.45804579,0.29188956,0.172643987,0
-1.285202865,-0.170737009,-0.443348362,1.738395059,1.338456351,-0.633688909,,16.91829343,,6.42E-35,15.99571409,0.45804579,0.29188956,0.172643987,0
-1.285202865,-0.170737009,-0.443348362,1.738395059,1.338456351,-0.633688909,,16.91829343,,6.42E-35,15.99571409,0.45804579,0.29188956,0.172643987,0
-1.285202865,-0.170737009,-0.443348362,1.738395059,1.338456351,-0.633688909,,16.91829343,,6.42E-35,15.99571409,0.45804579,0.29188956,0.172643987,0
-1.285202865,-0.170737009,-0.443348362,1.738395059,1.338456351,-0.633688909,,16.91829343,,6.42E-35,15.99571409,0.45804579,0.29188956,0.172643987,0
-1.285202865,-0.170737009,-0.443348362,1.738395059,1.338456351,-0.633688909,,16.91829343,,6.42E-35,15.99571409,0.45804579,0.29188956,0.172643987,0
-1.285202865,-0.170737009,-0.443348362,1.738395059,1.338456351,-0.633688909,,16.91829343,,6.42E-35,15.99571409,0.45804579,0.29188956,0.172643987,0
-1.285202865,-0.170737009,-0.443348362,1.738395059,1.338456351,-0.633688909,,16.91829343,,6.42E-35,15.99571409,0.45804579,0.29188956,0.172643987,0
-1.285202865,-0.170737009,-0.443348362,1.738395059,1.338456351,-0.633688909,,16.91829343,,6.42E-35,15.99571409,0.45804579,0.29188956,0.172643987,0
-1.285202865,-0.170737009,-0.443348362,1.738395059,1.338456351,-0.633688909,,16.91829343,,6.42E-35,15.99571409,0.45804579,0.29188956,0.172643987,0
-1.285202865,-0.170737009,-0.443348362,1.738395059,1.338456351,-0.633688909,,16.91829343,,6.42E-35,15.99571409,0.45804579,0.29188956,0.172643987,0
-1.285202865,-0.170737009,-0.443348362,1.738395059,1.338456351,-0.633688909,,16.91829343,,6.42E-35,15.99571409,0.45804579,0.29188956,0.172643987,0
-1.285202865,-0.170737009,-0.443348362,1.738395059,1.338456351,-0.633688909,,16.91829343,,6.42E-35,15.99571409,0.45804579,0.29188956,0.172643987,0
-1.285202865,-0.170737009,-0.443348362,1.738395059,1.338456351,-0.633688909,,16.91829343,,6.42E-35,15.99571409,0.45804579,0.29188956,0.172643987,0
-1.285202865,-0.170737009,-0.443348362,1.738395059,1.338456351,-0.633688909,,16.91829343,,6.42E-35,15.99571409,0.45804579,0.29188956,0.172643987,0
-1.285202865,-0.170737009,-0.443348362,1.738395059,1.338456351,-0.633688909,,16.91829343,,6.42E-35,15.99571409,0.45804579,0.29188956,0.172643987,0
-1.285202865,-0.170737009,-0.443348362,1.738395059,1.338456351,-0.633688909,,16.91829343,,6.42E-35,15.99571409,0.45804579,0.29188956,0.172643987,0
-1.285202865,-0.170737009,-0.443348362,1.738395059,1.338456351,-0.633688909,,16.91829343,,6.42E-35,15.99571409,0.45804579,0.29188956,0.172643987,0
-1.285202865,-0.170737009,-0.443348362,1.738395059,1.338456351,-0.633688909,,16.91829343,,6.42E-35,15.99571409,0.45804579,0.29188956,0.172643987,0
-1.285202865,-0.170737009,-0.443348362,1.738395059,1.338456351,-0.633688909,,16.91829343,,6.42E-35,15.99571409,0.45804579,0.29188956,0.172643987,0
-1.285202865,-0.170737009,-0.443348362,1.738395059,1.338456351,-0.633688909,,16.91829343,,6.42E-35,15.99571409,0.45804579,0.29188956,0.172643987,0
-1.285202865,-0.170737009,-0.443348362,1.738395059,1.338456351,-0.633688909,,16.91829343,,6.42E-35,15.99571409,0.45804579,0.29188956,0.172643987,0
-1.285202865,-0.170737009,-0.443348362,1.738395059,1.338456351,-0.633688909,,16.91829343,,6.42E-35,15.99571409,0.45804579,0.29188956,0.172643987,0
-1.285202865,-0.170737009,-0.443348362,1.738395059,1.338456351,-0.633688909,,16.91829343,,6.42E-35,15.99571409,0.45804579,0.29188956,0.172643987,0
-1.285202865,-0.170737009,-0.443348362,1.738395059,1.338456351,-0.633688909,,16.91829343,,6.42E-35,15.99571409,0.45804579,0.29188956,0.172643987,0
-1.285202865,-0.170737009,-0.443348362,1.738395059,1.338456351,-0.633688909,,16.91829343,,6.42E-35,15.99571409,0.45804579,0.29188956,0.172643987,0
-1.285202865,-0.170737009,-0.443348362,1.738395059,1.338456351,-0.633688909,,16.91829343,,6.42E-35,15.99571409,0.45804579,0.29188956,0.172643987,0
-1.285202865,-0.170737009,-0.443348362,1.738395059,1.338456351,-0.633688909,,16.91829343,,6.42E-35,15.99571409,0.45804579,0.29188956,0.172643987,0
-1.285202865,-0.170737009,-0.443348362,1.738395059,1.338456351,-0.633688909,,16.91829343,,6.42E-35,15.99571409,0.45804579,0.29188956,0.172643987,0
-1.285202865,-0.170737009,-0.443348362,1.738395059,1.338456351,-0.633688909,,16.91829343,,6.42E-35,15.99571409,0.45804579,0.29188956,0.172643987,0
-1.285202865,-0.170737009,-0.443348362,1.738395059,1.338456351,-0.633688909,,16.91829343,,6.42E-35,15.99571409,0.45804579,0.29188956,0.172643987,0
-1.285202865,-0.170780147,-0.443388126,1.738414548,1.338470314,-0.633772394,,18.31184341,,4.66E-08,17.17394321,0.643334567,0.310902984,0.183662599,0
-1.285202865,-0.170840916,-0.44344417,1.738442037,1.338490011,-0.633889954,,20.1897178,,6.08E-07,18.77455265,0.881074297,0.335902531,0.198187715,0
-1.285202865,-0.170893806,-0.443493008,1.738466036,1.338507215,-0.633992181,,21.644464,,3.19E-06,20.0433565,1.038511786,0.353882625,0.208709902,0
-1.285202865,-0.170913308,-0.443511156,1.738475053,1.338513698,-0.634029664,,21.70665048,,1.10E-05,20.17747392,0.970389844,0.351354786,0.207420948,0
-1.285202865,-0.170873913,-0.443475127,1.7384576,1.338501231,-0.633952994,,20.53550099,,2.95E-05,19.36050955,0.650100085,0.328978101,0.195883752,0
-1.285202865,-0.170750113,-0.443361437,1.738402186,1.338461587,-0.633712762,,30.76681374,,6.74E-05,28.11030536,1.928712004,0.457086462,0.270642556,0
-1.285202865,-0.170516399,-0.443146602,1.73829732,1.338386538,-0.633259558,,48.52301091,,0.000137077,43.17013552,4.281117792,0.674448454,0.397172061,0
-1.285202865,-0.170147262,-0.442807135,1.738131514,1.338267856,-0.632543973,,77.04124628,,0.000316492,67.18976435,8.244096293,1.013061157,0.594007983,0
-1.285202865,-0.169495207,-0.442207789,1.737840044,1.338060162,-0.631273373,,124.9415119,,0.000624921,107.2345042,15.23652821,1.560831548,0.909023016,0
-1.285202865,-0.168432999,-0.44122098,1.737360079,1.337719822,-0.629198177,,173.9215406,,0.000674154,147.4752852,23.04326143,2.157960739,1.244359008,0
-1.285202865,-0.166935681,-0.43981407,1.7366794,1.337239857,-0.626253806,,229.3586018,,0.00078718,192.6117279,32.28614551,2.842419898,1.617521337,0
-1.285202865,-0.164971313,-0.437942205,1.73577881,1.336608048,-0.622363467,,283.2525785,,0.000813455,235.779234,41.93099988,3.553855229,1.987676024,0
-1.285202865,-0.162537801,-0.435576062,1.734646092,1.335820904,-0.617495744,,335.5764805,,0.000865911,276.6914082,52.23064499,4.30210652,2.351454881,0
-1.285202865,-0.159642998,-0.432685098,1.733276008,1.334881917,-0.611624456,,335.7007235,,0.000416044,274.9725181,53.69284696,4.591696684,2.443245789,0
-1.285202865,-0.156438748,-0.429394978,1.731733137,1.333836465,-0.605032348,,337.0736489,,0.000219605,274.1295091,55.57154814,4.860546988,2.511825098,0
-1.285202865,-0.15301127,-0.42576958,1.730047149,1.332712473,-0.597867771,,329.2398906,,0.000124449,265.7863257,55.9139653,5.025471979,2.514003156,0
-1.285202865,-0.149441897,-0.421867199,1.728251205,1.331534376,-0.590275589,,311.5908259,,3.16E-05,249.3793523,54.67783098,5.085783955,2.447827089,0
-1.285202865,-0.145815103,-0.417746476,1.726380212,1.330326608,-0.582395427,,282.5696032,,1.59E-08,225.20406,50.1181813,4.945583733,2.301778217,0
-1.285202865,-0.142217107,-0.413511435,1.724476058,1.329120585,-0.574426254,,266.3091156,,6.08E-06,210.8206355,48.38974024,4.89896518,2.199768545,0
-1.285202865,-0.13868491,-0.409205359,1.722563177,1.32792678,-0.566444863,,259.7334558,,1.25E-05,203.7627514,48.89338572,4.938707479,2.138598689,0
-1.285202865,-0.13522462,-0.404830865,1.720639824,1.326750428,-0.558465218,,252.9383973,,2.12E-05,196.1630169,49.70711238,4.992187229,2.076059577,0
-1.285202865,-0.131845139,-0.400380799,1.718706,1.325589784,-0.550483827,,250.012039,,1.24E-05,192.3229489,50.61683519,5.042729176,2.0295134,0
-1.285202865,-0.128536169,-0.395863713,1.716763448,1.324443103,-0.542502437,,245.3130999,,1.55E-05,186.8643055,51.38073198,5.091860247,1.976186656,0
-1.285202865,-0.125297711,-0.391283096,1.714813915,1.323313875,-0.534522791,,240.5234133,,9.85E-06,181.2447873,52.2122767,5.143096234,1.923243293,0
-1.285202865,-0.122131334,-0.386632143,1.712853911,1.322198609,-0.526543146,,234.3430855,,1.99E-05,174.2728956,53.01262723,5.194559255,1.862983428,0
-1.285202865,-0.119045418,-0.381907711,1.710886925,1.321100797,-0.518563501,,231.6302737,,1.66E-05,170.6561693,53.9120838,5.244253119,1.817750836,0
-1.285202865,-0.116029838,-0.377118178,1.708911212,1.320018693,-0.510585601,,227.2405896,,1.02E-05,165.5089613,54.6745386,5.29061301,1.766466514,0
-1.285202865,-0.113084944,-0.372263196,1.706926772,1.318952297,-0.502605955,,222.8997019,,1.56E-05,160.3556105,55.48837878,5.340113148,1.71558388,0
-1.285202865,-0.110211957,-0.367339797,1.704935352,1.317901609,-0.494629801,,217.2076477,,2.51E-05,153.8773299,56.28127653,5.39091458,1.658101621,0
-1.285202865,-0.107419081,-0.362343268,1.702935204,1.316868374,-0.486653646,,214.6744883,,1.08E-05,150.4427067,57.17981677,5.437397332,1.614556747,0
-1.285202865,-0.104696717,-0.357279719,1.700928076,1.315850847,-0.478677491,,210.6815518,,1.57E-05,145.7151746,57.91827381,5.48218704,1.565900732,0
-1.285202865,-0.102044514,-0.352151243,1.698913966,1.314847283,-0.470704827,,206.6756799,,1.99E-05,140.8944258,58.73295405,5.531341652,1.516938529,0
-1.285202865,-0.09946422,-0.346956096,1.696891129,1.313861172,-0.462730418,,201.3838851,,1.77E-05,134.8406533,59.50373468,5.577655104,1.461824354,0
-1.285202865,-0.096964036,-0.34168782,1.694861311,1.312892514,-0.454759499,,199.0649667,,1.64E-05,131.6427973,60.37807273,5.622962246,1.421118041,0
-1.285202865,-0.094533665,-0.336353221,1.692824512,1.311939564,-0.446788581,,195.5038267,,1.97E-05,127.2976939,61.1626474,5.668703012,1.374762704,0
-1.285202865,-0.092173281,-0.330953871,1.690780732,1.311002322,-0.438819407,,191.6111407,,1.83E-05,122.6736818,61.8978373,5.711509068,1.328094216,0
-1.285202865,-0.089884806,-0.325487848,1.688731715,1.310082534,-0.430850234,,187.0076725,,2.80E-05,117.247052,62.72363632,5.760374602,1.276581638,0
-1.285202865,-0.087675742,-0.319945904,1.686673972,1.309178453,-0.422884551,,184.6299238,,1.26E-05,114.0600589,63.53206893,5.800408165,1.237375191,0
-1.285202865,-0.085536492,-0.314341129,1.684609247,1.308291826,-0.414918868,,181.3818216,,1.31E-05,110.0110514,64.33155487,5.845573228,1.193629043,0
-1.285202865,-0.083466881,-0.308670205,1.682539287,1.307419161,-0.406953186,,177.8401829,,1.91E-05,105.7572681,65.04705188,5.885590504,1.150253311,0
-1.285202865,-0.081468828,-0.302932959,1.68046409,1.30656395,-0.398989248,,173.5876385,,2.92E-05,100.6866469,65.86572937,5.933323123,1.101909843,0
-1.285202865,-0.079549838,-0.297121885,1.678380167,1.305727937,-0.391027056,,171.335497,,1.86E-05,97.63220387,66.66742788,5.97102211,1.064824616,0
-1.285202865,-0.077700488,-0.291244663,1.676291008,1.304905887,-0.38306661,,168.3791121,,2.17E-05,93.88397445,67.45637147,6.014491567,1.024252911,0
-1.285202865,-0.075920426,-0.285301642,1.674196613,1.304099545,-0.375104418,,165.0660823,,1.48E-05,89.87632994,68.15408445,6.052408952,0.983244166,0
-1.285202865,-0.074211225,-0.279292997,1.672096982,1.303310656,-0.367145716,,161.1371836,,2.68E-05,85.13976889,68.96125586,6.097500293,0.93863177,0
-1.285202865,-0.072581262,-0.273208605,1.669988624,1.302539221,-0.359185269,,159.0388355,,2.24E-05,82.2391968,69.76134602,6.134626231,0.903644077,0
-1.285202865,-0.07102024,-0.267060508,1.667876776,1.301785239,-0.351226568,,156.237867,,1.41E-05,78.66629576,70.53024501,6.174631452,0.866680654,0
-1.285202865,-0.069528158,-0.260845216,1.665759691,1.301045219,-0.343269612,,153.1811402,,2.09E-05,74.90767115,71.2330121,6.21201856,0.828417516,0
-1.28520112,-0.068107111,-0.25456238,1.663635626,1.300322653,-0.335310911,,149.5678842,,3.13E-05,70.51145012,72.01541694,6.254214642,0.786771233,0
-1.28520112,-0.066764603,-0.24820624,1.661506324,1.29961754,-0.327353955,,147.5079725,,1.45E-05,67.65528446,72.80798073,6.289310771,0.755382006,0
-1.28520112,-0.065490862,-0.241781334,1.659371786,1.298928135,-0.319395253,,144.9031974,,2.00E-05,64.27618212,73.57793088,6.328357688,0.720706659,0
-1.28520112,-0.064286061,-0.235292723,1.657233758,1.298256183,-0.311438297,,142.0483526,,2.46E-05,60.74146648,74.25774476,6.363433633,0.685683185,0
-1.28520112,-0.063151597,-0.228735521,1.655088748,1.297599939,-0.303479596,,138.7073161,,2.18E-05,56.61836671,75.03723704,6.403770206,0.647920338,0
-1.285225845,-0.062105316,-0.222031959,1.653010498,1.296906025,-0.295422283,,130.4760778,,0.00739015,51.16356717,72.52471601,6.163744774,0.616659724,0
-1.285261562,-0.061144581,-0.215288499,1.650979184,1.296209701,-0.287393893,,118.8687905,,0.02982867,45.19338861,67.32838473,5.733216975,0.583971532,0
-1.285294537,-0.060266755,-0.208611605,1.648974985,1.295546227,-0.27952196,,105.3993946,,0.048773412,39.40606573,60.18619337,5.211118055,0.547244053,0
-1.285311034,-0.059469202,-0.202107739,1.646978079,1.294950862,-0.271934016,,91.5034538,,0.028068071,34.35451659,51.91827593,4.694286735,0.508306466,0
-1.285297321,-0.058749285,-0.195883365,1.644968644,1.294458866,-0.264757596,,78.57084517,,0.025732468,30.46018364,43.363067,4.258381863,0.463480207,0
-1.285239663,-0.058104367,-0.190044946,1.642926858,1.294105499,-0.258120234,,67.73564337,,0.054173962,28.06844589,35.29710127,3.93142733,0.384494921,0
-1.285124325,-0.057531812,-0.184698944,1.640832899,1.293926021,-0.252149462,,60.48757127,,0.752068346,27.54613732,28.33872576,3.66046221,0.190177628,0
-1.284937575,-0.057028982,-0.179951823,1.638666945,1.293955692,-0.246972816,,59.10880985,,3.095068728,29.42169033,22.83623134,3.271587659,0.484231791,0
-1.28453615,-0.056504511,-0.175854663,1.635909325,1.294484526,-0.2427561,,73.78892353,,6.681145391,35.42321642,26.10733609,4.156758023,1.42046761,0
-1.283876415,-0.055907085,-0.172251082,1.632341872,1.295585829,-0.239347472,,92.67562602,,12.76183392,44.30243545,27.8578133,4.920550477,2.832992878,0
-1.282899031,-0.055186438,-0.16900634,1.62769057,1.297376537,-0.236640467,,123.900348,,22.60114518,58.46456245,31.97302921,5.872291478,4.989319722,0
-1.281527202,-0.054284103,-0.165917107,1.621615079,1.299994531,-0.234474513,,176.0682608,,40.69627582,81.3727437,39.27479849,6.070215286,8.654227555,0
-1.279642246,-0.053119445,-0.162727169,1.613586564,1.303666703,-0.232671588,,221.828172,,51.15723379,101.7848258,47.63747033,10.13986548,11.10877656,0
-1.277259872,-0.051684959,-0.159241572,1.603608517,1.308345931,-0.230996072,,271.1462086,,63.06683797,123.4361358,57.29281585,13.69334019,13.65707878,0
-1.274376588,-0.049967904,-0.155315977,1.591612869,1.314033959,-0.229296121,,328.9598958,,76.59467462,148.0136802,70.55210694,17.450326,16.34910798,0
-1.270973196,-0.047950303,-0.150799065,1.577500136,1.320749986,-0.227416402,,404.4291092,,97.99057025,178.9757567,87.8949451,19.40814026,20.15969689,0
-1.266999081,-0.045594458,-0.145534803,1.561017247,1.328596986,-0.225232995,,427.7774676,,96.118273,191.2378633,95.07621654,25.62791626,19.71719849,0
-1.262522312,-0.04294051,-0.139605222,1.542450434,1.337433588,-0.222775571,,469.6045705,,104.9498664,210.1245304,105.0370032,28.65749864,20.83567175,0
-1.257542887,-0.03998846,-0.133008052,1.521797953,1.347265028,-0.22004064,,517.6764762,,116.9823011,231.5234361,116.153666,30.79609523,22.22097778,0
-1.252046846,-0.036729581,-0.125726538,1.499000463,1.358117485,-0.217021221,,588.1056389,,139.7289876,261.425403,131.47883,30.40956398,25.06285434,0
-1.24597659,-0.03313176,-0.117687377,1.473829324,1.370099171,-0.213687642,,589.9933893,,127.7285979,267.7473461,134.9194674,37.67735382,21.92062408,0
-1.239405426,-0.02923601,-0.108981849,1.446574263,1.383073948,-0.210078301,,622.5289212,,132.3797732,284.6510428,143.7480339,40.52407006,21.22600127,0
-1.232329861,-0.025041984,-0.099610827,1.417233533,1.397040073,-0.206193198,,663.4218573,,141.2288002,304.8746722,154.3744721,42.08973396,20.85417895,0
-1.224737679,-0.020541304,-0.089554066,1.385747793,1.412028961,-0.202023606,,731.5416893,,163.138872,335.5243163,170.4170134,40.36241711,22.09907032,0
-1.216574774,-0.01570154,-0.078739796,1.351888405,1.428147076,-0.197539855,,712.0734401,,140.191933,335.9638809,171.553203,48.34680077,16.01762238,0
-1.207907469,-0.010563745,-0.067259439,1.315945095,1.445256539,-0.192778597,,734.3027531,,139.3898674,350.6176897,180.3695964,50.77404763,13.15155196,0
-1.198737509,-0.0051279,-0.055113187,1.277916116,1.463359094,-0.187743322,,767.4163858,,143.7140131,369.5185066,191.8949591,51.56275843,10.72614859,0
-1.188957265,0.000669916,-0.042158195,1.237355391,1.482666944,-0.182372377,,796.9475543,,144.6777287,388.3236843,204.0880313,52.56550507,7.292604996,0
-1.178613322,0.006802033,-0.028456254,1.194456258,1.503088045,-0.176691455,,816.2598172,,139.5036626,404.1283552,215.6998326,54.35057541,2.577391441,0
-1.167752263,0.013240787,-0.014069153,1.149412052,1.524530349,-0.17072625,,825.6778361,,125.4505556,413.7261867,225.2735159,57.64893287,3.578644951,0
-1.156420671,0.019958509,0.000941319,1.102416112,1.546901814,-0.164502456,,819.3578984,,100.0419682,413.7006686,231.115317,63.30495277,11.19499176,0
-1.144665131,0.026927532,0.016513372,1.053661773,1.570110392,-0.158045766,,785.5096799,,61.31918504,400.5982747,231.2990402,72.18023,20.11295002,0
-1.132532225,0.034120191,0.032585217,1.003342372,1.594064038,-0.151381874,,718.0356974,,8.08950973,371.1918635,223.728828,85.01548744,30.01000872,0
-1.120068538,0.041508817,0.049095065,0.951651247,1.618670708,-0.144536475,,731.7284948,,59.89316618,322.845128,206.289999,102.2611409,40.43906066,0
-1.107320653,0.049065743,0.065981125,0.898781733,1.643838356,-0.137535261,,747.6211188,,141.7348029,253.9890501,177.1159708,123.8923806,50.88891447,0
-1.094584986,0.056615339,0.082850431,0.845966324,1.668979824,-0.130540854,,743.2406207,,237.4141379,161.7958604,133.1533321,149.8443006,61.03298976,0
-1.082100646,0.064016234,0.099387949,0.794189387,1.693627364,-0.123684154,,709.9637006,,293.3093934,89.1798156,96.68095251,166.4688651,64.32467402,0
-1.070045656,0.071163182,0.115356664,0.744189194,1.717428419,-0.117062898,,658.1402539,,337.2280504,18.39627732,58.11755122,179.2193569,65.17901808,0
-1.058603278,0.077946055,0.130514325,0.696737183,1.74001647,-0.110778666,,694.7301293,,373.0452363,51.89818179,16.96063884,188.18819,64.63788243,0
-1.047977713,0.084244774,0.144588835,0.65267111,1.760984855,-0.104943332,,775.2340512,,390.650684,112.0821128,20.46524249,190.0566344,61.97937752,0
-1.038373166,0.089938387,0.157310191,0.612839206,1.779956584,-0.099668423,,651.295951,,321.6990157,96.26090185,16.28528171,167.500154,49.55059768,0
-1.029737277,0.095057438,0.168749079,0.577025049,1.797008451,-0.094925665,,598.6427614,,283.6050783,99.50330519,22.64830067,150.8841385,42.0019387,0
-1.022103207,0.099582902,0.178861691,0.545364777,1.812070643,-0.090732861,,544.0882489,,247.8124271,99.95326797,27.46612253,133.3525863,35.50384507,0
-1.015509353,0.10349244,0.187597064,0.518013722,1.825090799,-0.087110954,,511.4655592,,222.2317092,106.0081204,35.3695471,117.0454518,30.81073071,0
-1.010053454,0.10672636,0.194822901,0.495390764,1.83585948,-0.084114922,,362.2899565,,158.1235988,71.49470823,20.54995226,90.23290592,21.88879124,0
-1.00560461,0.109364076,0.2007181,0.476935653,1.84465594,-0.081670937,,288.7670309,,123.6676259,59.1597953,17.50019623,71.49422448,16.94518899,0
-1.00215933,0.111405588,0.205280914,0.462651878,1.851445271,-0.079779349,,223.57878,,93.51277752,48.48514585,15.21580464,53.66667209,12.69837991,0
-0.999754266,0.112831173,0.208466489,0.452677321,1.856192566,-0.078458659,,159.1019247,,64.16803859,38.02950838,12.83258558,35.43324371,8.638548455,0
-0.998488902,0.113581141,0.210142529,0.447430862,1.858688387,-0.077763494,,59.56878887,,23.93753519,14.14236194,3.788916679,14.4080764,3.291898654,0
-0.998230594,0.113735079,0.21048601,0.446352248,1.859211986,-0.0776209,,22.36039899,,8.308567743,6.345462127,1.245805344,5.271018312,1.189545461,0
-0.998975849,0.113292812,0.209498851,0.449444972,1.857728456,-0.078030529,,99.61347075,,40.47640426,23.10167178,6.89111829,23.63761361,5.506662805,0
-1.000761321,0.112234619,0.207134454,0.456848658,1.854202891,-0.079010706,,202.3440142,,82.33721469,47.40364709,16.27670433,45.24818027,11.07826777,0
-1.003684748,0.110500635,0.203260696,0.468976951,1.848443304,-0.080617107,,251.1098782,,106.5911833,52.36653672,15.62879219,61.96970347,14.55366247,0
-1.007615229,0.10817062,0.198054378,0.485276581,1.840676589,-0.082775381,,324.2916292,,140.1016475,65.31241997,19.09219475,80.50475442,19.28061251,0
-1.01255102,0.105244576,0.191517248,0.505745803,1.830937652,-0.085486227,,414.9421211,,181.6897337,82.29095819,24.55315268,101.1762709,25.23200567,0
-1.018525282,0.10170243,0.183603052,0.530524242,1.819139226,-0.088767795,,556.5943526,,244.6919751,112.9839908,37.11173282,127.5737681,34.23288577,0
-1.02564099,0.097484667,0.174179321,0.560030778,1.805089326,-0.092675063,,561.1739155,,261.447699,96.97348195,23.56707325,141.0720048,38.11365655,0
-1.033760261,0.092671049,0.163424603,0.593705161,1.789067203,-0.097134554,,628.1401492,,303.0488943,99.55063242,20.46366677,159.4051934,45.67176228,0
-1.04287088,0.087270302,0.151356349,0.631486303,1.771072858,-0.10213789,,690.2002711,,346.4927855,97.87737766,14.97502132,176.5177419,54.33734479,0
-1.052950156,0.081293946,0.138004929,0.67329392,1.751176105,-0.107674423,,770.9225316,,401.1677921,98.91463073,11.1266691,194.2104158,65.50302388,0
-1.064005072,0.074740758,0.123361093,0.719138484,1.729354253,-0.113745376,,656.6683743,,354.0938554,15.76636059,38.36976489,183.7207008,64.71769267,0
-1.075766846,0.067767819,0.107782633,0.767918691,1.706132648,-0.120205363,,685.1522812,,317.3283346,52.26582016,76.97289633,173.5758404,65.00938971,0
-1.088052218,0.060484385,0.091507962,0.818871833,1.681877807,-0.126952806,,728.7706008,,268.550099,123.6784667,114.3643996,159.0172262,63.16040925,0
-1.100566084,0.053066989,0.074951514,0.870765271,1.657171217,-0.133803224,,748.375472,,207.4942101,193.4595787,147.8327149,141.3814684,58.20749989,0
-1.113180077,0.045590958,0.05827209,0.923070233,1.632266865,-0.140698446,,745.0539217,,139.4825489,256.9645474,175.3898456,122.7164238,50.50055588,0
-1.125765833,0.038131622,0.041628489,0.975257947,1.607418737,-0.147580304,,721.9542272,,70.03588398,310.6655772,195.9340716,104.5957712,40.72292331,0
-1.138194988,0.030764308,0.025179512,1.026799639,1.58288082,-0.154390629,,683.6102189,,4.49111895,352.1442269,209.0589952,88.10670837,29.80916948,0
-1.150339175,0.023564345,0.009083958,1.077166537,1.558907102,-0.161071251,,740.0424677,,52.44856063,380.0275152,214.8438211,73.90804613,18.81452471,0
-1.162070032,0.016607061,-0.006499373,1.12582987,1.53575157,-0.167564,,775.6556259,,97.00741385,393.8818813,213.6638364,62.33087669,8.771617726,0
-1.173259192,0.009967785,-0.021411682,1.172260864,1.51366821,-0.173810708,,780.6385958,,126.4824003,394.0667164,206.0289123,53.49233277,0.568234036,0
-1.183778292,0.003721845,-0.035494168,1.215930747,1.492911009,-0.179753205,,765.846887,,139.3431795,381.5390164,192.4300994,47.40019052,5.134401186,0
-1.193775538,-0.00222601,-0.04905089,1.257487037,1.473197515,-0.185591331,,768.672235,,162.365185,374.0531391,182.1403864,37.8924214,12.221103,0
-1.203203806,-0.007854942,-0.062107454,1.296765672,1.454621976,-0.191398042,,692.8582935,,137.6899446,339.4421367,163.2270219,40.86086877,11.63832145,0
-1.212131166,-0.013206139,-0.074784985,1.334045904,1.437058728,-0.197248385,,667.7245989,,139.0613159,323.3900669,153.9092037,36.87322421,14.49078805,0
-1.220554124,-0.018284418,-0.08713469,1.369345189,1.420513006,-0.203198213,,656.6580091,,145.167467,312.1945584,149.503024,32.04370063,17.74925922,0
-1.228456975,-0.02308355,-0.099167863,1.402595456,1.405024954,-0.209282431,,661.8206162,,158.7756067,306.2212551,149.6545807,25.22673502,21.94243874,0
-1.235790849,-0.027581089,-0.110856856,1.433616938,1.39068882,-0.215513256,,605.4738993,,133.0338496,279.5565611,143.3333162,29.88336194,19.66681038,0
-1.242622068,-0.031815258,-0.12223745,1.462666198,1.377373703,-0.221874981,,584.5761476,,128.9668228,266.02187,141.3893553,27.72873784,20.4693616,0
-1.248952377,-0.035789198,-0.133306328,1.489738,1.365077859,-0.228365861,,569.1043418,,128.6525161,254.5745822,140.2677756,24.01142407,21.59804388,0
-1.254759087,-0.03949715,-0.144048655,1.514764276,1.353844919,-0.234994621,,560.6764924,,133.1154357,245.508483,140.6044543,18.23417603,23.21394335,0
-1.259998566,-0.042921661,-0.154427954,1.537558277,1.343767388,-0.241768244,,504.6847483,,108.1810983,220.9421501,134.248777,21.37210895,19.94061399,0
